movej([0.846470, -3.040916, -0.197875, -0.766856, -2.341798, -2.155399])
movej([0.846470, -3.040916, -0.197885, -0.766856, -2.341798, -2.155383])
movej([0.846470, -3.040916, -0.197885, -0.766840, -2.341798, -2.155399])
movej([0.846470, -3.040916, -0.197885, -0.766840, -2.341798, -2.155399])
movej([0.846470, -3.040916, -0.197885, -0.766845, -2.341798, -2.155399])
movej([0.846470, -3.040907, -0.197885, -0.766856, -2.341798, -2.155399])
movej([0.846470, -3.040907, -0.197885, -0.766851, -2.341798, -2.155394])
movej([0.846470, -3.040916, -0.197885, -0.766841, -2.341798, -2.155383])
movej([0.846470, -3.040916, -0.197885, -0.766856, -2.341798, -2.155395])
movej([0.846470, -3.040916, -0.197885, -0.766855, -2.341798, -2.155398])
movej([0.846470, -3.040916, -0.197878, -0.766852, -2.341798, -2.155399])
movej([0.846470, -3.040916, -0.197885, -0.766856, -2.341798, -2.155384])
movej([0.846470, -3.040916, -0.197885, -0.766840, -2.341798, -2.155383])
movej([0.846470, -3.040916, -0.197885, -0.766840, -2.341798, -2.155397])
movej([0.846470, -3.040916, -0.197885, -0.766840, -2.341798, -2.155399])
movej([0.846470, -3.040916, -0.197885, -0.766842, -2.341798, -2.155385])
movej([0.846470, -3.040916, -0.197885, -0.766843, -2.341798, -2.155386])
movej([0.846470, -3.040916, -0.197875, -0.766840, -2.341798, -2.155397])
movej([0.846470, -3.040916, -0.197875, -0.766853, -2.341798, -2.155396])
movej([0.846470, -3.040916, -0.197885, -0.766843, -2.341798, -2.155383])
movej([0.846470, -3.040916, -0.197885, -0.766853, -2.341798, -2.155383])
movej([0.846470, -3.040916, -0.197885, -0.766843, -2.341798, -2.155399])
movej([0.846470, -3.040916, -0.197885, -0.766856, -2.341798, -2.155397])
movej([0.846470, -3.040907, -0.197885, -0.766853, -2.341798, -2.155399])
movej([0.846470, -3.040908, -0.197885, -0.766842, -2.341798, -2.155385])
movej([0.846470, -3.040916, -0.197885, -0.766840, -2.341798, -2.155386])
movej([0.846470, -3.040916, -0.197875, -0.766856, -2.341798, -2.155383])
movej([0.846470, -3.040916, -0.197875, -0.766840, -2.341798, -2.155387])
movej([0.846470, -3.040916, -0.197885, -0.766841, -2.341798, -2.155399])
movej([0.846470, -3.040916, -0.197885, -0.766840, -2.341798, -2.155383])
movej([0.846470, -3.040916, -0.197885, -0.766841, -2.341798, -2.155383])
movej([0.846479, -3.040916, -0.197885, -0.766844, -2.341798, -2.155387])
movej([0.846479, -3.040916, -0.197885, -0.766855, -2.341798, -2.155399])
movej([0.846479, -3.040916, -0.197885, -0.766845, -2.341798, -2.155388])
movej([0.846470, -3.040916, -0.197885, -0.766855, -2.341798, -2.155383])
movej([0.846470, -3.040916, -0.197885, -0.766851, -2.341798, -2.155399])
movej([0.846470, -3.040916, -0.197885, -0.766840, -2.341798, -2.155383])
movej([0.846470, -3.040916, -0.197885, -0.766840, -2.341798, -2.155388])
movej([0.846470, -3.040916, -0.197875, -0.766856, -2.341798, -2.155383])
movej([0.846470, -3.040916, -0.197885, -0.766850, -2.341798, -2.155383])
movej([0.846470, -3.040916, -0.197885, -0.766840, -2.341798, -2.155383])
movej([0.846470, -3.040916, -0.197885, -0.766850, -2.341798, -2.155389])
movej([0.846470, -3.040916, -0.197885, -0.766840, -2.341798, -2.155383])
movej([0.846470, -3.040916, -0.197875, -0.766850, -2.341798, -2.155393])
movej([0.846470, -3.040916, -0.197875, -0.766853, -2.341798, -2.155399])
movej([0.846470, -3.040916, -0.197885, -0.766850, -2.341798, -2.155399])
movej([0.846470, -3.040916, -0.197885, -0.766852, -2.341798, -2.155383])
movej([0.846470, -3.040916, -0.197885, -0.766840, -2.341798, -2.155399])
movej([0.846470, -3.040916, -0.197885, -0.766840, -2.341798, -2.155388])
movej([0.846470, -3.040916, -0.197885, -0.766856, -2.341798, -2.155390])
movej([0.846470, -3.040916, -0.197885, -0.766840, -2.341798, -2.155383])
movej([0.846470, -3.040916, -0.197885, -0.766856, -2.341798, -2.155390])
movej([0.846470, -3.040916, -0.197885, -0.766840, -2.341798, -2.155399])
movej([0.846470, -3.040907, -0.197885, -0.766856, -2.341798, -2.155391])
movej([0.846470, -3.040916, -0.197885, -0.766856, -2.341798, -2.155391])
movej([0.846470, -3.040916, -0.197885, -0.766848, -2.341798, -2.155391])
movej([0.846793, -3.040218, -0.199234, -0.766556, -2.341952, -2.155848])
movej([0.849045, -3.035350, -0.208633, -0.764459, -2.343028, -2.158972])
movej([0.853384, -3.025974, -0.226736, -0.760420, -2.345100, -2.164989])
movej([0.859880, -3.011933, -0.253847, -0.754372, -2.348203, -2.174000])
movej([0.868489, -2.993329, -0.289768, -0.746358, -2.352314, -2.185940])
movej([0.879232, -2.970111, -0.334598, -0.736357, -2.357445, -2.200841])
movej([0.892067, -2.942371, -0.388159, -0.724407, -2.363575, -2.218643])
movej([0.907085, -2.909915, -0.450827, -0.710426, -2.370748, -2.239473])
movej([0.924165, -2.873000, -0.522104, -0.694525, -2.378905, -2.263165])
movej([0.943457, -2.831308, -0.602604, -0.676566, -2.388118, -2.289921])
movej([0.963393, -2.788222, -0.685797, -0.658006, -2.397639, -2.317573])
movej([0.983399, -2.744985, -0.769281, -0.639381, -2.407194, -2.345322])
movej([1.003396, -2.701768, -0.852726, -0.620765, -2.416744, -2.373058])
movej([1.023413, -2.658507, -0.936257, -0.602130, -2.426305, -2.400822])
movej([1.043400, -2.615312, -1.019658, -0.583524, -2.435850, -2.428543])
movej([1.063406, -2.572074, -1.103145, -0.564898, -2.445405, -2.456293])
movej([1.083415, -2.528832, -1.186638, -0.546271, -2.454961, -2.484044])
movej([1.103374, -2.485698, -1.269925, -0.527690, -2.464493, -2.511727])
movej([1.123410, -2.442396, -1.353534, -0.509038, -2.474062, -2.539518])
movej([1.143460, -2.399064, -1.437200, -0.490372, -2.483637, -2.567327])
movej([1.163457, -2.355845, -1.520649, -0.471755, -2.493188, -2.595064])
movej([1.183074, -2.313450, -1.602508, -0.453493, -2.502557, -2.622272])
movej([1.200723, -2.275307, -1.676155, -0.437062, -2.510986, -2.646751])
movej([1.216284, -2.241676, -1.741092, -0.422576, -2.518418, -2.668335])
movej([1.229712, -2.212656, -1.797125, -0.410075, -2.524831, -2.686960])
movej([1.241001, -2.188257, -1.844234, -0.399565, -2.530223, -2.702618])
movej([1.250159, -2.168466, -1.882449, -0.391039, -2.534597, -2.715320])
movej([1.257200, -2.153249, -1.911831, -0.384485, -2.537959, -2.725086])
movej([1.262128, -2.142599, -1.932393, -0.379897, -2.540312, -2.731921])
movej([1.264919, -2.136568, -1.944040, -0.377299, -2.541645, -2.735792])
movej([1.265721, -2.135218, -1.946860, -0.376867, -2.541715, -2.736639])
movej([1.265713, -2.135416, -1.946533, -0.376975, -2.541677, -2.736506])
movej([1.264126, -2.138843, -1.939916, -0.378451, -2.540920, -2.734308])
movej([1.260449, -2.146785, -1.924579, -0.381871, -2.539166, -2.729212])
movej([1.254604, -2.159411, -1.900196, -0.387310, -2.536377, -2.721111])
movej([1.246661, -2.176565, -1.867068, -0.394699, -2.532588, -2.710105])
movej([1.236592, -2.198311, -1.825071, -0.404066, -2.527784, -2.696153])
movej([1.224422, -2.224601, -1.774302, -0.415389, -2.521976, -2.679286])
movej([1.210044, -2.255652, -1.714336, -0.428765, -2.515117, -2.659363])
movej([1.193574, -2.291228, -1.645636, -0.444088, -2.507258, -2.636539])
movej([1.174975, -2.331398, -1.568058, -0.461391, -2.498384, -2.610764])
movej([1.155010, -2.374519, -1.484784, -0.479965, -2.488859, -2.583098])
movej([1.135023, -2.417690, -1.401415, -0.498560, -2.479322, -2.555400])
movej([1.114992, -2.460952, -1.317867, -0.517195, -2.469766, -2.527643])
movej([1.094979, -2.504178, -1.234391, -0.535813, -2.460217, -2.499909])
movej([1.074998, -2.547336, -1.151046, -0.554404, -2.450683, -2.472220])
movej([1.054976, -2.590581, -1.067531, -0.573031, -2.441130, -2.444473])
movej([1.034967, -2.633799, -0.984072, -0.591646, -2.431583, -2.416746])
movej([1.014914, -2.677109, -0.900432, -0.610301, -2.422016, -2.388957])
movej([0.994914, -2.720306, -0.817009, -0.628908, -2.412473, -2.361241])
movej([0.974908, -2.763518, -0.733561, -0.647520, -2.402928, -2.333517])
movej([0.954892, -2.806749, -0.650075, -0.666142, -2.393378, -2.305781])
movej([0.934995, -2.849724, -0.567082, -0.684653, -2.383885, -2.278208])
movej([0.916604, -2.889447, -0.490370, -0.701763, -2.375110, -2.252721])
movej([0.900441, -2.924356, -0.422956, -0.716799, -2.367399, -2.230324])
movej([0.886335, -2.954823, -0.364119, -0.729923, -2.360668, -2.210777])
movej([0.874395, -2.980612, -0.314314, -0.741031, -2.354971, -2.194230])
movej([0.864557, -3.001862, -0.273278, -0.750184, -2.350277, -2.180596])
movej([0.856867, -3.018470, -0.241204, -0.757338, -2.346608, -2.169940])
movej([0.851267, -3.030566, -0.217846, -0.762548, -2.343936, -2.162180])
movej([0.847841, -3.037965, -0.203556, -0.765735, -2.342302, -2.157433])
movej([0.846498, -3.040868, -0.197951, -0.766985, -2.341661, -2.155570])
movej([0.846441, -3.040603, -0.198177, -0.766807, -2.341791, -2.155376])
movej([0.847548, -3.038210, -0.202799, -0.765776, -2.342319, -2.156912])
movej([0.850819, -3.031145, -0.216444, -0.762731, -2.343881, -2.161449])
movej([0.856163, -3.019599, -0.238741, -0.757758, -2.346434, -2.168862])
movej([0.863693, -3.003333, -0.270153, -0.750749, -2.350030, -2.179304])
movej([0.873305, -2.982568, -0.310255, -0.741802, -2.354621, -2.192636])
movej([0.885088, -2.957113, -0.359413, -0.730835, -2.360248, -2.208979])
movej([0.898942, -2.927185, -0.417211, -0.717940, -2.366864, -2.228194])
movej([0.914973, -2.892552, -0.484092, -0.703019, -2.374520, -2.250429])
movej([0.933087, -2.853423, -0.559658, -0.686159, -2.383170, -2.275551])
movej([0.952942, -2.810531, -0.642491, -0.667679, -2.392652, -2.303089])
movej([0.972951, -2.767303, -0.725970, -0.649054, -2.402208, -2.330842])
movej([0.992957, -2.724084, -0.809435, -0.630434, -2.411763, -2.358590])
movej([1.012971, -2.680848, -0.892931, -0.611805, -2.421322, -2.386348])
movej([1.032968, -2.637650, -0.976355, -0.593193, -2.430872, -2.414083])
movej([1.052981, -2.594415, -1.059849, -0.574565, -2.440429, -2.441841])
movej([1.072981, -2.551211, -1.143286, -0.555950, -2.449980, -2.469579])
movej([1.092996, -2.507969, -1.226793, -0.537319, -2.459540, -2.497342])
movej([1.112994, -2.464769, -1.310220, -0.518706, -2.469090, -2.525077])
movej([1.132985, -2.421582, -1.393623, -0.500099, -2.478637, -2.552805])
movej([1.153042, -2.378254, -1.477298, -0.481431, -2.488216, -2.580622])
movej([1.173051, -2.335028, -1.560775, -0.462807, -2.497772, -2.608375])
movej([1.191821, -2.294479, -1.639082, -0.445337, -2.506735, -2.634408])
movej([1.208454, -2.258546, -1.708476, -0.429854, -2.514679, -2.657478])
movej([1.222998, -2.227127, -1.769150, -0.416317, -2.521625, -2.677649])
movej([1.235383, -2.200374, -1.820817, -0.404790, -2.527539, -2.694826])
movej([1.245677, -2.178136, -1.863763, -0.395209, -2.532456, -2.709103])
movej([1.253827, -2.160527, -1.897768, -0.387622, -2.536349, -2.720408])
movej([1.259838, -2.147543, -1.922844, -0.382028, -2.539219, -2.728745])
movej([1.263726, -2.139144, -1.939064, -0.378409, -2.541075, -2.734137])
movej([1.265509, -2.135291, -1.946503, -0.376750, -2.541927, -2.736611])
movej([1.265799, -2.135278, -1.946804, -0.376926, -2.541710, -2.736603])
movej([1.265084, -2.136825, -1.943812, -0.377594, -2.541368, -2.735609])
movej([1.262269, -2.142904, -1.932072, -0.380212, -2.540025, -2.731708])
movej([1.257360, -2.153509, -1.911594, -0.384779, -2.537683, -2.724905])
movej([1.250281, -2.168794, -1.882074, -0.391364, -2.534306, -2.715097])
movej([1.241108, -2.188606, -1.843815, -0.399897, -2.529930, -2.702386])
movej([1.229794, -2.213043, -1.796623, -0.410422, -2.524531, -2.686707])
movej([1.216405, -2.241958, -1.740781, -0.422877, -2.518143, -2.668154])
movej([1.200814, -2.275630, -1.675756, -0.437380, -2.510706, -2.646550])
movej([1.183130, -2.313825, -1.601995, -0.453831, -2.502268, -2.622044])
movej([1.163471, -2.356285, -1.519998, -0.472120, -2.492889, -2.594802])
movej([1.143466, -2.399490, -1.436562, -0.490729, -2.483344, -2.567082])
movej([1.123462, -2.442693, -1.353129, -0.509338, -2.473801, -2.539363])
movej([1.103446, -2.485923, -1.269644, -0.527958, -2.464251, -2.511626])
movej([1.083394, -2.529230, -1.186010, -0.546612, -2.454684, -2.483839])
movej([1.063403, -2.572405, -1.102633, -0.565207, -2.445146, -2.456138])
movej([1.043372, -2.615667, -1.019086, -0.583842, -2.435590, -2.428381])
movej([1.023387, -2.658831, -0.935730, -0.602433, -2.426055, -2.400687])
movej([1.003350, -2.702104, -0.852162, -0.621072, -2.416495, -2.372923])
movej([0.983350, -2.745300, -0.768744, -0.639677, -2.406953, -2.345208])
movej([0.963316, -2.788568, -0.685184, -0.658314, -2.397394, -2.317447])
movej([0.943300, -2.831798, -0.601700, -0.676934, -2.387845, -2.289710])
movej([0.924130, -2.873200, -0.521747, -0.694766, -2.378699, -2.263147])
movej([0.907010, -2.910174, -0.450343, -0.710692, -2.370532, -2.239424])
movej([0.892013, -2.942564, -0.387792, -0.724644, -2.363376, -2.218642])
movej([0.879151, -2.970342, -0.334147, -0.736609, -2.357240, -2.200819])
movej([0.868448, -2.993459, -0.289505, -0.746565, -2.352133, -2.185988])
movej([0.859840, -3.012049, -0.253604, -0.754572, -2.348027, -2.174060])
movej([0.853381, -3.026001, -0.226661, -0.760582, -2.344945, -2.165109])
movej([0.849011, -3.035438, -0.208436, -0.764647, -2.342860, -2.159053])
movej([0.846812, -3.040187, -0.199266, -0.766692, -2.341811, -2.156007])
movej([0.846359, -3.040643, -0.198112, -0.766777, -2.341830, -2.155335])
movej([0.851686, -3.029252, -0.220110, -0.761900, -2.344348, -2.162664])
movej([0.889540, -2.947479, -0.378026, -0.726670, -2.362421, -2.215165])
movej([0.950593, -2.815590, -0.632728, -0.669847, -2.391571, -2.299841])
movej([1.011729, -2.683520, -0.887778, -0.612946, -2.420761, -2.384633])
movej([1.072902, -2.551371, -1.142981, -0.556011, -2.449967, -2.469476])
movej([1.134049, -2.419279, -1.398074, -0.499101, -2.479162, -2.554283])
movej([1.195159, -2.287265, -1.653016, -0.442225, -2.508339, -2.639040])
movej([1.248167, -2.172754, -1.874157, -0.392890, -2.533648, -2.712559])
movej([1.265675, -2.134854, -1.947459, -0.376503, -2.542009, -2.737118])
movej([1.265326, -2.136300, -1.943331, -0.376432, -2.542102, -2.737809])
movej([1.265420, -2.136156, -1.944374, -0.376578, -2.541987, -2.736827])
movej([1.265509, -2.135638, -1.946533, -0.376694, -2.541873, -2.736724])
movej([1.265566, -2.135042, -1.947136, -0.376692, -2.541873, -2.736675])
movej([1.265594, -2.134785, -1.947270, -0.376708, -2.541873, -2.736659])
movej([1.265641, -2.134746, -1.947238, -0.376760, -2.541873, -2.736643])
movej([1.265641, -2.134810, -1.947132, -0.376773, -2.541873, -2.736643])
movej([1.265641, -2.134970, -1.947013, -0.376789, -2.541856, -2.736627])
movej([1.265641, -2.135083, -1.946969, -0.376789, -2.541840, -2.736627])
movej([1.265641, -2.135083, -1.946969, -0.376773, -2.541840, -2.736627])
movej([1.265641, -2.135083, -1.946969, -0.376773, -2.541840, -2.736627])
movej([1.265641, -2.135083, -1.946969, -0.376773, -2.541840, -2.736627])
movej([1.265641, -2.135083, -1.946969, -0.376776, -2.541824, -2.736627])
movej([1.265641, -2.135074, -1.946970, -0.376789, -2.541824, -2.736627])
movej([1.265641, -2.135074, -1.946978, -0.376789, -2.541824, -2.736627])
movej([1.265641, -2.135064, -1.946987, -0.376789, -2.541824, -2.736627])
movej([1.265641, -2.135064, -1.946987, -0.376789, -2.541824, -2.736627])
movej([1.265641, -2.135055, -1.946997, -0.376789, -2.541825, -2.736627])
movej([1.265641, -2.135045, -1.946997, -0.376789, -2.541840, -2.736627])
movej([1.265641, -2.135045, -1.947006, -0.376789, -2.541839, -2.736627])
movej([1.265641, -2.135045, -1.947006, -0.376789, -2.541824, -2.736627])
movej([1.265641, -2.135026, -1.947006, -0.376789, -2.541840, -2.736627])
movej([1.264430, -2.137645, -1.941949, -0.377917, -2.541261, -2.734947])
movej([1.237665, -2.195487, -1.830266, -0.402833, -2.528479, -2.697844])
movej([1.179533, -2.321120, -1.587684, -0.456950, -2.500715, -2.617255])
movej([1.118421, -2.453193, -1.332670, -0.513841, -2.471529, -2.532537])
movej([1.057371, -2.585134, -1.077910, -0.570675, -2.442372, -2.447903])
movej([0.996152, -2.717437, -0.822451, -0.627665, -2.413135, -2.363036])
movej([0.934982, -2.849637, -0.567190, -0.684612, -2.383920, -2.278236])
movej([0.876220, -2.976631, -0.321984, -0.739314, -2.355856, -2.196776])
movej([0.848086, -3.037433, -0.204582, -0.765505, -2.342420, -2.157773])
movej([0.847645, -3.039092, -0.200809, -0.767334, -2.341409, -2.154278])
movej([0.846464, -3.039518, -0.201160, -0.767211, -2.341461, -2.154786])
movej([0.846564, -3.039895, -0.198590, -0.767059, -2.341510, -2.155177])
movej([0.846559, -3.040723, -0.197913, -0.767033, -2.341531, -2.155288])
movej([0.846489, -3.041297, -0.197579, -0.767015, -2.341579, -2.155343])
movej([0.846488, -3.041297, -0.197609, -0.766994, -2.341571, -2.155385])
movej([0.846460, -3.041235, -0.197711, -0.766994, -2.341529, -2.155392])
movej([0.846460, -3.041121, -0.197939, -0.766994, -2.341506, -2.155384])
movej([0.846460, -3.040875, -0.197975, -0.766994, -2.341539, -2.155376])
movej([0.846460, -3.040722, -0.197965, -0.766994, -2.341557, -2.155376])
movej([0.846460, -3.040722, -0.197965, -0.766994, -2.341549, -2.155376])
movej([0.846460, -3.040722, -0.197952, -0.766978, -2.341542, -2.155392])
movej([0.846460, -3.040741, -0.197924, -0.766978, -2.341529, -2.155383])
movej([0.846460, -3.040778, -0.197895, -0.766978, -2.341535, -2.155392])
movej([0.846460, -3.040858, -0.197881, -0.766978, -2.341545, -2.155392])
movej([0.846460, -3.040896, -0.197881, -0.766978, -2.341540, -2.155392])
movej([0.846460, -3.040911, -0.197871, -0.766978, -2.341520, -2.155392])
movej([0.846470, -3.040911, -0.197871, -0.766978, -2.341535, -2.155392])
movej([0.846470, -3.040911, -0.197871, -0.766978, -2.341521, -2.155392])
movej([0.846470, -3.040911, -0.197871, -0.766978, -2.341582, -2.155392])
movej([0.846470, -3.040911, -0.197871, -0.766978, -2.341603, -2.155392])
movej([0.846470, -3.040911, -0.197871, -0.766961, -2.341512, -2.155392])
movej([0.846470, -3.040911, -0.197871, -0.766961, -2.341482, -2.155392])
movej([0.862834, -3.005544, -0.266159, -0.751723, -2.349466, -2.178090])
movej([0.914388, -2.894128, -0.481290, -0.703716, -2.374106, -2.249596])
movej([0.975620, -2.761795, -0.736807, -0.646696, -2.403372, -2.334526])
movej([1.036737, -2.629709, -0.991848, -0.589783, -2.432584, -2.419297])
movej([1.097877, -2.497574, -1.246985, -0.532849, -2.461807, -2.504101])
movej([1.158998, -2.365482, -1.502036, -0.475933, -2.491020, -2.588876])
movej([1.219688, -2.234319, -1.755294, -0.419418, -2.520027, -2.673056])
movej([1.259855, -2.147512, -1.922907, -0.382015, -2.539225, -2.728767])
movej([1.265632, -2.135445, -1.946010, -0.376240, -2.542151, -2.738147])
movej([1.265302, -2.136304, -1.943573, -0.376507, -2.542019, -2.737323])
movej([1.265430, -2.135746, -1.945528, -0.376584, -2.541873, -2.736740])
movej([1.265518, -2.135176, -1.946865, -0.376676, -2.541873, -2.736725])
movej([1.265582, -2.134850, -1.947230, -0.376700, -2.541873, -2.736651])
movej([1.265613, -2.134801, -1.947261, -0.376757, -2.541873, -2.736627])
movej([1.265660, -2.134823, -1.947210, -0.376757, -2.541873, -2.736643])
movej([1.265660, -2.134883, -1.947099, -0.376757, -2.541858, -2.736643])
movej([1.265660, -2.134970, -1.946978, -0.376776, -2.541853, -2.736643])
movej([1.265660, -2.135044, -1.946978, -0.376789, -2.541840, -2.736643])
movej([1.265660, -2.135045, -1.946978, -0.376789, -2.541824, -2.736643])
movej([1.265660, -2.135045, -1.946978, -0.376789, -2.541824, -2.736643])
movej([1.265660, -2.135045, -1.946978, -0.376789, -2.541824, -2.736643])
movej([1.265660, -2.135045, -1.946978, -0.376789, -2.541824, -2.736630])
movej([1.265660, -2.135044, -1.946978, -0.376789, -2.541824, -2.736627])
movej([1.265660, -2.135036, -1.946978, -0.376789, -2.541824, -2.736627])
movej([1.265660, -2.135036, -1.946978, -0.376789, -2.541840, -2.736627])
movej([1.265650, -2.135036, -1.946978, -0.376789, -2.541840, -2.736627])
movej([1.265650, -2.135036, -1.946987, -0.376789, -2.541840, -2.736627])
movej([1.265650, -2.135036, -1.946987, -0.376789, -2.541840, -2.736627])
movej([1.265650, -2.135036, -1.946997, -0.376789, -2.541840, -2.736627])
movej([1.265650, -2.135036, -1.946997, -0.376789, -2.541840, -2.736631])
movej([1.265650, -2.135036, -1.946997, -0.376789, -2.541840, -2.736627])
movej([1.257983, -2.151607, -1.915001, -0.383927, -2.538178, -2.725997])
movej([1.215583, -2.243237, -1.738075, -0.423398, -2.517929, -2.667220])
movej([1.154471, -2.375305, -1.483067, -0.480287, -2.488743, -2.582503])
movej([1.093321, -2.507459, -1.227896, -0.537214, -2.459539, -2.497732])
movej([1.032197, -2.639551, -0.972842, -0.594114, -2.430348, -2.413000])
movej([0.971201, -2.771369, -0.718319, -0.650896, -2.401217, -2.328444])
movej([0.910026, -2.903577, -0.463042, -0.707845, -2.372001, -2.243637])
movej([0.859955, -3.011784, -0.254108, -0.754457, -2.348088, -2.174227])
movej([0.846364, -3.041249, -0.196470, -0.767329, -2.341466, -2.154547])
movej([0.847221, -3.039274, -0.201896, -0.767334, -2.341458, -2.154347])
movej([0.846605, -3.039718, -0.200051, -0.767138, -2.341454, -2.155067])
movej([0.846520, -3.040425, -0.198307, -0.767059, -2.341542, -2.155230])
