movej([0.846470, -3.040916, -0.197875, -0.766856, -2.341798, -2.155399],a=4, v=0.75, t=0.040000)
movej([0.846470, -3.040916, -0.197885, -0.766856, -2.341798, -2.155383],a=4, v=0.75, t=0.040000)
movej([0.846470, -3.040916, -0.197885, -0.766856, -2.341798, -2.155383],a=4, v=0.75, t=0.040000)
movej([0.846470, -3.040916, -0.197885, -0.766856, -2.341798, -2.155383],a=4, v=0.75, t=0.040000)
movej([0.846470, -3.040916, -0.197885, -0.766840, -2.341798, -2.155399],a=4, v=0.75, t=0.040000)
movej([0.846470, -3.040916, -0.197885, -0.766840, -2.341798, -2.155383],a=4, v=0.75, t=0.040000)
movej([0.846470, -3.040916, -0.197885, -0.766840, -2.341798, -2.155399],a=4, v=0.75, t=0.040000)
movej([0.846470, -3.040916, -0.197885, -0.766856, -2.341798, -2.155383],a=4, v=0.75, t=0.040000)
movej([0.846470, -3.040916, -0.197885, -0.766845, -2.341798, -2.155399],a=4, v=0.75, t=0.040000)
movej([0.846470, -3.040916, -0.197885, -0.766850, -2.341798, -2.155389],a=4, v=0.75, t=0.040000)
movej([0.846470, -3.040907, -0.197885, -0.766856, -2.341798, -2.155399],a=4, v=0.75, t=0.040000)
movej([0.846470, -3.040907, -0.197885, -0.766840, -2.341798, -2.155383],a=4, v=0.75, t=0.040000)
movej([0.846470, -3.040907, -0.197885, -0.766851, -2.341798, -2.155394],a=4, v=0.75, t=0.040000)
movej([0.846470, -3.040907, -0.197885, -0.766850, -2.341798, -2.155383],a=4, v=0.75, t=0.040000)
movej([0.846470, -3.040916, -0.197885, -0.766841, -2.341798, -2.155383],a=4, v=0.75, t=0.040000)
movej([0.846470, -3.040916, -0.197875, -0.766856, -2.341798, -2.155385],a=4, v=0.75, t=0.040000)
movej([0.846470, -3.040916, -0.197885, -0.766856, -2.341798, -2.155395],a=4, v=0.75, t=0.040000)
movej([0.846470, -3.040916, -0.197885, -0.766840, -2.341798, -2.155383],a=4, v=0.75, t=0.040000)
movej([0.846470, -3.040916, -0.197885, -0.766855, -2.341798, -2.155398],a=4, v=0.75, t=0.040000)
movej([0.846470, -3.040916, -0.197885, -0.766856, -2.341798, -2.155399],a=4, v=0.75, t=0.040000)
movej([0.846470, -3.040916, -0.197878, -0.766852, -2.341798, -2.155399],a=4, v=0.75, t=0.040000)
movej([0.846470, -3.040916, -0.197885, -0.766840, -2.341798, -2.155399],a=4, v=0.75, t=0.040000)
movej([0.846470, -3.040916, -0.197885, -0.766856, -2.341798, -2.155384],a=4, v=0.75, t=0.040000)
movej([0.846470, -3.040916, -0.197885, -0.766840, -2.341798, -2.155383],a=4, v=0.75, t=0.040000)
movej([0.846470, -3.040916, -0.197885, -0.766840, -2.341798, -2.155383],a=4, v=0.75, t=0.040000)
movej([0.846470, -3.040916, -0.197885, -0.766849, -2.341798, -2.155383],a=4, v=0.75, t=0.040000)
movej([0.846470, -3.040916, -0.197885, -0.766840, -2.341798, -2.155397],a=4, v=0.75, t=0.040000)
movej([0.846470, -3.040916, -0.197885, -0.766845, -2.341798, -2.155399],a=4, v=0.75, t=0.040000)
movej([0.846470, -3.040916, -0.197885, -0.766840, -2.341798, -2.155399],a=4, v=0.75, t=0.040000)
movej([0.846470, -3.040916, -0.197885, -0.766840, -2.341798, -2.155383],a=4, v=0.75, t=0.040000)
movej([0.846470, -3.040916, -0.197885, -0.766842, -2.341798, -2.155385],a=4, v=0.75, t=0.040000)
movej([0.846470, -3.040916, -0.197885, -0.766856, -2.341798, -2.155393],a=4, v=0.75, t=0.040000)
movej([0.846470, -3.040916, -0.197885, -0.766843, -2.341798, -2.155386],a=4, v=0.75, t=0.040000)
movej([0.846470, -3.040916, -0.197880, -0.766856, -2.341798, -2.155391],a=4, v=0.75, t=0.040000)
movej([0.846470, -3.040916, -0.197875, -0.766840, -2.341798, -2.155397],a=4, v=0.75, t=0.040000)
movej([0.846470, -3.040916, -0.197875, -0.766840, -2.341798, -2.155383],a=4, v=0.75, t=0.040000)
movej([0.846470, -3.040916, -0.197875, -0.766853, -2.341798, -2.155396],a=4, v=0.75, t=0.040000)
movej([0.846470, -3.040916, -0.197880, -0.766848, -2.341798, -2.155383],a=4, v=0.75, t=0.040000)
movej([0.846470, -3.040916, -0.197885, -0.766843, -2.341798, -2.155383],a=4, v=0.75, t=0.040000)
movej([0.846470, -3.040916, -0.197885, -0.766856, -2.341798, -2.155391],a=4, v=0.75, t=0.040000)
movej([0.846470, -3.040916, -0.197885, -0.766853, -2.341798, -2.155383],a=4, v=0.75, t=0.040000)
movej([0.846470, -3.040916, -0.197885, -0.766848, -2.341798, -2.155391],a=4, v=0.75, t=0.040000)
movej([0.846470, -3.040916, -0.197885, -0.766843, -2.341798, -2.155399],a=4, v=0.75, t=0.040000)
movej([0.846470, -3.040916, -0.197885, -0.766840, -2.341798, -2.155399],a=4, v=0.75, t=0.040000)
movej([0.846470, -3.040916, -0.197885, -0.766856, -2.341798, -2.155397],a=4, v=0.75, t=0.040000)
movej([0.846470, -3.040912, -0.197885, -0.766856, -2.341798, -2.155391],a=4, v=0.75, t=0.040000)
movej([0.846470, -3.040907, -0.197885, -0.766853, -2.341798, -2.155399],a=4, v=0.75, t=0.040000)
movej([0.846470, -3.040907, -0.197885, -0.766849, -2.341798, -2.155383],a=4, v=0.75, t=0.040000)
movej([0.846470, -3.040908, -0.197885, -0.766842, -2.341798, -2.155385],a=4, v=0.75, t=0.040000)
movej([0.846470, -3.040916, -0.197885, -0.766849, -2.341798, -2.155399],a=4, v=0.75, t=0.040000)
movej([0.846470, -3.040916, -0.197885, -0.766840, -2.341798, -2.155386],a=4, v=0.75, t=0.040000)
movej([0.846470, -3.040916, -0.197885, -0.766851, -2.341798, -2.155388],a=4, v=0.75, t=0.040000)
movej([0.846470, -3.040916, -0.197875, -0.766856, -2.341798, -2.155383],a=4, v=0.75, t=0.040000)
movej([0.846470, -3.040916, -0.197875, -0.766849, -2.341798, -2.155390],a=4, v=0.75, t=0.040000)
movej([0.846470, -3.040916, -0.197875, -0.766840, -2.341798, -2.155387],a=4, v=0.75, t=0.040000)
movej([0.846470, -3.040916, -0.197885, -0.766856, -2.341798, -2.155394],a=4, v=0.75, t=0.040000)
movej([0.846470, -3.040916, -0.197885, -0.766841, -2.341798, -2.155399],a=4, v=0.75, t=0.040000)
movej([0.846470, -3.040916, -0.197885, -0.766849, -2.341798, -2.155383],a=4, v=0.75, t=0.040000)
movej([0.846470, -3.040916, -0.197885, -0.766840, -2.341798, -2.155383],a=4, v=0.75, t=0.040000)
movej([0.846470, -3.040916, -0.197885, -0.766856, -2.341798, -2.155399],a=4, v=0.75, t=0.040000)
movej([0.846470, -3.040916, -0.197885, -0.766841, -2.341798, -2.155383],a=4, v=0.75, t=0.040000)
movej([0.846474, -3.040916, -0.197885, -0.766846, -2.341798, -2.155389],a=4, v=0.75, t=0.040000)
movej([0.846479, -3.040916, -0.197885, -0.766844, -2.341798, -2.155387],a=4, v=0.75, t=0.040000)
movej([0.846479, -3.040916, -0.197885, -0.766856, -2.341798, -2.155399],a=4, v=0.75, t=0.040000)
movej([0.846479, -3.040916, -0.197885, -0.766855, -2.341798, -2.155399],a=4, v=0.75, t=0.040000)
movej([0.846479, -3.040916, -0.197885, -0.766846, -2.341798, -2.155389],a=4, v=0.75, t=0.040000)
movej([0.846479, -3.040916, -0.197885, -0.766845, -2.341798, -2.155388],a=4, v=0.75, t=0.040000)
movej([0.846479, -3.040916, -0.197885, -0.766856, -2.341798, -2.155383],a=4, v=0.75, t=0.040000)
movej([0.846470, -3.040916, -0.197885, -0.766855, -2.341798, -2.155383],a=4, v=0.75, t=0.040000)
movej([0.846470, -3.040916, -0.197885, -0.766840, -2.341798, -2.155389],a=4, v=0.75, t=0.040000)
movej([0.846470, -3.040916, -0.197885, -0.766851, -2.341798, -2.155399],a=4, v=0.75, t=0.040000)
movej([0.846470, -3.040916, -0.197885, -0.766856, -2.341798, -2.155398],a=4, v=0.75, t=0.040000)
movej([0.846470, -3.040916, -0.197885, -0.766840, -2.341798, -2.155383],a=4, v=0.75, t=0.040000)
movej([0.846470, -3.040916, -0.197885, -0.766851, -2.341798, -2.155399],a=4, v=0.75, t=0.040000)
movej([0.846470, -3.040916, -0.197885, -0.766840, -2.341798, -2.155388],a=4, v=0.75, t=0.040000)
movej([0.846470, -3.040916, -0.197875, -0.766840, -2.341798, -2.155399],a=4, v=0.75, t=0.040000)
movej([0.846470, -3.040916, -0.197875, -0.766856, -2.341798, -2.155383],a=4, v=0.75, t=0.040000)
movej([0.846470, -3.040916, -0.197878, -0.766845, -2.341798, -2.155394],a=4, v=0.75, t=0.040000)
movej([0.846470, -3.040916, -0.197885, -0.766850, -2.341798, -2.155383],a=4, v=0.75, t=0.040000)
movej([0.846470, -3.040916, -0.197885, -0.766856, -2.341798, -2.155399],a=4, v=0.75, t=0.040000)
movej([0.846470, -3.040916, -0.197885, -0.766840, -2.341798, -2.155383],a=4, v=0.75, t=0.040000)
movej([0.846470, -3.040916, -0.197885, -0.766840, -2.341798, -2.155399],a=4, v=0.75, t=0.040000)
movej([0.846470, -3.040916, -0.197885, -0.766850, -2.341798, -2.155389],a=4, v=0.75, t=0.040000)
movej([0.846470, -3.040907, -0.197885, -0.766841, -2.341798, -2.155398],a=4, v=0.75, t=0.040000)
movej([0.846470, -3.040916, -0.197885, -0.766840, -2.341798, -2.155383],a=4, v=0.75, t=0.040000)
movej([0.846470, -3.040916, -0.197875, -0.766845, -2.341798, -2.155394],a=4, v=0.75, t=0.040000)
movej([0.846470, -3.040916, -0.197875, -0.766850, -2.341798, -2.155393],a=4, v=0.75, t=0.040000)
movej([0.846470, -3.040916, -0.197875, -0.766856, -2.341798, -2.155399],a=4, v=0.75, t=0.040000)
movej([0.846470, -3.040916, -0.197875, -0.766853, -2.341798, -2.155399],a=4, v=0.75, t=0.040000)
movej([0.846470, -3.040916, -0.197885, -0.766852, -2.341798, -2.155399],a=4, v=0.75, t=0.040000)
movej([0.846470, -3.040916, -0.197885, -0.766850, -2.341798, -2.155399],a=4, v=0.75, t=0.040000)
movej([0.846470, -3.040916, -0.197885, -0.766856, -2.341798, -2.155384],a=4, v=0.75, t=0.040000)
movej([0.846470, -3.040916, -0.197885, -0.766852, -2.341798, -2.155383],a=4, v=0.75, t=0.040000)
movej([0.846470, -3.040916, -0.197885, -0.766856, -2.341798, -2.155399],a=4, v=0.75, t=0.040000)
movej([0.846470, -3.040916, -0.197885, -0.766840, -2.341798, -2.155399],a=4, v=0.75, t=0.040000)
movej([0.846470, -3.040916, -0.197885, -0.766855, -2.341798, -2.155383],a=4, v=0.75, t=0.040000)
movej([0.846470, -3.040916, -0.197885, -0.766840, -2.341798, -2.155388],a=4, v=0.75, t=0.040000)
movej([0.846470, -3.040916, -0.197885, -0.766852, -2.341798, -2.155387],a=4, v=0.75, t=0.040000)
movej([0.846470, -3.040916, -0.197885, -0.766856, -2.341798, -2.155390],a=4, v=0.75, t=0.040000)
movej([0.846470, -3.040916, -0.197885, -0.766854, -2.341798, -2.155383],a=4, v=0.75, t=0.040000)
movej([0.846470, -3.040916, -0.197885, -0.766840, -2.341798, -2.155383],a=4, v=0.75, t=0.040000)
movej([0.846470, -3.040916, -0.197885, -0.766843, -2.341798, -2.155386],a=4, v=0.75, t=0.040000)
movej([0.846470, -3.040916, -0.197885, -0.766856, -2.341798, -2.155390],a=4, v=0.75, t=0.040000)
movej([0.846470, -3.040916, -0.197885, -0.766854, -2.341798, -2.155397],a=4, v=0.75, t=0.040000)
movej([0.846470, -3.040916, -0.197885, -0.766840, -2.341798, -2.155399],a=4, v=0.75, t=0.040000)
movej([0.846470, -3.040907, -0.197885, -0.766840, -2.341798, -2.155383],a=4, v=0.75, t=0.040000)
movej([0.846470, -3.040907, -0.197885, -0.766856, -2.341798, -2.155391],a=4, v=0.75, t=0.040000)
movej([0.846470, -3.040907, -0.197885, -0.766854, -2.341798, -2.155399],a=4, v=0.75, t=0.040000)
movej([0.846470, -3.040916, -0.197885, -0.766856, -2.341798, -2.155391],a=4, v=0.75, t=0.040000)
movej([0.846470, -3.040916, -0.197885, -0.766840, -2.341798, -2.155386],a=4, v=0.75, t=0.040000)
movej([0.846470, -3.040916, -0.197885, -0.766848, -2.341798, -2.155391],a=4, v=0.75, t=0.040000)
movej([0.846478, -3.040897, -0.197921, -0.766846, -2.341802, -2.155411],a=4, v=0.75, t=0.040000)
movej([0.846793, -3.040218, -0.199234, -0.766556, -2.341952, -2.155848],a=4, v=0.75, t=0.040000)
movej([0.847653, -3.038358, -0.202824, -0.765755, -2.342363, -2.157041],a=4, v=0.75, t=0.040000)
movej([0.849045, -3.035350, -0.208633, -0.764459, -2.343028, -2.158972],a=4, v=0.75, t=0.040000)
movej([0.850952, -3.031229, -0.216589, -0.762684, -2.343939, -2.161617],a=4, v=0.75, t=0.040000)
movej([0.853384, -3.025974, -0.226736, -0.760420, -2.345100, -2.164989],a=4, v=0.75, t=0.040000)
movej([0.856365, -3.019530, -0.239178, -0.757644, -2.346524, -2.169124],a=4, v=0.75, t=0.040000)
movej([0.859880, -3.011933, -0.253847, -0.754372, -2.348203, -2.174000],a=4, v=0.75, t=0.040000)
movej([0.863920, -3.003204, -0.270700, -0.750612, -2.350132, -2.179602],a=4, v=0.75, t=0.040000)
movej([0.868489, -2.993329, -0.289768, -0.746358, -2.352314, -2.185940],a=4, v=0.75, t=0.040000)
movej([0.873569, -2.982350, -0.310967, -0.741629, -2.354740, -2.192986],a=4, v=0.75, t=0.040000)
movej([0.879232, -2.970111, -0.334598, -0.736357, -2.357445, -2.200841],a=4, v=0.75, t=0.040000)
movej([0.885394, -2.956793, -0.360315, -0.730619, -2.360388, -2.209388],a=4, v=0.75, t=0.040000)
movej([0.892067, -2.942371, -0.388159, -0.724407, -2.363575, -2.218643],a=4, v=0.75, t=0.040000)
movej([0.899305, -2.926729, -0.418362, -0.717669, -2.367032, -2.228682],a=4, v=0.75, t=0.040000)
movej([0.907085, -2.909915, -0.450827, -0.710426, -2.370748, -2.239473],a=4, v=0.75, t=0.040000)
movej([0.915376, -2.891996, -0.485426, -0.702708, -2.374707, -2.250973],a=4, v=0.75, t=0.040000)
movej([0.924165, -2.873000, -0.522104, -0.694525, -2.378905, -2.263165],a=4, v=0.75, t=0.040000)
movej([0.933524, -2.852775, -0.561155, -0.685813, -2.383375, -2.276145],a=4, v=0.75, t=0.040000)
movej([0.943457, -2.831308, -0.602604, -0.676566, -2.388118, -2.289921],a=4, v=0.75, t=0.040000)
movej([0.953387, -2.809846, -0.644045, -0.667320, -2.392861, -2.303696],a=4, v=0.75, t=0.040000)
movej([0.963393, -2.788222, -0.685797, -0.658006, -2.397639, -2.317573],a=4, v=0.75, t=0.040000)
movej([0.973402, -2.766592, -0.727560, -0.648688, -2.402419, -2.331455],a=4, v=0.75, t=0.040000)
movej([0.983399, -2.744985, -0.769281, -0.639381, -2.407194, -2.345322],a=4, v=0.75, t=0.040000)
movej([0.993440, -2.723286, -0.811180, -0.630033, -2.411990, -2.359248],a=4, v=0.75, t=0.040000)
movej([1.003396, -2.701768, -0.852726, -0.620765, -2.416744, -2.373058],a=4, v=0.75, t=0.040000)
movej([1.013437, -2.680069, -0.894625, -0.611418, -2.421539, -2.386984],a=4, v=0.75, t=0.040000)
movej([1.023413, -2.658507, -0.936257, -0.602130, -2.426305, -2.400822],a=4, v=0.75, t=0.040000)
movej([1.033404, -2.636916, -0.977945, -0.592830, -2.431076, -2.414679],a=4, v=0.75, t=0.040000)
movej([1.043400, -2.615312, -1.019658, -0.583524, -2.435850, -2.428543],a=4, v=0.75, t=0.040000)
movej([1.053401, -2.593698, -1.061392, -0.574213, -2.440627, -2.442415],a=4, v=0.75, t=0.040000)
movej([1.063406, -2.572074, -1.103145, -0.564898, -2.445405, -2.456293],a=4, v=0.75, t=0.040000)
movej([1.073420, -2.550434, -1.144928, -0.555577, -2.450187, -2.470181],a=4, v=0.75, t=0.040000)
movej([1.083415, -2.528832, -1.186638, -0.546271, -2.454961, -2.484044],a=4, v=0.75, t=0.040000)
movej([1.093406, -2.507240, -1.228330, -0.536970, -2.459732, -2.497902],a=4, v=0.75, t=0.040000)
movej([1.103374, -2.485698, -1.269925, -0.527690, -2.464493, -2.511727],a=4, v=0.75, t=0.040000)
movej([1.113436, -2.463952, -1.311912, -0.518323, -2.469298, -2.525683],a=4, v=0.75, t=0.040000)
movej([1.123410, -2.442396, -1.353534, -0.509038, -2.474062, -2.539518],a=4, v=0.75, t=0.040000)
movej([1.133418, -2.420765, -1.395298, -0.499720, -2.478842, -2.553399],a=4, v=0.75, t=0.040000)
movej([1.143460, -2.399064, -1.437200, -0.490372, -2.483637, -2.567327],a=4, v=0.75, t=0.040000)
movej([1.153428, -2.377521, -1.478796, -0.481092, -2.488398, -2.581153],a=4, v=0.75, t=0.040000)
movej([1.163457, -2.355845, -1.520649, -0.471755, -2.493188, -2.595064],a=4, v=0.75, t=0.040000)
movej([1.173432, -2.334289, -1.562270, -0.462470, -2.497952, -2.608898],a=4, v=0.75, t=0.040000)
movej([1.183074, -2.313450, -1.602508, -0.453493, -2.502557, -2.622272],a=4, v=0.75, t=0.040000)
movej([1.192162, -2.293807, -1.640434, -0.445032, -2.506898, -2.634879],a=4, v=0.75, t=0.040000)
movej([1.200723, -2.275307, -1.676155, -0.437062, -2.510986, -2.646751],a=4, v=0.75, t=0.040000)
movej([1.208793, -2.257864, -1.709835, -0.429549, -2.514841, -2.657946],a=4, v=0.75, t=0.040000)
movej([1.216284, -2.241676, -1.741092, -0.422576, -2.518418, -2.668335],a=4, v=0.75, t=0.040000)
movej([1.223228, -2.226671, -1.770066, -0.416112, -2.521734, -2.677966],a=4, v=0.75, t=0.040000)
movej([1.229712, -2.212656, -1.797125, -0.410075, -2.524831, -2.686960],a=4, v=0.75, t=0.040000)
movej([1.235611, -2.199907, -1.821742, -0.404583, -2.527648, -2.695142],a=4, v=0.75, t=0.040000)
movej([1.241001, -2.188257, -1.844234, -0.399565, -2.530223, -2.702618],a=4, v=0.75, t=0.040000)
movej([1.245840, -2.177800, -1.864426, -0.395060, -2.532534, -2.709329],a=4, v=0.75, t=0.040000)
movej([1.250159, -2.168466, -1.882449, -0.391039, -2.534597, -2.715320],a=4, v=0.75, t=0.040000)
movej([1.253965, -2.160242, -1.898328, -0.387497, -2.536413, -2.720598],a=4, v=0.75, t=0.040000)
movej([1.257200, -2.153249, -1.911831, -0.384485, -2.537959, -2.725086],a=4, v=0.75, t=0.040000)
movej([1.259924, -2.147362, -1.923198, -0.381949, -2.539260, -2.728864],a=4, v=0.75, t=0.040000)
movej([1.262128, -2.142599, -1.932393, -0.379897, -2.540312, -2.731921],a=4, v=0.75, t=0.040000)
movej([1.263799, -2.138989, -1.939365, -0.378342, -2.541110, -2.734238],a=4, v=0.75, t=0.040000)
movej([1.264919, -2.136568, -1.944040, -0.377299, -2.541645, -2.735792],a=4, v=0.75, t=0.040000)
movej([1.265504, -2.135303, -1.946481, -0.376754, -2.541925, -2.736603],a=4, v=0.75, t=0.040000)
movej([1.265721, -2.135218, -1.946860, -0.376867, -2.541715, -2.736639],a=4, v=0.75, t=0.040000)
movej([1.265782, -2.135266, -1.946823, -0.376926, -2.541668, -2.736603],a=4, v=0.75, t=0.040000)
movej([1.265713, -2.135416, -1.946533, -0.376975, -2.541677, -2.736506],a=4, v=0.75, t=0.040000)
movej([1.265179, -2.136571, -1.944304, -0.377472, -2.541423, -2.735765],a=4, v=0.75, t=0.040000)
movej([1.264126, -2.138843, -1.939916, -0.378451, -2.540920, -2.734308],a=4, v=0.75, t=0.040000)
movej([1.262563, -2.142221, -1.933392, -0.379906, -2.540174, -2.732141],a=4, v=0.75, t=0.040000)
movej([1.260449, -2.146785, -1.924579, -0.381871, -2.539166, -2.729212],a=4, v=0.75, t=0.040000)
movej([1.257772, -2.152567, -1.913412, -0.384362, -2.537889, -2.725503],a=4, v=0.75, t=0.040000)
movej([1.254604, -2.159411, -1.900196, -0.387310, -2.536377, -2.721111],a=4, v=0.75, t=0.040000)
movej([1.250921, -2.167365, -1.884836, -0.390736, -2.534620, -2.716008],a=4, v=0.75, t=0.040000)
movej([1.246661, -2.176565, -1.867068, -0.394699, -2.532588, -2.710105],a=4, v=0.75, t=0.040000)
movej([1.241877, -2.186898, -1.847113, -0.399150, -2.530305, -2.703476],a=4, v=0.75, t=0.040000)
movej([1.236592, -2.198311, -1.825071, -0.404066, -2.527784, -2.696153],a=4, v=0.75, t=0.040000)
movej([1.230745, -2.210942, -1.800679, -0.409507, -2.524993, -2.688049],a=4, v=0.75, t=0.040000)
movej([1.224422, -2.224601, -1.774302, -0.415389, -2.521976, -2.679286],a=4, v=0.75, t=0.040000)
movej([1.217478, -2.239597, -1.745342, -0.421850, -2.518663, -2.669664],a=4, v=0.75, t=0.040000)
movej([1.210044, -2.255652, -1.714336, -0.428765, -2.515117, -2.659363],a=4, v=0.75, t=0.040000)
movej([1.202085, -2.272845, -1.681135, -0.436170, -2.511319, -2.648333],a=4, v=0.75, t=0.040000)
movej([1.193574, -2.291228, -1.645636, -0.444088, -2.507258, -2.636539],a=4, v=0.75, t=0.040000)
movej([1.184568, -2.310678, -1.608073, -0.452466, -2.502961, -2.624059],a=4, v=0.75, t=0.040000)
movej([1.174975, -2.331398, -1.568058, -0.461391, -2.498384, -2.610764],a=4, v=0.75, t=0.040000)
movej([1.165020, -2.352900, -1.526534, -0.470653, -2.493635, -2.596968],a=4, v=0.75, t=0.040000)
movej([1.155010, -2.374519, -1.484784, -0.479965, -2.488859, -2.583098],a=4, v=0.75, t=0.040000)
movej([1.145001, -2.396139, -1.443033, -0.489277, -2.484083, -2.569227],a=4, v=0.75, t=0.040000)
movej([1.135023, -2.417690, -1.401415, -0.498560, -2.479322, -2.555400],a=4, v=0.75, t=0.040000)
movej([1.125037, -2.439259, -1.359761, -0.507850, -2.474558, -2.541561],a=4, v=0.75, t=0.040000)
movej([1.114992, -2.460952, -1.317867, -0.517195, -2.469766, -2.527643],a=4, v=0.75, t=0.040000)
movej([1.105027, -2.482475, -1.276303, -0.526465, -2.465011, -2.513834],a=4, v=0.75, t=0.040000)
movej([1.094979, -2.504178, -1.234391, -0.535813, -2.460217, -2.499909],a=4, v=0.75, t=0.040000)
movej([1.085001, -2.525731, -1.192769, -0.545098, -2.455456, -2.486081],a=4, v=0.75, t=0.040000)
movej([1.074998, -2.547336, -1.151046, -0.554404, -2.450683, -2.472220],a=4, v=0.75, t=0.040000)
movej([1.064965, -2.569005, -1.109197, -0.563737, -2.445897, -2.458316],a=4, v=0.75, t=0.040000)
movej([1.054976, -2.590581, -1.067531, -0.573031, -2.441130, -2.444473],a=4, v=0.75, t=0.040000)
movej([1.044941, -2.612254, -1.025677, -0.582366, -2.436342, -2.430568],a=4, v=0.75, t=0.040000)
movej([1.034967, -2.633799, -0.984072, -0.591646, -2.431583, -2.416746],a=4, v=0.75, t=0.040000)
movej([1.024940, -2.655454, -0.942252, -0.600973, -2.426800, -2.402851],a=4, v=0.75, t=0.040000)
movej([1.014914, -2.677109, -0.900432, -0.610301, -2.422016, -2.388957],a=4, v=0.75, t=0.040000)
movej([1.004919, -2.698696, -0.858742, -0.619599, -2.417248, -2.375107],a=4, v=0.75, t=0.040000)
movej([0.994914, -2.720306, -0.817009, -0.628908, -2.412473, -2.361241],a=4, v=0.75, t=0.040000)
movej([0.984919, -2.741894, -0.775321, -0.638206, -2.407705, -2.347391],a=4, v=0.75, t=0.040000)
movej([0.974908, -2.763518, -0.733561, -0.647520, -2.402928, -2.333517],a=4, v=0.75, t=0.040000)
movej([0.964893, -2.785149, -0.691789, -0.656838, -2.398150, -2.319639],a=4, v=0.75, t=0.040000)
movej([0.954892, -2.806749, -0.650075, -0.666142, -2.393378, -2.305781],a=4, v=0.75, t=0.040000)
movej([0.944860, -2.828417, -0.608230, -0.675475, -2.388592, -2.291878],a=4, v=0.75, t=0.040000)
movej([0.934995, -2.849724, -0.567082, -0.684653, -2.383885, -2.278208],a=4, v=0.75, t=0.040000)
movej([0.925534, -2.870157, -0.527621, -0.693454, -2.379371, -2.265097],a=4, v=0.75, t=0.040000)
movej([0.916604, -2.889447, -0.490370, -0.701763, -2.375110, -2.252721],a=4, v=0.75, t=0.040000)
movej([0.908252, -2.907486, -0.455535, -0.709532, -2.371125, -2.241148],a=4, v=0.75, t=0.040000)
movej([0.900441, -2.924356, -0.422956, -0.716799, -2.367399, -2.230324],a=4, v=0.75, t=0.040000)
movej([0.893141, -2.940123, -0.392507, -0.723591, -2.363915, -2.220208],a=4, v=0.75, t=0.040000)
movej([0.886335, -2.954823, -0.364119, -0.729923, -2.360668, -2.210777],a=4, v=0.75, t=0.040000)
movej([0.880088, -2.968317, -0.338059, -0.735735, -2.357687, -2.202118],a=4, v=0.75, t=0.040000)
movej([0.874395, -2.980612, -0.314314, -0.741031, -2.354971, -2.194230],a=4, v=0.75, t=0.040000)
movej([0.869193, -2.991848, -0.292618, -0.745870, -2.352490, -2.187022],a=4, v=0.75, t=0.040000)
movej([0.864557, -3.001862, -0.273278, -0.750184, -2.350277, -2.180596],a=4, v=0.75, t=0.040000)
movej([0.860440, -3.010753, -0.256107, -0.754014, -2.348313, -2.174892],a=4, v=0.75, t=0.040000)
movej([0.856867, -3.018470, -0.241204, -0.757338, -2.346608, -2.169940],a=4, v=0.75, t=0.040000)
movej([0.853813, -3.025067, -0.228463, -0.760180, -2.345151, -2.165707],a=4, v=0.75, t=0.040000)
movej([0.851267, -3.030566, -0.217846, -0.762548, -2.343936, -2.162180],a=4, v=0.75, t=0.040000)
movej([0.849287, -3.034843, -0.209585, -0.764390, -2.342992, -2.159436],a=4, v=0.75, t=0.040000)
movej([0.847841, -3.037965, -0.203556, -0.765735, -2.342302, -2.157433],a=4, v=0.75, t=0.040000)
movej([0.846904, -3.039989, -0.199648, -0.766607, -2.341855, -2.156134],a=4, v=0.75, t=0.040000)
movej([0.846498, -3.040868, -0.197951, -0.766985, -2.341661, -2.155570],a=4, v=0.75, t=0.040000)
movej([0.846364, -3.040643, -0.198110, -0.766780, -2.341782, -2.155351],a=4, v=0.75, t=0.040000)
movej([0.846441, -3.040603, -0.198177, -0.766807, -2.341791, -2.155376],a=4, v=0.75, t=0.040000)
movej([0.846737, -3.039964, -0.199414, -0.766531, -2.341932, -2.155787],a=4, v=0.75, t=0.040000)
movej([0.847548, -3.038210, -0.202799, -0.765776, -2.342319, -2.156912],a=4, v=0.75, t=0.040000)
movej([0.848907, -3.035276, -0.208466, -0.764512, -2.342969, -2.158796],a=4, v=0.75, t=0.040000)
movej([0.850819, -3.031145, -0.216444, -0.762731, -2.343881, -2.161449],a=4, v=0.75, t=0.040000)
movej([0.853242, -3.025911, -0.226552, -0.760476, -2.345039, -2.164809],a=4, v=0.75, t=0.040000)
movej([0.856163, -3.019599, -0.238741, -0.757758, -2.346434, -2.168862],a=4, v=0.75, t=0.040000)
movej([0.859663, -3.012039, -0.253341, -0.754500, -2.348105, -2.173715],a=4, v=0.75, t=0.040000)
movej([0.863693, -3.003333, -0.270153, -0.750749, -2.350030, -2.179304],a=4, v=0.75, t=0.040000)
movej([0.868258, -2.993471, -0.289199, -0.746500, -2.352210, -2.185636],a=4, v=0.75, t=0.040000)
movej([0.873305, -2.982568, -0.310255, -0.741802, -2.354621, -2.192636],a=4, v=0.75, t=0.040000)
movej([0.878914, -2.970452, -0.333654, -0.736582, -2.357299, -2.200416],a=4, v=0.75, t=0.040000)
movej([0.885088, -2.957113, -0.359413, -0.730835, -2.360248, -2.208979],a=4, v=0.75, t=0.040000)
movej([0.891740, -2.942743, -0.387164, -0.724644, -2.363425, -2.218205],a=4, v=0.75, t=0.040000)
movej([0.898942, -2.927185, -0.417211, -0.717940, -2.366864, -2.228194],a=4, v=0.75, t=0.040000)
movej([0.906681, -2.910466, -0.449496, -0.710737, -2.370560, -2.238927],a=4, v=0.75, t=0.040000)
movej([0.914973, -2.892552, -0.484092, -0.703019, -2.374520, -2.250429],a=4, v=0.75, t=0.040000)
movej([0.923786, -2.873515, -0.520856, -0.694816, -2.378728, -2.262651],a=4, v=0.75, t=0.040000)
movej([0.933087, -2.853423, -0.559658, -0.686159, -2.383170, -2.275551],a=4, v=0.75, t=0.040000)
movej([0.942942, -2.832131, -0.600777, -0.676986, -2.387877, -2.289221],a=4, v=0.75, t=0.040000)
movej([0.952942, -2.810531, -0.642491, -0.667679, -2.392652, -2.303089],a=4, v=0.75, t=0.040000)
movej([0.962947, -2.788915, -0.684235, -0.658366, -2.397431, -2.316967],a=4, v=0.75, t=0.040000)
movej([0.972951, -2.767303, -0.725970, -0.649054, -2.402208, -2.330842],a=4, v=0.75, t=0.040000)
movej([0.982954, -2.745695, -0.767701, -0.639745, -2.406985, -2.344716],a=4, v=0.75, t=0.040000)
movej([0.992957, -2.724084, -0.809435, -0.630434, -2.411763, -2.358590],a=4, v=0.75, t=0.040000)
movej([1.002955, -2.702488, -0.851143, -0.621128, -2.416538, -2.372456],a=4, v=0.75, t=0.040000)
movej([1.012971, -2.680848, -0.892931, -0.611805, -2.421322, -2.386348],a=4, v=0.75, t=0.040000)
movej([1.022972, -2.659244, -0.934653, -0.602497, -2.426098, -2.400219],a=4, v=0.75, t=0.040000)
movej([1.032968, -2.637650, -0.976355, -0.593193, -2.430872, -2.414083],a=4, v=0.75, t=0.040000)
movej([1.042980, -2.616019, -1.018129, -0.583873, -2.435653, -2.427971],a=4, v=0.75, t=0.040000)
movej([1.052981, -2.594415, -1.059849, -0.574565, -2.440429, -2.441841],a=4, v=0.75, t=0.040000)
movej([1.062983, -2.572807, -1.101579, -0.565255, -2.445206, -2.455713],a=4, v=0.75, t=0.040000)
movej([1.072981, -2.551211, -1.143286, -0.555950, -2.449980, -2.469579],a=4, v=0.75, t=0.040000)
movej([1.082977, -2.529616, -1.184990, -0.546646, -2.454754, -2.483444],a=4, v=0.75, t=0.040000)
movej([1.092996, -2.507969, -1.226793, -0.537319, -2.459540, -2.497342],a=4, v=0.75, t=0.040000)
movej([1.102976, -2.486412, -1.268424, -0.528032, -2.464305, -2.511181],a=4, v=0.75, t=0.040000)
movej([1.112994, -2.464769, -1.310220, -0.518706, -2.469090, -2.525077],a=4, v=0.75, t=0.040000)
movej([1.123021, -2.443108, -1.352053, -0.509373, -2.473878, -2.538985],a=4, v=0.75, t=0.040000)
movej([1.132985, -2.421582, -1.393623, -0.500099, -2.478637, -2.552805],a=4, v=0.75, t=0.040000)
movej([1.143029, -2.399884, -1.435525, -0.490750, -2.483434, -2.566734],a=4, v=0.75, t=0.040000)
movej([1.153042, -2.378254, -1.477298, -0.481431, -2.488216, -2.580622],a=4, v=0.75, t=0.040000)
movej([1.163010, -2.356720, -1.518884, -0.472153, -2.492976, -2.594448],a=4, v=0.75, t=0.040000)
movej([1.173051, -2.335028, -1.560775, -0.462807, -2.497772, -2.608375],a=4, v=0.75, t=0.040000)
movej([1.182689, -2.314206, -1.600985, -0.453836, -2.502375, -2.621742],a=4, v=0.75, t=0.040000)
movej([1.191821, -2.294479, -1.639082, -0.445337, -2.506735, -2.634408],a=4, v=0.75, t=0.040000)
movej([1.200393, -2.275961, -1.674844, -0.437358, -2.510830, -2.646297],a=4, v=0.75, t=0.040000)
movej([1.208454, -2.258546, -1.708476, -0.429854, -2.514679, -2.657478],a=4, v=0.75, t=0.040000)
movej([1.216016, -2.242212, -1.740021, -0.422816, -2.518291, -2.667965],a=4, v=0.75, t=0.040000)
movej([1.222998, -2.227127, -1.769150, -0.416317, -2.521625, -2.677649],a=4, v=0.75, t=0.040000)
movej([1.229452, -2.213186, -1.796075, -0.410310, -2.524707, -2.686600],a=4, v=0.75, t=0.040000)
movej([1.235383, -2.200374, -1.820817, -0.404790, -2.527539, -2.694826],a=4, v=0.75, t=0.040000)
movej([1.240806, -2.188657, -1.843444, -0.399742, -2.530129, -2.702348],a=4, v=0.75, t=0.040000)
movej([1.245677, -2.178136, -1.863763, -0.395209, -2.532456, -2.709103],a=4, v=0.75, t=0.040000)
movej([1.250013, -2.168768, -1.881854, -0.391173, -2.534527, -2.715118],a=4, v=0.75, t=0.040000)
movej([1.253827, -2.160527, -1.897768, -0.387622, -2.536349, -2.720408],a=4, v=0.75, t=0.040000)
movej([1.257105, -2.153447, -1.911442, -0.384572, -2.537914, -2.724954],a=4, v=0.75, t=0.040000)
movej([1.259838, -2.147543, -1.922844, -0.382028, -2.539219, -2.728745],a=4, v=0.75, t=0.040000)
movej([1.262044, -2.142777, -1.932047, -0.379975, -2.540273, -2.731804],a=4, v=0.75, t=0.040000)
movej([1.263726, -2.139144, -1.939064, -0.378409, -2.541075, -2.734137],a=4, v=0.75, t=0.040000)
movej([1.264896, -2.136615, -1.943947, -0.377320, -2.541634, -2.735761],a=4, v=0.75, t=0.040000)
movej([1.265509, -2.135291, -1.946503, -0.376750, -2.541927, -2.736611],a=4, v=0.75, t=0.040000)
movej([1.265692, -2.135126, -1.946931, -0.376751, -2.541876, -2.736710],a=4, v=0.75, t=0.040000)
movej([1.265799, -2.135278, -1.946804, -0.376926, -2.541710, -2.736603],a=4, v=0.75, t=0.040000)
movej([1.265694, -2.135509, -1.946354, -0.377027, -2.541659, -2.736453],a=4, v=0.75, t=0.040000)
movej([1.265084, -2.136825, -1.943812, -0.377594, -2.541368, -2.735609],a=4, v=0.75, t=0.040000)
movej([1.263931, -2.139315, -1.939003, -0.378666, -2.540819, -2.734011],a=4, v=0.75, t=0.040000)
movej([1.262269, -2.142904, -1.932072, -0.380212, -2.540025, -2.731708],a=4, v=0.75, t=0.040000)
movej([1.260083, -2.147626, -1.922953, -0.382246, -2.538982, -2.728679],a=4, v=0.75, t=0.040000)
movej([1.257360, -2.153509, -1.911594, -0.384779, -2.537683, -2.724905],a=4, v=0.75, t=0.040000)
movej([1.254081, -2.160589, -1.897918, -0.387830, -2.536119, -2.720361],a=4, v=0.75, t=0.040000)
movej([1.250281, -2.168794, -1.882074, -0.391364, -2.534306, -2.715097],a=4, v=0.75, t=0.040000)
movej([1.245980, -2.178086, -1.864131, -0.395365, -2.532253, -2.709135],a=4, v=0.75, t=0.040000)
movej([1.241108, -2.188606, -1.843815, -0.399897, -2.529930, -2.702386],a=4, v=0.75, t=0.040000)
movej([1.235720, -2.200242, -1.821341, -0.404909, -2.527359, -2.694919],a=4, v=0.75, t=0.040000)
movej([1.229794, -2.213043, -1.796623, -0.410422, -2.524531, -2.686707],a=4, v=0.75, t=0.040000)
movej([1.223341, -2.226979, -1.769710, -0.416425, -2.521453, -2.677765],a=4, v=0.75, t=0.040000)
movej([1.216405, -2.241958, -1.740781, -0.422877, -2.518143, -2.668154],a=4, v=0.75, t=0.040000)
movej([1.208819, -2.258343, -1.709140, -0.429934, -2.514524, -2.657642],a=4, v=0.75, t=0.040000)
movej([1.200814, -2.275630, -1.675756, -0.437380, -2.510706, -2.646550],a=4, v=0.75, t=0.040000)
movej([1.192235, -2.294160, -1.639973, -0.445361, -2.506612, -2.634662],a=4, v=0.75, t=0.040000)
movej([1.183130, -2.313825, -1.601995, -0.453831, -2.502268, -2.622044],a=4, v=0.75, t=0.040000)
movej([1.173467, -2.334693, -1.561694, -0.462820, -2.497658, -2.608655],a=4, v=0.75, t=0.040000)
movej([1.163471, -2.356285, -1.519998, -0.472120, -2.492889, -2.594802],a=4, v=0.75, t=0.040000)
movej([1.153460, -2.377903, -1.478250, -0.481431, -2.488113, -2.580932],a=4, v=0.75, t=0.040000)
movej([1.143466, -2.399490, -1.436562, -0.490729, -2.483344, -2.567082],a=4, v=0.75, t=0.040000)
movej([1.133399, -2.421231, -1.394574, -0.500094, -2.478541, -2.553132],a=4, v=0.75, t=0.040000)
movej([1.123462, -2.442693, -1.353129, -0.509338, -2.473801, -2.539363],a=4, v=0.75, t=0.040000)
movej([1.113443, -2.464331, -1.311343, -0.518658, -2.469021, -2.525479],a=4, v=0.75, t=0.040000)
movej([1.103446, -2.485923, -1.269644, -0.527958, -2.464251, -2.511626],a=4, v=0.75, t=0.040000)
movej([1.093436, -2.507541, -1.227897, -0.537269, -2.459475, -2.497755],a=4, v=0.75, t=0.040000)
movej([1.083394, -2.529230, -1.186010, -0.546612, -2.454684, -2.483839],a=4, v=0.75, t=0.040000)
movej([1.073435, -2.550739, -1.144474, -0.555876, -2.449933, -2.470040],a=4, v=0.75, t=0.040000)
movej([1.063403, -2.572405, -1.102633, -0.565207, -2.445146, -2.456138],a=4, v=0.75, t=0.040000)
movej([1.053421, -2.593964, -1.060999, -0.574493, -2.440384, -2.442306],a=4, v=0.75, t=0.040000)
movej([1.043372, -2.615667, -1.019086, -0.583842, -2.435590, -2.428381],a=4, v=0.75, t=0.040000)
movej([1.033385, -2.637236, -0.977432, -0.593132, -2.430824, -2.414542],a=4, v=0.75, t=0.040000)
movej([1.023387, -2.658831, -0.935730, -0.602433, -2.426055, -2.400687],a=4, v=0.75, t=0.040000)
movej([1.013356, -2.680495, -0.893891, -0.611765, -2.421269, -2.386787],a=4, v=0.75, t=0.040000)
movej([1.003350, -2.702104, -0.852162, -0.621072, -2.416495, -2.372923],a=4, v=0.75, t=0.040000)
movej([0.993344, -2.723715, -0.810426, -0.630380, -2.411721, -2.359057],a=4, v=0.75, t=0.040000)
movej([0.983350, -2.745300, -0.768744, -0.639677, -2.406953, -2.345208],a=4, v=0.75, t=0.040000)
movej([0.973355, -2.766887, -0.727055, -0.648975, -2.402185, -2.331358],a=4, v=0.75, t=0.040000)
movej([0.963316, -2.788568, -0.685184, -0.658314, -2.397394, -2.317447],a=4, v=0.75, t=0.040000)
movej([0.953310, -2.810180, -0.643448, -0.667622, -2.392621, -2.303580],a=4, v=0.75, t=0.040000)
movej([0.943300, -2.831798, -0.601700, -0.676934, -2.387845, -2.289710],a=4, v=0.75, t=0.040000)
movej([0.933447, -2.853078, -0.560604, -0.686100, -2.383144, -2.276057],a=4, v=0.75, t=0.040000)
movej([0.924130, -2.873200, -0.521747, -0.694766, -2.378699, -2.263147],a=4, v=0.75, t=0.040000)
movej([0.915285, -2.892303, -0.484854, -0.702995, -2.374479, -2.250890],a=4, v=0.75, t=0.040000)
movej([0.907010, -2.910174, -0.450343, -0.710692, -2.370532, -2.239424],a=4, v=0.75, t=0.040000)
movej([0.899260, -2.926914, -0.418015, -0.717902, -2.366834, -2.228684],a=4, v=0.75, t=0.040000)
movej([0.892013, -2.942564, -0.387792, -0.724644, -2.363376, -2.218642],a=4, v=0.75, t=0.040000)
movej([0.885349, -2.956959, -0.359994, -0.730844, -2.360197, -2.209407],a=4, v=0.75, t=0.040000)
movej([0.879151, -2.970342, -0.334147, -0.736609, -2.357240, -2.200819],a=4, v=0.75, t=0.040000)
movej([0.873548, -2.982445, -0.310776, -0.741821, -2.354567, -2.193055],a=4, v=0.75, t=0.040000)
movej([0.868448, -2.993459, -0.289505, -0.746565, -2.352133, -2.185988],a=4, v=0.75, t=0.040000)
movej([0.863889, -3.003306, -0.270491, -0.750806, -2.349959, -2.179670],a=4, v=0.75, t=0.040000)
movej([0.859840, -3.012049, -0.253604, -0.754572, -2.348027, -2.174060],a=4, v=0.75, t=0.040000)
movej([0.856328, -3.019635, -0.238955, -0.757840, -2.346352, -2.169193],a=4, v=0.75, t=0.040000)
movej([0.853381, -3.026001, -0.226661, -0.760582, -2.344945, -2.165109],a=4, v=0.75, t=0.040000)
movej([0.850935, -3.031283, -0.216461, -0.762857, -2.343778, -2.161720],a=4, v=0.75, t=0.040000)
movej([0.849011, -3.035438, -0.208436, -0.764647, -2.342860, -2.159053],a=4, v=0.75, t=0.040000)
movej([0.847639, -3.038402, -0.202712, -0.765923, -2.342205, -2.157153],a=4, v=0.75, t=0.040000)
movej([0.846812, -3.040187, -0.199266, -0.766692, -2.341811, -2.156007],a=4, v=0.75, t=0.040000)
movej([0.846500, -3.040862, -0.197962, -0.766983, -2.341662, -2.155574],a=4, v=0.75, t=0.040000)
movej([0.846359, -3.040643, -0.198112, -0.766777, -2.341830, -2.155335],a=4, v=0.75, t=0.040000)
movej([0.846469, -3.040523, -0.198344, -0.766756, -2.341857, -2.155428],a=4, v=0.75, t=0.040000)
movej([0.851686, -3.029252, -0.220110, -0.761900, -2.344348, -2.162664],a=4, v=0.75, t=0.040000)
movej([0.866112, -2.998087, -0.280294, -0.748473, -2.351236, -2.182673],a=4, v=0.75, t=0.040000)
movej([0.889540, -2.947479, -0.378026, -0.726670, -2.362421, -2.215165],a=4, v=0.75, t=0.040000)
movej([0.920034, -2.881603, -0.505245, -0.698288, -2.376981, -2.257459],a=4, v=0.75, t=0.040000)
movej([0.950593, -2.815590, -0.632728, -0.669847, -2.391571, -2.299841],a=4, v=0.75, t=0.040000)
movej([0.981097, -2.749693, -0.759987, -0.641456, -2.406135, -2.342149],a=4, v=0.75, t=0.040000)
movej([1.011729, -2.683520, -0.887778, -0.612946, -2.420761, -2.384633],a=4, v=0.75, t=0.040000)
movej([1.042221, -2.617649, -1.014987, -0.584567, -2.435319, -2.426924],a=4, v=0.75, t=0.040000)
movej([1.072902, -2.551371, -1.142981, -0.556011, -2.449967, -2.469476],a=4, v=0.75, t=0.040000)
movej([1.103473, -2.485330, -1.270517, -0.527559, -2.464563, -2.511876],a=4, v=0.75, t=0.040000)
movej([1.134049, -2.419279, -1.398074, -0.499101, -2.479162, -2.554283],a=4, v=0.75, t=0.040000)
movej([1.164702, -2.353061, -1.525953, -0.470572, -2.493797, -2.596797],a=4, v=0.75, t=0.040000)
movej([1.195159, -2.287265, -1.653016, -0.442225, -2.508339, -2.639040],a=4, v=0.75, t=0.040000)
movej([1.224906, -2.223004, -1.777114, -0.414539, -2.522541, -2.680297],a=4, v=0.75, t=0.040000)
movej([1.248167, -2.172754, -1.874157, -0.392890, -2.533648, -2.712559],a=4, v=0.75, t=0.040000)
movej([1.261622, -2.143689, -1.930287, -0.380368, -2.540071, -2.731219],a=4, v=0.75, t=0.040000)
movej([1.265675, -2.134854, -1.947459, -0.376503, -2.542009, -2.737118],a=4, v=0.75, t=0.040000)
movej([1.265627, -2.135855, -1.945565, -0.376260, -2.542132, -2.738095],a=4, v=0.75, t=0.040000)
movej([1.265326, -2.136300, -1.943331, -0.376432, -2.542102, -2.737809],a=4, v=0.75, t=0.040000)
movej([1.265325, -2.136302, -1.943585, -0.376540, -2.542002, -2.737175],a=4, v=0.75, t=0.040000)
movej([1.265420, -2.136156, -1.944374, -0.376578, -2.541987, -2.736827],a=4, v=0.75, t=0.040000)
movej([1.265464, -2.135811, -1.945750, -0.376633, -2.541873, -2.736724],a=4, v=0.75, t=0.040000)
movej([1.265509, -2.135638, -1.946533, -0.376694, -2.541873, -2.736724],a=4, v=0.75, t=0.040000)
movej([1.265509, -2.135194, -1.946886, -0.376692, -2.541873, -2.736697],a=4, v=0.75, t=0.040000)
movej([1.265566, -2.135042, -1.947136, -0.376692, -2.541873, -2.736675],a=4, v=0.75, t=0.040000)
movej([1.265576, -2.134823, -1.947253, -0.376701, -2.541873, -2.736675],a=4, v=0.75, t=0.040000)
movej([1.265594, -2.134785, -1.947270, -0.376708, -2.541873, -2.736659],a=4, v=0.75, t=0.040000)
movej([1.265605, -2.134744, -1.947270, -0.376734, -2.541873, -2.736643],a=4, v=0.75, t=0.040000)
movej([1.265641, -2.134746, -1.947238, -0.376760, -2.541873, -2.736643],a=4, v=0.75, t=0.040000)
movej([1.265641, -2.134783, -1.947184, -0.376773, -2.541873, -2.736643],a=4, v=0.75, t=0.040000)
movej([1.265641, -2.134810, -1.947132, -0.376773, -2.541873, -2.736643],a=4, v=0.75, t=0.040000)
movej([1.265641, -2.134900, -1.947044, -0.376773, -2.541863, -2.736643],a=4, v=0.75, t=0.040000)
movej([1.265641, -2.134970, -1.947013, -0.376789, -2.541856, -2.736627],a=4, v=0.75, t=0.040000)
movej([1.265641, -2.135064, -1.946978, -0.376789, -2.541848, -2.736627],a=4, v=0.75, t=0.040000)
movej([1.265641, -2.135083, -1.946969, -0.376789, -2.541840, -2.736627],a=4, v=0.75, t=0.040000)
movej([1.265641, -2.135083, -1.946969, -0.376789, -2.541840, -2.736627],a=4, v=0.75, t=0.040000)
movej([1.265641, -2.135083, -1.946969, -0.376773, -2.541840, -2.736627],a=4, v=0.75, t=0.040000)
movej([1.265641, -2.135083, -1.946969, -0.376773, -2.541840, -2.736627],a=4, v=0.75, t=0.040000)
movej([1.265641, -2.135083, -1.946969, -0.376773, -2.541840, -2.736627],a=4, v=0.75, t=0.040000)
movej([1.265641, -2.135083, -1.946969, -0.376773, -2.541840, -2.736634],a=4, v=0.75, t=0.040000)
movej([1.265641, -2.135083, -1.946969, -0.376773, -2.541840, -2.736627],a=4, v=0.75, t=0.040000)
movej([1.265641, -2.135083, -1.946969, -0.376773, -2.541832, -2.736627],a=4, v=0.75, t=0.040000)
movej([1.265641, -2.135083, -1.946969, -0.376776, -2.541824, -2.736627],a=4, v=0.75, t=0.040000)
movej([1.265641, -2.135083, -1.946969, -0.376789, -2.541824, -2.736627],a=4, v=0.75, t=0.040000)
movej([1.265641, -2.135074, -1.946970, -0.376789, -2.541824, -2.736627],a=4, v=0.75, t=0.040000)
movej([1.265641, -2.135074, -1.946978, -0.376789, -2.541824, -2.736627],a=4, v=0.75, t=0.040000)
movej([1.265641, -2.135074, -1.946978, -0.376789, -2.541824, -2.736627],a=4, v=0.75, t=0.040000)
movej([1.265641, -2.135074, -1.946978, -0.376789, -2.541824, -2.736627],a=4, v=0.75, t=0.040000)
movej([1.265641, -2.135064, -1.946987, -0.376789, -2.541824, -2.736627],a=4, v=0.75, t=0.040000)
movej([1.265641, -2.135064, -1.946987, -0.376789, -2.541824, -2.736636],a=4, v=0.75, t=0.040000)
movej([1.265641, -2.135064, -1.946987, -0.376789, -2.541824, -2.736627],a=4, v=0.75, t=0.040000)
movej([1.265641, -2.135064, -1.946987, -0.376789, -2.541824, -2.736627],a=4, v=0.75, t=0.040000)
movej([1.265641, -2.135055, -1.946997, -0.376789, -2.541825, -2.736627],a=4, v=0.75, t=0.040000)
movej([1.265641, -2.135051, -1.946997, -0.376789, -2.541840, -2.736627],a=4, v=0.75, t=0.040000)
movej([1.265641, -2.135045, -1.946997, -0.376789, -2.541840, -2.736627],a=4, v=0.75, t=0.040000)
movej([1.265641, -2.135045, -1.946997, -0.376789, -2.541840, -2.736627],a=4, v=0.75, t=0.040000)
movej([1.265641, -2.135045, -1.947006, -0.376789, -2.541839, -2.736627],a=4, v=0.75, t=0.040000)
movej([1.265641, -2.135045, -1.947006, -0.376789, -2.541824, -2.736627],a=4, v=0.75, t=0.040000)
movej([1.265641, -2.135045, -1.947006, -0.376789, -2.541824, -2.736627],a=4, v=0.75, t=0.040000)
movej([1.265641, -2.135036, -1.947006, -0.376789, -2.541840, -2.736627],a=4, v=0.75, t=0.040000)
movej([1.265641, -2.135026, -1.947006, -0.376789, -2.541840, -2.736627],a=4, v=0.75, t=0.040000)
movej([1.265641, -2.135026, -1.947006, -0.376789, -2.541840, -2.736637],a=4, v=0.75, t=0.040000)
movej([1.264430, -2.137645, -1.941949, -0.377917, -2.541261, -2.734947],a=4, v=0.75, t=0.040000)
movej([1.256040, -2.155775, -1.906943, -0.385727, -2.537255, -2.723317],a=4, v=0.75, t=0.040000)
movej([1.237665, -2.195487, -1.830266, -0.402833, -2.528479, -2.697844],a=4, v=0.75, t=0.040000)
movej([1.210141, -2.254970, -1.715410, -0.428456, -2.515334, -2.659688],a=4, v=0.75, t=0.040000)
movej([1.179533, -2.321120, -1.587684, -0.456950, -2.500715, -2.617255],a=4, v=0.75, t=0.040000)
movej([1.148996, -2.387115, -1.460257, -0.485378, -2.486132, -2.574923],a=4, v=0.75, t=0.040000)
movej([1.118421, -2.453193, -1.332670, -0.513841, -2.471529, -2.532537],a=4, v=0.75, t=0.040000)
movej([1.087710, -2.519566, -1.204512, -0.542432, -2.456862, -2.489961],a=4, v=0.75, t=0.040000)
movej([1.057371, -2.585134, -1.077910, -0.570675, -2.442372, -2.447903],a=4, v=0.75, t=0.040000)
movej([1.026704, -2.651409, -0.949943, -0.599224, -2.427726, -2.405391],a=4, v=0.75, t=0.040000)
movej([0.996152, -2.717437, -0.822451, -0.627665, -2.413135, -2.363036],a=4, v=0.75, t=0.040000)
movej([0.965580, -2.783509, -0.694875, -0.656127, -2.398534, -2.320654],a=4, v=0.75, t=0.040000)
movej([0.934982, -2.849637, -0.567190, -0.684612, -2.383920, -2.278236],a=4, v=0.75, t=0.040000)
movej([0.904443, -2.915636, -0.439755, -0.713042, -2.369335, -2.235900],a=4, v=0.75, t=0.040000)
movej([0.876220, -2.976631, -0.321984, -0.739314, -2.355856, -2.196776],a=4, v=0.75, t=0.040000)
movej([0.857552, -3.016976, -0.244082, -0.756694, -2.346940, -2.170895],a=4, v=0.75, t=0.040000)
movej([0.848086, -3.037433, -0.204582, -0.765505, -2.342420, -2.157773],a=4, v=0.75, t=0.040000)
movej([0.846284, -3.041539, -0.195761, -0.767476, -2.341344, -2.154082],a=4, v=0.75, t=0.040000)
movej([0.847645, -3.039092, -0.200809, -0.767334, -2.341409, -2.154278],a=4, v=0.75, t=0.040000)
movej([0.846843, -3.039384, -0.201829, -0.767305, -2.341477, -2.154402],a=4, v=0.75, t=0.040000)
movej([0.846464, -3.039518, -0.201160, -0.767211, -2.341461, -2.154786],a=4, v=0.75, t=0.040000)
movej([0.846641, -3.039719, -0.199763, -0.767114, -2.341544, -2.155138],a=4, v=0.75, t=0.040000)
movej([0.846564, -3.039895, -0.198590, -0.767059, -2.341510, -2.155177],a=4, v=0.75, t=0.040000)
movej([0.846520, -3.040442, -0.198272, -0.767055, -2.341476, -2.155278],a=4, v=0.75, t=0.040000)
movej([0.846559, -3.040723, -0.197913, -0.767033, -2.341531, -2.155288],a=4, v=0.75, t=0.040000)
movej([0.846529, -3.041072, -0.197622, -0.767026, -2.341504, -2.155309],a=4, v=0.75, t=0.040000)
movej([0.846489, -3.041297, -0.197579, -0.767015, -2.341579, -2.155343],a=4, v=0.75, t=0.040000)
movej([0.846507, -3.041297, -0.197579, -0.767006, -2.341583, -2.155376],a=4, v=0.75, t=0.040000)
movej([0.846488, -3.041297, -0.197609, -0.766994, -2.341571, -2.155385],a=4, v=0.75, t=0.040000)
movej([0.846461, -3.041289, -0.197659, -0.766994, -2.341627, -2.155392],a=4, v=0.75, t=0.040000)
movej([0.846460, -3.041235, -0.197711, -0.766994, -2.341529, -2.155392],a=4, v=0.75, t=0.040000)
movej([0.846460, -3.041207, -0.197835, -0.766994, -2.341508, -2.155392],a=4, v=0.75, t=0.040000)
movej([0.846460, -3.041121, -0.197939, -0.766994, -2.341506, -2.155384],a=4, v=0.75, t=0.040000)
movej([0.846460, -3.041030, -0.197965, -0.766994, -2.341460, -2.155376],a=4, v=0.75, t=0.040000)
movej([0.846460, -3.040875, -0.197975, -0.766994, -2.341539, -2.155376],a=4, v=0.75, t=0.040000)
movej([0.846460, -3.040772, -0.197973, -0.766994, -2.341553, -2.155376],a=4, v=0.75, t=0.040000)
movej([0.846460, -3.040722, -0.197965, -0.766994, -2.341557, -2.155376],a=4, v=0.75, t=0.040000)
movej([0.846460, -3.040722, -0.197965, -0.766994, -2.341616, -2.155376],a=4, v=0.75, t=0.040000)
movej([0.846460, -3.040722, -0.197965, -0.766994, -2.341549, -2.155376],a=4, v=0.75, t=0.040000)
movej([0.846460, -3.040722, -0.197956, -0.766981, -2.341537, -2.155379],a=4, v=0.75, t=0.040000)
movej([0.846460, -3.040722, -0.197952, -0.766978, -2.341542, -2.155392],a=4, v=0.75, t=0.040000)
movej([0.846460, -3.040730, -0.197930, -0.766978, -2.341493, -2.155389],a=4, v=0.75, t=0.040000)
movej([0.846460, -3.040741, -0.197924, -0.766978, -2.341529, -2.155383],a=4, v=0.75, t=0.040000)
movej([0.846460, -3.040761, -0.197915, -0.766978, -2.341499, -2.155392],a=4, v=0.75, t=0.040000)
movej([0.846460, -3.040778, -0.197895, -0.766978, -2.341535, -2.155392],a=4, v=0.75, t=0.040000)
movej([0.846460, -3.040811, -0.197890, -0.766978, -2.341566, -2.155392],a=4, v=0.75, t=0.040000)
movej([0.846460, -3.040858, -0.197881, -0.766978, -2.341545, -2.155392],a=4, v=0.75, t=0.040000)
movej([0.846460, -3.040866, -0.197881, -0.766978, -2.341537, -2.155392],a=4, v=0.75, t=0.040000)
movej([0.846460, -3.040896, -0.197881, -0.766978, -2.341540, -2.155392],a=4, v=0.75, t=0.040000)
movej([0.846460, -3.040911, -0.197881, -0.766978, -2.341504, -2.155392],a=4, v=0.75, t=0.040000)
movej([0.846460, -3.040911, -0.197871, -0.766978, -2.341520, -2.155392],a=4, v=0.75, t=0.040000)
movej([0.846470, -3.040911, -0.197871, -0.766978, -2.341498, -2.155392],a=4, v=0.75, t=0.040000)
movej([0.846470, -3.040911, -0.197871, -0.766978, -2.341535, -2.155392],a=4, v=0.75, t=0.040000)
movej([0.846470, -3.040911, -0.197871, -0.766978, -2.341565, -2.155392],a=4, v=0.75, t=0.040000)
movej([0.846470, -3.040911, -0.197871, -0.766978, -2.341521, -2.155392],a=4, v=0.75, t=0.040000)
movej([0.846470, -3.040911, -0.197871, -0.766978, -2.341612, -2.155392],a=4, v=0.75, t=0.040000)
movej([0.846470, -3.040911, -0.197871, -0.766978, -2.341582, -2.155392],a=4, v=0.75, t=0.040000)
movej([0.846470, -3.040911, -0.197871, -0.766978, -2.341564, -2.155392],a=4, v=0.75, t=0.040000)
movej([0.846470, -3.040911, -0.197871, -0.766978, -2.341603, -2.155392],a=4, v=0.75, t=0.040000)
movej([0.846470, -3.040911, -0.197871, -0.766978, -2.341450, -2.155392],a=4, v=0.75, t=0.040000)
movej([0.846470, -3.040911, -0.197871, -0.766961, -2.341512, -2.155392],a=4, v=0.75, t=0.040000)
movej([0.846470, -3.040911, -0.197871, -0.766961, -2.341493, -2.155392],a=4, v=0.75, t=0.040000)
movej([0.846470, -3.040911, -0.197871, -0.766961, -2.341482, -2.155392],a=4, v=0.75, t=0.040000)
movej([0.849822, -3.033665, -0.211862, -0.763839, -2.343247, -2.160042],a=4, v=0.75, t=0.040000)
movej([0.862834, -3.005544, -0.266159, -0.751723, -2.349466, -2.178090],a=4, v=0.75, t=0.040000)
movej([0.884991, -2.957660, -0.358618, -0.731090, -2.360056, -2.208822],a=4, v=0.75, t=0.040000)
movej([0.914388, -2.894128, -0.481290, -0.703716, -2.374106, -2.249596],a=4, v=0.75, t=0.040000)
movej([0.945061, -2.827838, -0.609286, -0.675153, -2.388767, -2.292140],a=4, v=0.75, t=0.040000)
movej([0.975620, -2.761795, -0.736807, -0.646696, -2.403372, -2.334526],a=4, v=0.75, t=0.040000)
movej([1.006160, -2.695792, -0.864249, -0.618257, -2.417969, -2.376886],a=4, v=0.75, t=0.040000)
movej([1.036737, -2.629709, -0.991848, -0.589783, -2.432584, -2.419297],a=4, v=0.75, t=0.040000)
movej([1.067200, -2.563871, -1.118972, -0.561415, -2.447145, -2.461552],a=4, v=0.75, t=0.040000)
movej([1.097877, -2.497574, -1.246985, -0.532849, -2.461807, -2.504101],a=4, v=0.75, t=0.040000)
movej([1.128333, -2.431754, -1.374074, -0.504488, -2.476363, -2.546344],a=4, v=0.75, t=0.040000)
movej([1.158998, -2.365482, -1.502036, -0.475933, -2.491020, -2.588876],a=4, v=0.75, t=0.040000)
movej([1.189555, -2.299442, -1.629549, -0.447479, -2.505625, -2.631260],a=4, v=0.75, t=0.040000)
movej([1.219688, -2.234319, -1.755294, -0.419418, -2.520027, -2.673056],a=4, v=0.75, t=0.040000)
movej([1.244370, -2.180976, -1.858293, -0.396434, -2.531824, -2.707291],a=4, v=0.75, t=0.040000)
movej([1.259855, -2.147512, -1.922907, -0.382015, -2.539225, -2.728767],a=4, v=0.75, t=0.040000)
movej([1.265565, -2.135172, -1.946735, -0.376698, -2.541954, -2.736688],a=4, v=0.75, t=0.040000)
movej([1.265632, -2.135445, -1.946010, -0.376240, -2.542151, -2.738147],a=4, v=0.75, t=0.040000)
movej([1.265399, -2.136358, -1.943535, -0.376436, -2.542060, -2.737829],a=4, v=0.75, t=0.040000)
movej([1.265302, -2.136304, -1.943573, -0.376507, -2.542019, -2.737323],a=4, v=0.75, t=0.040000)
movej([1.265494, -2.136253, -1.944217, -0.376527, -2.541989, -2.736886],a=4, v=0.75, t=0.040000)
movej([1.265430, -2.135746, -1.945528, -0.376584, -2.541873, -2.736740],a=4, v=0.75, t=0.040000)
movej([1.265511, -2.135605, -1.946508, -0.376676, -2.541882, -2.736740],a=4, v=0.75, t=0.040000)
movej([1.265518, -2.135176, -1.946865, -0.376676, -2.541873, -2.736725],a=4, v=0.75, t=0.040000)
movej([1.265575, -2.135111, -1.947089, -0.376692, -2.541873, -2.736708],a=4, v=0.75, t=0.040000)
movej([1.265582, -2.134850, -1.947230, -0.376700, -2.541873, -2.736651],a=4, v=0.75, t=0.040000)
movej([1.265607, -2.134823, -1.947261, -0.376750, -2.541873, -2.736627],a=4, v=0.75, t=0.040000)
movej([1.265613, -2.134801, -1.947261, -0.376757, -2.541873, -2.736627],a=4, v=0.75, t=0.040000)
movej([1.265660, -2.134800, -1.947251, -0.376757, -2.541873, -2.736643],a=4, v=0.75, t=0.040000)
movej([1.265660, -2.134823, -1.947210, -0.376757, -2.541873, -2.736643],a=4, v=0.75, t=0.040000)
movej([1.265660, -2.134866, -1.947167, -0.376757, -2.541873, -2.736643],a=4, v=0.75, t=0.040000)
movej([1.265660, -2.134883, -1.947099, -0.376757, -2.541858, -2.736643],a=4, v=0.75, t=0.040000)
movej([1.265660, -2.134942, -1.947044, -0.376773, -2.541856, -2.736643],a=4, v=0.75, t=0.040000)
movej([1.265660, -2.134970, -1.946978, -0.376776, -2.541853, -2.736643],a=4, v=0.75, t=0.040000)
movej([1.265660, -2.135040, -1.946978, -0.376789, -2.541840, -2.736643],a=4, v=0.75, t=0.040000)
movej([1.265660, -2.135044, -1.946978, -0.376789, -2.541840, -2.736643],a=4, v=0.75, t=0.040000)
movej([1.265660, -2.135045, -1.946978, -0.376789, -2.541840, -2.736643],a=4, v=0.75, t=0.040000)
movej([1.265660, -2.135045, -1.946978, -0.376789, -2.541824, -2.736643],a=4, v=0.75, t=0.040000)
movej([1.265660, -2.135040, -1.946978, -0.376789, -2.541824, -2.736643],a=4, v=0.75, t=0.040000)
movej([1.265660, -2.135045, -1.946978, -0.376789, -2.541824, -2.736643],a=4, v=0.75, t=0.040000)
movej([1.265660, -2.135040, -1.946978, -0.376789, -2.541824, -2.736643],a=4, v=0.75, t=0.040000)
movej([1.265660, -2.135045, -1.946978, -0.376789, -2.541824, -2.736643],a=4, v=0.75, t=0.040000)
movej([1.265660, -2.135036, -1.946978, -0.376789, -2.541824, -2.736643],a=4, v=0.75, t=0.040000)
movej([1.265660, -2.135045, -1.946978, -0.376789, -2.541824, -2.736630],a=4, v=0.75, t=0.040000)
movej([1.265660, -2.135036, -1.946978, -0.376789, -2.541824, -2.736627],a=4, v=0.75, t=0.040000)
movej([1.265660, -2.135044, -1.946978, -0.376789, -2.541824, -2.736627],a=4, v=0.75, t=0.040000)
movej([1.265660, -2.135036, -1.946978, -0.376789, -2.541824, -2.736627],a=4, v=0.75, t=0.040000)
movej([1.265660, -2.135036, -1.946978, -0.376789, -2.541824, -2.736627],a=4, v=0.75, t=0.040000)
movej([1.265660, -2.135036, -1.946978, -0.376789, -2.541840, -2.736627],a=4, v=0.75, t=0.040000)
movej([1.265660, -2.135036, -1.946978, -0.376789, -2.541840, -2.736627],a=4, v=0.75, t=0.040000)
movej([1.265650, -2.135036, -1.946978, -0.376789, -2.541840, -2.736627],a=4, v=0.75, t=0.040000)
movej([1.265650, -2.135036, -1.946978, -0.376789, -2.541840, -2.736627],a=4, v=0.75, t=0.040000)
movej([1.265650, -2.135036, -1.946987, -0.376789, -2.541840, -2.736627],a=4, v=0.75, t=0.040000)
movej([1.265650, -2.135036, -1.946987, -0.376789, -2.541840, -2.736627],a=4, v=0.75, t=0.040000)
movej([1.265650, -2.135036, -1.946987, -0.376789, -2.541840, -2.736627],a=4, v=0.75, t=0.040000)
movej([1.265650, -2.135036, -1.946987, -0.376789, -2.541840, -2.736627],a=4, v=0.75, t=0.040000)
movej([1.265650, -2.135036, -1.946990, -0.376789, -2.541840, -2.736627],a=4, v=0.75, t=0.040000)
movej([1.265650, -2.135036, -1.946997, -0.376789, -2.541840, -2.736627],a=4, v=0.75, t=0.040000)
movej([1.265650, -2.135036, -1.946997, -0.376789, -2.541840, -2.736627],a=4, v=0.75, t=0.040000)
movej([1.265650, -2.135036, -1.946997, -0.376789, -2.541840, -2.736631],a=4, v=0.75, t=0.040000)
movej([1.265650, -2.135036, -1.946997, -0.376789, -2.541840, -2.736627],a=4, v=0.75, t=0.040000)
movej([1.265650, -2.135036, -1.946997, -0.376789, -2.541840, -2.736627],a=4, v=0.75, t=0.040000)
movej([1.264955, -2.136539, -1.944096, -0.377436, -2.541508, -2.735663],a=4, v=0.75, t=0.040000)
movej([1.257983, -2.151607, -1.915001, -0.383927, -2.538178, -2.725997],a=4, v=0.75, t=0.040000)
movej([1.241740, -2.186710, -1.847222, -0.399048, -2.530420, -2.703480],a=4, v=0.75, t=0.040000)
movej([1.215583, -2.243237, -1.738075, -0.423398, -2.517929, -2.667220],a=4, v=0.75, t=0.040000)
movej([1.185034, -2.309256, -1.610601, -0.451836, -2.503339, -2.624872],a=4, v=0.75, t=0.040000)
movej([1.154471, -2.375305, -1.483067, -0.480287, -2.488743, -2.582503],a=4, v=0.75, t=0.040000)
movej([1.123995, -2.441167, -1.355898, -0.508658, -2.474189, -2.540255],a=4, v=0.75, t=0.040000)
movej([1.093321, -2.507459, -1.227896, -0.537214, -2.459539, -2.497732],a=4, v=0.75, t=0.040000)
movej([1.062809, -2.573397, -1.100579, -0.565617, -2.444967, -2.455435],a=4, v=0.75, t=0.040000)
movej([1.032197, -2.639551, -0.972842, -0.594114, -2.430348, -2.413000],a=4, v=0.75, t=0.040000)
movej([1.001660, -2.705545, -0.845416, -0.622541, -2.415764, -2.370667],a=4, v=0.75, t=0.040000)
movej([0.971201, -2.771369, -0.718319, -0.650896, -2.401217, -2.328444],a=4, v=0.75, t=0.040000)
movej([0.940524, -2.837668, -0.590304, -0.679455, -2.386566, -2.285915],a=4, v=0.75, t=0.040000)
movej([0.910026, -2.903577, -0.463042, -0.707845, -2.372001, -2.243637],a=4, v=0.75, t=0.040000)
movej([0.880726, -2.966895, -0.340782, -0.735121, -2.358008, -2.203021],a=4, v=0.75, t=0.040000)
movej([0.859955, -3.011784, -0.254108, -0.754457, -2.348088, -2.174227],a=4, v=0.75, t=0.040000)
movej([0.849082, -3.035282, -0.208737, -0.764579, -2.342895, -2.159154],a=4, v=0.75, t=0.040000)
movej([0.846364, -3.041249, -0.196470, -0.767329, -2.341466, -2.154547],a=4, v=0.75, t=0.040000)
movej([0.847563, -3.039333, -0.200243, -0.767338, -2.341320, -2.154193],a=4, v=0.75, t=0.040000)
movej([0.847221, -3.039274, -0.201896, -0.767334, -2.341458, -2.154347],a=4, v=0.75, t=0.040000)
movej([0.846460, -3.039424, -0.201250, -0.767216, -2.341471, -2.154732],a=4, v=0.75, t=0.040000)
movej([0.846605, -3.039718, -0.200051, -0.767138, -2.341454, -2.155067],a=4, v=0.75, t=0.040000)
movej([0.846559, -3.039859, -0.198686, -0.767061, -2.341442, -2.155209],a=4, v=0.75, t=0.040000)
movej([0.846520, -3.040425, -0.198307, -0.767059, -2.341542, -2.155230],a=4, v=0.75, t=0.040000)
