movej([0.846470, -3.040916, -0.197875, -0.766856, -2.341798, -2.155399],a=25, v=3.2)
movej([0.846470, -3.040916, -0.197875, -0.766856, -2.341798, -2.155399],a=25, v=3.2)
movej([0.846470, -3.040916, -0.197885, -0.766856, -2.341798, -2.155383],a=25, v=3.2)
movej([0.846470, -3.040916, -0.197885, -0.766840, -2.341798, -2.155399],a=25, v=3.2)
movej([0.846470, -3.040916, -0.197885, -0.766856, -2.341798, -2.155383],a=25, v=3.2)
movej([0.846470, -3.040916, -0.197885, -0.766856, -2.341798, -2.155399],a=25, v=3.2)
movej([0.846470, -3.040916, -0.197885, -0.766856, -2.341798, -2.155383],a=25, v=3.2)
movej([0.846470, -3.040916, -0.197885, -0.766840, -2.341798, -2.155391],a=25, v=3.2)
movej([0.846470, -3.040916, -0.197885, -0.766840, -2.341798, -2.155399],a=25, v=3.2)
movej([0.846470, -3.040916, -0.197885, -0.766840, -2.341798, -2.155391],a=25, v=3.2)
movej([0.846470, -3.040916, -0.197885, -0.766840, -2.341798, -2.155383],a=25, v=3.2)
movej([0.846470, -3.040916, -0.197885, -0.766840, -2.341798, -2.155386],a=25, v=3.2)
movej([0.846470, -3.040916, -0.197885, -0.766840, -2.341798, -2.155399],a=25, v=3.2)
movej([0.846470, -3.040916, -0.197885, -0.766856, -2.341798, -2.155391],a=25, v=3.2)
movej([0.846470, -3.040916, -0.197885, -0.766856, -2.341798, -2.155383],a=25, v=3.2)
movej([0.846470, -3.040916, -0.197885, -0.766843, -2.341798, -2.155383],a=25, v=3.2)
movej([0.846470, -3.040916, -0.197885, -0.766845, -2.341798, -2.155399],a=25, v=3.2)
movej([0.846470, -3.040916, -0.197885, -0.766849, -2.341798, -2.155399],a=25, v=3.2)
movej([0.846470, -3.040916, -0.197885, -0.766850, -2.341798, -2.155389],a=25, v=3.2)
movej([0.846470, -3.040915, -0.197885, -0.766856, -2.341798, -2.155385],a=25, v=3.2)
movej([0.846470, -3.040907, -0.197885, -0.766856, -2.341798, -2.155399],a=25, v=3.2)
movej([0.846470, -3.040907, -0.197885, -0.766840, -2.341798, -2.155391],a=25, v=3.2)
movej([0.846470, -3.040907, -0.197885, -0.766840, -2.341798, -2.155383],a=25, v=3.2)
movej([0.846470, -3.040907, -0.197885, -0.766853, -2.341798, -2.155396],a=25, v=3.2)
movej([0.846470, -3.040907, -0.197885, -0.766851, -2.341798, -2.155394],a=25, v=3.2)
movej([0.846470, -3.040907, -0.197885, -0.766840, -2.341798, -2.155383],a=25, v=3.2)
movej([0.846470, -3.040907, -0.197885, -0.766850, -2.341798, -2.155383],a=25, v=3.2)
movej([0.846470, -3.040908, -0.197885, -0.766854, -2.341798, -2.155383],a=25, v=3.2)
movej([0.846470, -3.040916, -0.197885, -0.766841, -2.341798, -2.155383],a=25, v=3.2)
movej([0.846470, -3.040916, -0.197875, -0.766847, -2.341798, -2.155390],a=25, v=3.2)
movej([0.846470, -3.040916, -0.197875, -0.766856, -2.341798, -2.155385],a=25, v=3.2)
movej([0.846470, -3.040916, -0.197875, -0.766856, -2.341798, -2.155396],a=25, v=3.2)
movej([0.846470, -3.040916, -0.197885, -0.766856, -2.341798, -2.155395],a=25, v=3.2)
movej([0.846470, -3.040916, -0.197885, -0.766851, -2.341798, -2.155383],a=25, v=3.2)
movej([0.846470, -3.040916, -0.197885, -0.766840, -2.341798, -2.155383],a=25, v=3.2)
movej([0.846470, -3.040916, -0.197885, -0.766842, -2.341798, -2.155385],a=25, v=3.2)
movej([0.846470, -3.040916, -0.197885, -0.766855, -2.341798, -2.155398],a=25, v=3.2)
movej([0.846470, -3.040916, -0.197885, -0.766856, -2.341798, -2.155390],a=25, v=3.2)
movej([0.846470, -3.040916, -0.197885, -0.766856, -2.341798, -2.155399],a=25, v=3.2)
movej([0.846470, -3.040916, -0.197877, -0.766856, -2.341798, -2.155387],a=25, v=3.2)
movej([0.846470, -3.040916, -0.197878, -0.766852, -2.341798, -2.155399],a=25, v=3.2)
movej([0.846470, -3.040916, -0.197885, -0.766840, -2.341798, -2.155399],a=25, v=3.2)
movej([0.846470, -3.040916, -0.197885, -0.766840, -2.341798, -2.155399],a=25, v=3.2)
movej([0.846470, -3.040916, -0.197885, -0.766856, -2.341798, -2.155398],a=25, v=3.2)
movej([0.846470, -3.040916, -0.197885, -0.766856, -2.341798, -2.155384],a=25, v=3.2)
movej([0.846470, -3.040916, -0.197885, -0.766849, -2.341798, -2.155383],a=25, v=3.2)
movej([0.846470, -3.040916, -0.197885, -0.766840, -2.341798, -2.155383],a=25, v=3.2)
movej([0.846470, -3.040916, -0.197885, -0.766852, -2.341798, -2.155383],a=25, v=3.2)
movej([0.846470, -3.040916, -0.197885, -0.766840, -2.341798, -2.155383],a=25, v=3.2)
movej([0.846470, -3.040916, -0.197885, -0.766840, -2.341798, -2.155383],a=25, v=3.2)
movej([0.846470, -3.040916, -0.197885, -0.766849, -2.341798, -2.155383],a=25, v=3.2)
movej([0.846470, -3.040916, -0.197885, -0.766840, -2.341798, -2.155384],a=25, v=3.2)
movej([0.846470, -3.040916, -0.197885, -0.766840, -2.341798, -2.155397],a=25, v=3.2)
movej([0.846470, -3.040916, -0.197885, -0.766846, -2.341798, -2.155389],a=25, v=3.2)
movej([0.846470, -3.040916, -0.197885, -0.766845, -2.341798, -2.155399],a=25, v=3.2)
movej([0.846470, -3.040916, -0.197885, -0.766840, -2.341798, -2.155387],a=25, v=3.2)
movej([0.846470, -3.040916, -0.197885, -0.766840, -2.341798, -2.155399],a=25, v=3.2)
movej([0.846470, -3.040916, -0.197885, -0.766840, -2.341798, -2.155396],a=25, v=3.2)
movej([0.846470, -3.040916, -0.197885, -0.766840, -2.341798, -2.155383],a=25, v=3.2)
movej([0.846470, -3.040916, -0.197885, -0.766855, -2.341798, -2.155398],a=25, v=3.2)
movej([0.846470, -3.040916, -0.197885, -0.766842, -2.341798, -2.155385],a=25, v=3.2)
movej([0.846470, -3.040916, -0.197885, -0.766846, -2.341798, -2.155393],a=25, v=3.2)
movej([0.846470, -3.040916, -0.197885, -0.766856, -2.341798, -2.155393],a=25, v=3.2)
movej([0.846470, -3.040916, -0.197885, -0.766856, -2.341798, -2.155399],a=25, v=3.2)
movej([0.846470, -3.040916, -0.197885, -0.766843, -2.341798, -2.155386],a=25, v=3.2)
movej([0.846470, -3.040916, -0.197885, -0.766856, -2.341798, -2.155399],a=25, v=3.2)
movej([0.846470, -3.040916, -0.197880, -0.766856, -2.341798, -2.155391],a=25, v=3.2)
movej([0.846470, -3.040916, -0.197875, -0.766840, -2.341798, -2.155383],a=25, v=3.2)
movej([0.846470, -3.040916, -0.197875, -0.766840, -2.341798, -2.155397],a=25, v=3.2)
movej([0.846470, -3.040916, -0.197875, -0.766840, -2.341798, -2.155393],a=25, v=3.2)
movej([0.846470, -3.040916, -0.197875, -0.766840, -2.341798, -2.155383],a=25, v=3.2)
movej([0.846470, -3.040916, -0.197875, -0.766851, -2.341798, -2.155394],a=25, v=3.2)
movej([0.846470, -3.040916, -0.197875, -0.766853, -2.341798, -2.155396],a=25, v=3.2)
movej([0.846470, -3.040916, -0.197875, -0.766840, -2.341798, -2.155383],a=25, v=3.2)
movej([0.846470, -3.040916, -0.197880, -0.766848, -2.341798, -2.155383],a=25, v=3.2)
movej([0.846470, -3.040916, -0.197885, -0.766856, -2.341798, -2.155383],a=25, v=3.2)
movej([0.846470, -3.040916, -0.197885, -0.766843, -2.341798, -2.155383],a=25, v=3.2)
movej([0.846470, -3.040916, -0.197885, -0.766845, -2.341798, -2.155394],a=25, v=3.2)
movej([0.846470, -3.040916, -0.197885, -0.766856, -2.341798, -2.155391],a=25, v=3.2)
movej([0.846470, -3.040916, -0.197885, -0.766856, -2.341798, -2.155399],a=25, v=3.2)
movej([0.846470, -3.040916, -0.197885, -0.766853, -2.341798, -2.155383],a=25, v=3.2)
movej([0.846470, -3.040916, -0.197885, -0.766840, -2.341798, -2.155383],a=25, v=3.2)
movej([0.846470, -3.040916, -0.197885, -0.766848, -2.341798, -2.155391],a=25, v=3.2)
movej([0.846470, -3.040916, -0.197885, -0.766856, -2.341798, -2.155399],a=25, v=3.2)
movej([0.846470, -3.040916, -0.197885, -0.766843, -2.341798, -2.155399],a=25, v=3.2)
movej([0.846470, -3.040916, -0.197885, -0.766840, -2.341798, -2.155388],a=25, v=3.2)
movej([0.846470, -3.040916, -0.197885, -0.766840, -2.341798, -2.155399],a=25, v=3.2)
movej([0.846470, -3.040916, -0.197885, -0.766840, -2.341798, -2.155399],a=25, v=3.2)
movej([0.846470, -3.040916, -0.197885, -0.766856, -2.341798, -2.155397],a=25, v=3.2)
movej([0.846470, -3.040916, -0.197885, -0.766856, -2.341798, -2.155383],a=25, v=3.2)
movej([0.846470, -3.040912, -0.197885, -0.766856, -2.341798, -2.155391],a=25, v=3.2)
movej([0.846470, -3.040907, -0.197885, -0.766841, -2.341798, -2.155399],a=25, v=3.2)
movej([0.846470, -3.040907, -0.197885, -0.766853, -2.341798, -2.155399],a=25, v=3.2)
movej([0.846470, -3.040907, -0.197885, -0.766845, -2.341798, -2.155383],a=25, v=3.2)
movej([0.846470, -3.040907, -0.197885, -0.766849, -2.341798, -2.155383],a=25, v=3.2)
movej([0.846470, -3.040907, -0.197885, -0.766840, -2.341798, -2.155393],a=25, v=3.2)
movej([0.846470, -3.040908, -0.197885, -0.766842, -2.341798, -2.155385],a=25, v=3.2)
movej([0.846470, -3.040916, -0.197885, -0.766855, -2.341798, -2.155398],a=25, v=3.2)
movej([0.846470, -3.040916, -0.197885, -0.766849, -2.341798, -2.155399],a=25, v=3.2)
movej([0.846470, -3.040916, -0.197885, -0.766840, -2.341798, -2.155399],a=25, v=3.2)
movej([0.846470, -3.040916, -0.197885, -0.766840, -2.341798, -2.155386],a=25, v=3.2)
movej([0.846470, -3.040916, -0.197885, -0.766845, -2.341798, -2.155383],a=25, v=3.2)
movej([0.846470, -3.040916, -0.197885, -0.766851, -2.341798, -2.155388],a=25, v=3.2)
movej([0.846470, -3.040916, -0.197879, -0.766850, -2.341798, -2.155389],a=25, v=3.2)
movej([0.846470, -3.040916, -0.197875, -0.766856, -2.341798, -2.155383],a=25, v=3.2)
movej([0.846470, -3.040916, -0.197875, -0.766856, -2.341798, -2.155383],a=25, v=3.2)
movej([0.846470, -3.040916, -0.197875, -0.766849, -2.341798, -2.155390],a=25, v=3.2)
movej([0.846470, -3.040916, -0.197875, -0.766840, -2.341798, -2.155399],a=25, v=3.2)
movej([0.846470, -3.040916, -0.197875, -0.766840, -2.341798, -2.155387],a=25, v=3.2)
movej([0.846470, -3.040916, -0.197878, -0.766844, -2.341798, -2.155387],a=25, v=3.2)
movej([0.846470, -3.040916, -0.197885, -0.766856, -2.341798, -2.155394],a=25, v=3.2)
movej([0.846470, -3.040916, -0.197885, -0.766856, -2.341798, -2.155383],a=25, v=3.2)
movej([0.846470, -3.040916, -0.197885, -0.766841, -2.341798, -2.155399],a=25, v=3.2)
movej([0.846470, -3.040916, -0.197885, -0.766855, -2.341798, -2.155399],a=25, v=3.2)
movej([0.846470, -3.040916, -0.197885, -0.766849, -2.341798, -2.155383],a=25, v=3.2)
movej([0.846470, -3.040916, -0.197885, -0.766840, -2.341798, -2.155383],a=25, v=3.2)
movej([0.846470, -3.040916, -0.197885, -0.766840, -2.341798, -2.155383],a=25, v=3.2)
movej([0.846470, -3.040916, -0.197885, -0.766844, -2.341798, -2.155387],a=25, v=3.2)
movej([0.846470, -3.040916, -0.197885, -0.766856, -2.341798, -2.155399],a=25, v=3.2)
movej([0.846470, -3.040916, -0.197885, -0.766856, -2.341798, -2.155399],a=25, v=3.2)
movej([0.846470, -3.040916, -0.197885, -0.766841, -2.341798, -2.155383],a=25, v=3.2)
movej([0.846470, -3.040916, -0.197885, -0.766854, -2.341798, -2.155383],a=25, v=3.2)
movej([0.846474, -3.040916, -0.197885, -0.766846, -2.341798, -2.155389],a=25, v=3.2)
movej([0.846479, -3.040916, -0.197885, -0.766856, -2.341798, -2.155399],a=25, v=3.2)
movej([0.846479, -3.040916, -0.197885, -0.766844, -2.341798, -2.155387],a=25, v=3.2)
movej([0.846479, -3.040916, -0.197885, -0.766844, -2.341798, -2.155387],a=25, v=3.2)
movej([0.846479, -3.040916, -0.197885, -0.766856, -2.341798, -2.155399],a=25, v=3.2)
movej([0.846479, -3.040916, -0.197885, -0.766856, -2.341798, -2.155390],a=25, v=3.2)
movej([0.846479, -3.040916, -0.197885, -0.766855, -2.341798, -2.155399],a=25, v=3.2)
movej([0.846479, -3.040916, -0.197885, -0.766842, -2.341798, -2.155399],a=25, v=3.2)
movej([0.846479, -3.040916, -0.197885, -0.766846, -2.341798, -2.155389],a=25, v=3.2)
movej([0.846479, -3.040916, -0.197885, -0.766856, -2.341798, -2.155399],a=25, v=3.2)
movej([0.846479, -3.040916, -0.197885, -0.766845, -2.341798, -2.155388],a=25, v=3.2)
movej([0.846479, -3.040916, -0.197885, -0.766843, -2.341798, -2.155396],a=25, v=3.2)
movej([0.846479, -3.040916, -0.197885, -0.766856, -2.341798, -2.155383],a=25, v=3.2)
movej([0.846474, -3.040916, -0.197885, -0.766856, -2.341798, -2.155383],a=25, v=3.2)
movej([0.846470, -3.040916, -0.197885, -0.766855, -2.341798, -2.155383],a=25, v=3.2)
movej([0.846470, -3.040916, -0.197885, -0.766842, -2.341798, -2.155383],a=25, v=3.2)
movej([0.846470, -3.040916, -0.197885, -0.766840, -2.341798, -2.155389],a=25, v=3.2)
movej([0.846470, -3.040916, -0.197885, -0.766840, -2.341798, -2.155399],a=25, v=3.2)
movej([0.846470, -3.040916, -0.197885, -0.766851, -2.341798, -2.155399],a=25, v=3.2)
movej([0.846470, -3.040916, -0.197885, -0.766843, -2.341798, -2.155399],a=25, v=3.2)
movej([0.846470, -3.040916, -0.197885, -0.766856, -2.341798, -2.155398],a=25, v=3.2)
movej([0.846470, -3.040916, -0.197885, -0.766848, -2.341798, -2.155383],a=25, v=3.2)
movej([0.846470, -3.040916, -0.197885, -0.766840, -2.341798, -2.155383],a=25, v=3.2)
movej([0.846470, -3.040916, -0.197885, -0.766854, -2.341798, -2.155397],a=25, v=3.2)
movej([0.846470, -3.040916, -0.197885, -0.766851, -2.341798, -2.155399],a=25, v=3.2)
movej([0.846470, -3.040916, -0.197885, -0.766840, -2.341798, -2.155399],a=25, v=3.2)
movej([0.846470, -3.040916, -0.197885, -0.766840, -2.341798, -2.155388],a=25, v=3.2)
movej([0.846470, -3.040916, -0.197883, -0.766840, -2.341798, -2.155386],a=25, v=3.2)
movej([0.846470, -3.040916, -0.197875, -0.766840, -2.341798, -2.155399],a=25, v=3.2)
movej([0.846470, -3.040916, -0.197875, -0.766856, -2.341798, -2.155391],a=25, v=3.2)
movej([0.846470, -3.040916, -0.197875, -0.766856, -2.341798, -2.155383],a=25, v=3.2)
movej([0.846470, -3.040916, -0.197875, -0.766843, -2.341798, -2.155383],a=25, v=3.2)
movej([0.846470, -3.040916, -0.197878, -0.766845, -2.341798, -2.155394],a=25, v=3.2)
movej([0.846470, -3.040916, -0.197885, -0.766848, -2.341798, -2.155383],a=25, v=3.2)
movej([0.846470, -3.040916, -0.197885, -0.766850, -2.341798, -2.155383],a=25, v=3.2)
movej([0.846470, -3.040916, -0.197885, -0.766856, -2.341798, -2.155385],a=25, v=3.2)
movej([0.846470, -3.040916, -0.197885, -0.766856, -2.341798, -2.155399],a=25, v=3.2)
movej([0.846470, -3.040916, -0.197885, -0.766848, -2.341798, -2.155391],a=25, v=3.2)
movej([0.846470, -3.040916, -0.197885, -0.766840, -2.341798, -2.155383],a=25, v=3.2)
movej([0.846470, -3.040916, -0.197885, -0.766840, -2.341798, -2.155396],a=25, v=3.2)
movej([0.846470, -3.040916, -0.197885, -0.766840, -2.341798, -2.155399],a=25, v=3.2)
movej([0.846470, -3.040916, -0.197885, -0.766840, -2.341798, -2.155399],a=25, v=3.2)
movej([0.846470, -3.040916, -0.197885, -0.766850, -2.341798, -2.155389],a=25, v=3.2)
movej([0.846470, -3.040907, -0.197885, -0.766854, -2.341798, -2.155385],a=25, v=3.2)
movej([0.846470, -3.040907, -0.197885, -0.766841, -2.341798, -2.155398],a=25, v=3.2)
movej([0.846470, -3.040911, -0.197885, -0.766840, -2.341798, -2.155392],a=25, v=3.2)
movej([0.846470, -3.040916, -0.197885, -0.766840, -2.341798, -2.155383],a=25, v=3.2)
movej([0.846470, -3.040916, -0.197877, -0.766840, -2.341798, -2.155383],a=25, v=3.2)
movej([0.846470, -3.040916, -0.197875, -0.766845, -2.341798, -2.155394],a=25, v=3.2)
movej([0.846470, -3.040916, -0.197875, -0.766850, -2.341798, -2.155383],a=25, v=3.2)
movej([0.846470, -3.040916, -0.197875, -0.766850, -2.341798, -2.155393],a=25, v=3.2)
movej([0.846470, -3.040916, -0.197875, -0.766856, -2.341798, -2.155399],a=25, v=3.2)
movej([0.846470, -3.040916, -0.197875, -0.766856, -2.341798, -2.155399],a=25, v=3.2)
movej([0.846470, -3.040916, -0.197875, -0.766849, -2.341798, -2.155399],a=25, v=3.2)
movej([0.846470, -3.040916, -0.197875, -0.766853, -2.341798, -2.155399],a=25, v=3.2)
movej([0.846470, -3.040916, -0.197883, -0.766856, -2.341798, -2.155399],a=25, v=3.2)
movej([0.846470, -3.040916, -0.197885, -0.766852, -2.341798, -2.155399],a=25, v=3.2)
movej([0.846470, -3.040916, -0.197885, -0.766840, -2.341798, -2.155399],a=25, v=3.2)
movej([0.846470, -3.040916, -0.197885, -0.766850, -2.341798, -2.155399],a=25, v=3.2)
movej([0.846470, -3.040916, -0.197885, -0.766856, -2.341798, -2.155397],a=25, v=3.2)
movej([0.846470, -3.040916, -0.197885, -0.766856, -2.341798, -2.155384],a=25, v=3.2)
movej([0.846470, -3.040916, -0.197885, -0.766840, -2.341798, -2.155383],a=25, v=3.2)
movej([0.846470, -3.040916, -0.197885, -0.766852, -2.341798, -2.155383],a=25, v=3.2)
movej([0.846470, -3.040916, -0.197885, -0.766844, -2.341798, -2.155395],a=25, v=3.2)
movej([0.846470, -3.040916, -0.197885, -0.766856, -2.341798, -2.155399],a=25, v=3.2)
movej([0.846470, -3.040916, -0.197885, -0.766852, -2.341798, -2.155399],a=25, v=3.2)
movej([0.846470, -3.040916, -0.197885, -0.766840, -2.341798, -2.155399],a=25, v=3.2)
movej([0.846470, -3.040916, -0.197885, -0.766841, -2.341798, -2.155383],a=25, v=3.2)
movej([0.846470, -3.040916, -0.197885, -0.766855, -2.341798, -2.155383],a=25, v=3.2)
movej([0.846470, -3.040916, -0.197885, -0.766849, -2.341798, -2.155390],a=25, v=3.2)
movej([0.846470, -3.040916, -0.197885, -0.766840, -2.341798, -2.155388],a=25, v=3.2)
movej([0.846470, -3.040916, -0.197885, -0.766840, -2.341798, -2.155383],a=25, v=3.2)
movej([0.846470, -3.040916, -0.197885, -0.766852, -2.341798, -2.155387],a=25, v=3.2)
movej([0.846470, -3.040916, -0.197885, -0.766843, -2.341798, -2.155399],a=25, v=3.2)
movej([0.846470, -3.040916, -0.197885, -0.766856, -2.341798, -2.155390],a=25, v=3.2)
movej([0.846470, -3.040916, -0.197885, -0.766841, -2.341798, -2.155383],a=25, v=3.2)
movej([0.846470, -3.040916, -0.197885, -0.766854, -2.341798, -2.155383],a=25, v=3.2)
movej([0.846470, -3.040916, -0.197885, -0.766850, -2.341798, -2.155383],a=25, v=3.2)
movej([0.846470, -3.040916, -0.197885, -0.766840, -2.341798, -2.155383],a=25, v=3.2)
movej([0.846470, -3.040916, -0.197885, -0.766840, -2.341798, -2.155394],a=25, v=3.2)
movej([0.846470, -3.040916, -0.197885, -0.766843, -2.341798, -2.155386],a=25, v=3.2)
movej([0.846470, -3.040916, -0.197885, -0.766856, -2.341798, -2.155399],a=25, v=3.2)
movej([0.846470, -3.040916, -0.197885, -0.766856, -2.341798, -2.155390],a=25, v=3.2)
movej([0.846470, -3.040916, -0.197885, -0.766841, -2.341798, -2.155384],a=25, v=3.2)
movej([0.846470, -3.040916, -0.197885, -0.766854, -2.341798, -2.155397],a=25, v=3.2)
movej([0.846470, -3.040916, -0.197885, -0.766850, -2.341798, -2.155399],a=25, v=3.2)
movej([0.846470, -3.040916, -0.197885, -0.766840, -2.341798, -2.155399],a=25, v=3.2)
movej([0.846470, -3.040916, -0.197885, -0.766840, -2.341798, -2.155388],a=25, v=3.2)
movej([0.846470, -3.040907, -0.197885, -0.766840, -2.341798, -2.155383],a=25, v=3.2)
movej([0.846470, -3.040907, -0.197885, -0.766841, -2.341798, -2.155383],a=25, v=3.2)
movej([0.846470, -3.040907, -0.197885, -0.766856, -2.341798, -2.155391],a=25, v=3.2)
movej([0.846470, -3.040907, -0.197885, -0.766840, -2.341798, -2.155399],a=25, v=3.2)
movej([0.846470, -3.040907, -0.197885, -0.766854, -2.341798, -2.155399],a=25, v=3.2)
movej([0.846470, -3.040910, -0.197885, -0.766856, -2.341798, -2.155389],a=25, v=3.2)
movej([0.846470, -3.040916, -0.197885, -0.766856, -2.341798, -2.155391],a=25, v=3.2)
movej([0.846470, -3.040916, -0.197885, -0.766856, -2.341798, -2.155383],a=25, v=3.2)
movej([0.846470, -3.040916, -0.197885, -0.766840, -2.341798, -2.155386],a=25, v=3.2)
movej([0.846470, -3.040916, -0.197885, -0.766840, -2.341798, -2.155399],a=25, v=3.2)
movej([0.846470, -3.040916, -0.197885, -0.766848, -2.341798, -2.155391],a=25, v=3.2)
movej([0.846470, -3.040916, -0.197885, -0.766840, -2.341798, -2.155399],a=25, v=3.2)
movej([0.846478, -3.040897, -0.197921, -0.766846, -2.341802, -2.155411],a=25, v=3.2)
movej([0.846586, -3.040665, -0.198370, -0.766748, -2.341854, -2.155561],a=25, v=3.2)
movej([0.846793, -3.040218, -0.199234, -0.766556, -2.341952, -2.155848],a=25, v=3.2)
movej([0.847171, -3.039400, -0.200813, -0.766203, -2.342133, -2.156373],a=25, v=3.2)
movej([0.847653, -3.038358, -0.202824, -0.765755, -2.342363, -2.157041],a=25, v=3.2)
movej([0.848268, -3.037028, -0.205392, -0.765182, -2.342657, -2.157894],a=25, v=3.2)
movej([0.849045, -3.035350, -0.208633, -0.764459, -2.343028, -2.158972],a=25, v=3.2)
movej([0.849918, -3.033464, -0.212273, -0.763647, -2.343445, -2.160182],a=25, v=3.2)
movej([0.850952, -3.031229, -0.216589, -0.762684, -2.343939, -2.161617],a=25, v=3.2)
movej([0.852114, -3.028717, -0.221439, -0.761601, -2.344494, -2.163228],a=25, v=3.2)
movej([0.853384, -3.025974, -0.226736, -0.760420, -2.345100, -2.164989],a=25, v=3.2)
movej([0.854823, -3.022863, -0.232741, -0.759080, -2.345788, -2.166985],a=25, v=3.2)
movej([0.856365, -3.019530, -0.239178, -0.757644, -2.346524, -2.169124],a=25, v=3.2)
movej([0.858051, -3.015887, -0.246212, -0.756075, -2.347329, -2.171462],a=25, v=3.2)
movej([0.859880, -3.011933, -0.253847, -0.754372, -2.348203, -2.174000],a=25, v=3.2)
movej([0.861811, -3.007761, -0.261903, -0.752574, -2.349125, -2.176678],a=25, v=3.2)
movej([0.863920, -3.003204, -0.270700, -0.750612, -2.350132, -2.179602],a=25, v=3.2)
movej([0.866150, -2.998384, -0.280009, -0.748535, -2.351197, -2.182696],a=25, v=3.2)
movej([0.868489, -2.993329, -0.289768, -0.746358, -2.352314, -2.185940],a=25, v=3.2)
movej([0.870982, -2.987939, -0.300174, -0.744036, -2.353505, -2.189399],a=25, v=3.2)
movej([0.873569, -2.982350, -0.310967, -0.741629, -2.354740, -2.192986],a=25, v=3.2)
movej([0.876336, -2.976370, -0.322514, -0.739052, -2.356062, -2.196824],a=25, v=3.2)
movej([0.879232, -2.970111, -0.334598, -0.736357, -2.357445, -2.200841],a=25, v=3.2)
movej([0.882238, -2.963613, -0.347145, -0.733557, -2.358880, -2.205011],a=25, v=3.2)
movej([0.885394, -2.956793, -0.360315, -0.730619, -2.360388, -2.209388],a=25, v=3.2)
movej([0.888660, -2.949735, -0.373941, -0.727580, -2.361948, -2.213918],a=25, v=3.2)
movej([0.892067, -2.942371, -0.388159, -0.724407, -2.363575, -2.218643],a=25, v=3.2)
movej([0.895635, -2.934660, -0.403049, -0.721085, -2.365279, -2.223592],a=25, v=3.2)
movej([0.899305, -2.926729, -0.418362, -0.717669, -2.367032, -2.228682],a=25, v=3.2)
movej([0.903131, -2.918459, -0.434330, -0.714107, -2.368859, -2.233990],a=25, v=3.2)
movej([0.907085, -2.909915, -0.450827, -0.710426, -2.370748, -2.239473],a=25, v=3.2)
movej([0.911157, -2.901114, -0.467821, -0.706635, -2.372693, -2.245122],a=25, v=3.2)
movej([0.915376, -2.891996, -0.485426, -0.702708, -2.374707, -2.250973],a=25, v=3.2)
movej([0.919718, -2.882612, -0.503544, -0.698666, -2.376780, -2.256996],a=25, v=3.2)
movej([0.924165, -2.873000, -0.522104, -0.694525, -2.378905, -2.263165],a=25, v=3.2)
movej([0.928799, -2.862988, -0.541436, -0.690212, -2.381117, -2.269590],a=25, v=3.2)
movej([0.933524, -2.852775, -0.561155, -0.685813, -2.383375, -2.276145],a=25, v=3.2)
movej([0.938423, -2.842187, -0.581599, -0.681252, -2.385714, -2.282940],a=25, v=3.2)
movej([0.943457, -2.831308, -0.602604, -0.676566, -2.388118, -2.289921],a=25, v=3.2)
movej([0.948393, -2.820639, -0.623205, -0.671970, -2.390476, -2.296769],a=25, v=3.2)
movej([0.953387, -2.809846, -0.644045, -0.667320, -2.392861, -2.303696],a=25, v=3.2)
movej([0.958404, -2.799006, -0.664977, -0.662651, -2.395257, -2.310653],a=25, v=3.2)
movej([0.963393, -2.788222, -0.685797, -0.658006, -2.397639, -2.317573],a=25, v=3.2)
movej([0.968411, -2.777377, -0.706737, -0.653334, -2.400036, -2.324534],a=25, v=3.2)
movej([0.973402, -2.766592, -0.727560, -0.648688, -2.402419, -2.331455],a=25, v=3.2)
movej([0.978422, -2.755743, -0.748510, -0.644014, -2.404817, -2.338418],a=25, v=3.2)
movej([0.983399, -2.744985, -0.769281, -0.639381, -2.407194, -2.345322],a=25, v=3.2)
movej([0.988419, -2.734138, -0.790226, -0.634708, -2.409592, -2.352284],a=25, v=3.2)
movej([0.993440, -2.723286, -0.811180, -0.630033, -2.411990, -2.359248],a=25, v=3.2)
movej([0.998409, -2.712546, -0.831916, -0.625407, -2.414363, -2.366141],a=25, v=3.2)
movej([1.003396, -2.701768, -0.852726, -0.620765, -2.416744, -2.373058],a=25, v=3.2)
movej([1.008423, -2.690903, -0.873706, -0.616085, -2.419146, -2.380031],a=25, v=3.2)
movej([1.013437, -2.680069, -0.894625, -0.611418, -2.421539, -2.386984],a=25, v=3.2)
movej([1.018422, -2.669295, -0.915426, -0.606778, -2.423921, -2.393898],a=25, v=3.2)
movej([1.023413, -2.658507, -0.936257, -0.602130, -2.426305, -2.400822],a=25, v=3.2)
movej([1.028383, -2.647767, -0.956995, -0.597504, -2.428678, -2.407714],a=25, v=3.2)
movej([1.033404, -2.636916, -0.977945, -0.592830, -2.431076, -2.414679],a=25, v=3.2)
movej([1.038417, -2.626081, -0.998867, -0.588162, -2.433470, -2.421632],a=25, v=3.2)
movej([1.043400, -2.615312, -1.019658, -0.583524, -2.435850, -2.428543],a=25, v=3.2)
movej([1.048406, -2.604493, -1.040549, -0.578863, -2.438241, -2.435487],a=25, v=3.2)
movej([1.053401, -2.593698, -1.061392, -0.574213, -2.440627, -2.442415],a=25, v=3.2)
movej([1.058419, -2.582854, -1.082331, -0.569542, -2.443023, -2.449374],a=25, v=3.2)
movej([1.063406, -2.572074, -1.103145, -0.564898, -2.445405, -2.456293],a=25, v=3.2)
movej([1.068425, -2.561229, -1.124085, -0.560227, -2.447801, -2.463253],a=25, v=3.2)
movej([1.073420, -2.550434, -1.144928, -0.555577, -2.450187, -2.470181],a=25, v=3.2)
movej([1.078419, -2.539628, -1.165793, -0.550922, -2.452575, -2.477116],a=25, v=3.2)
movej([1.083415, -2.528832, -1.186638, -0.546271, -2.454961, -2.484044],a=25, v=3.2)
movej([1.088411, -2.518036, -1.207483, -0.541621, -2.457347, -2.490973],a=25, v=3.2)
movej([1.093406, -2.507240, -1.228330, -0.536970, -2.459732, -2.497902],a=25, v=3.2)
movej([1.098431, -2.496379, -1.249300, -0.532292, -2.462132, -2.504872],a=25, v=3.2)
movej([1.103374, -2.485698, -1.269925, -0.527690, -2.464493, -2.511727],a=25, v=3.2)
movej([1.108406, -2.474821, -1.290925, -0.523005, -2.466897, -2.518708],a=25, v=3.2)
movej([1.113436, -2.463952, -1.311912, -0.518323, -2.469298, -2.525683],a=25, v=3.2)
movej([1.118425, -2.453168, -1.332733, -0.513678, -2.471682, -2.532604],a=25, v=3.2)
movej([1.123410, -2.442396, -1.353534, -0.509038, -2.474062, -2.539518],a=25, v=3.2)
movej([1.128423, -2.431562, -1.374453, -0.504371, -2.476456, -2.546471],a=25, v=3.2)
movej([1.133418, -2.420765, -1.395298, -0.499720, -2.478842, -2.553399],a=25, v=3.2)
movej([1.138446, -2.409898, -1.416281, -0.495039, -2.481244, -2.560373],a=25, v=3.2)
movej([1.143460, -2.399064, -1.437200, -0.490372, -2.483637, -2.567327],a=25, v=3.2)
movej([1.148467, -2.388241, -1.458098, -0.485710, -2.486030, -2.574273],a=25, v=3.2)
movej([1.153428, -2.377521, -1.478796, -0.481092, -2.488398, -2.581153],a=25, v=3.2)
movej([1.158413, -2.366749, -1.499596, -0.476452, -2.490779, -2.588066],a=25, v=3.2)
movej([1.163457, -2.355845, -1.520649, -0.471755, -2.493188, -2.595064],a=25, v=3.2)
movej([1.168440, -2.345077, -1.541441, -0.467117, -2.495568, -2.601974],a=25, v=3.2)
movej([1.173432, -2.334289, -1.562270, -0.462470, -2.497952, -2.608898],a=25, v=3.2)
movej([1.178276, -2.323819, -1.582487, -0.457959, -2.500266, -2.615618],a=25, v=3.2)
movej([1.183074, -2.313450, -1.602508, -0.453493, -2.502557, -2.622272],a=25, v=3.2)
movej([1.187714, -2.303420, -1.621873, -0.449173, -2.504773, -2.628709],a=25, v=3.2)
movej([1.192162, -2.293807, -1.640434, -0.445032, -2.506898, -2.634879],a=25, v=3.2)
movej([1.196514, -2.284402, -1.658595, -0.440980, -2.508977, -2.640915],a=25, v=3.2)
movej([1.200723, -2.275307, -1.676155, -0.437062, -2.510986, -2.646751],a=25, v=3.2)
movej([1.204806, -2.266483, -1.693194, -0.433261, -2.512936, -2.652415],a=25, v=3.2)
movej([1.208793, -2.257864, -1.709835, -0.429549, -2.514841, -2.657946],a=25, v=3.2)
movej([1.212589, -2.249662, -1.725670, -0.426016, -2.516653, -2.663209],a=25, v=3.2)
movej([1.216284, -2.241676, -1.741092, -0.422576, -2.518418, -2.668335],a=25, v=3.2)
movej([1.219840, -2.233992, -1.755929, -0.419266, -2.520116, -2.673267],a=25, v=3.2)
movej([1.223228, -2.226671, -1.770066, -0.416112, -2.521734, -2.677966],a=25, v=3.2)
movej([1.226553, -2.219484, -1.783940, -0.413016, -2.523322, -2.682578],a=25, v=3.2)
movej([1.229712, -2.212656, -1.797125, -0.410075, -2.524831, -2.686960],a=25, v=3.2)
movej([1.232716, -2.206165, -1.809658, -0.407279, -2.526265, -2.691125],a=25, v=3.2)
movej([1.235611, -2.199907, -1.821742, -0.404583, -2.527648, -2.695142],a=25, v=3.2)
movej([1.238397, -2.193885, -1.833368, -0.401989, -2.528979, -2.699007],a=25, v=3.2)
movej([1.241001, -2.188257, -1.844234, -0.399565, -2.530223, -2.702618],a=25, v=3.2)
movej([1.243511, -2.182834, -1.854707, -0.397229, -2.531421, -2.706099],a=25, v=3.2)
movej([1.245840, -2.177800, -1.864426, -0.395060, -2.532534, -2.709329],a=25, v=3.2)
movej([1.248084, -2.172951, -1.873789, -0.392972, -2.533605, -2.712442],a=25, v=3.2)
movej([1.250159, -2.168466, -1.882449, -0.391039, -2.534597, -2.715320],a=25, v=3.2)
movej([1.252113, -2.164243, -1.890602, -0.389221, -2.535529, -2.718030],a=25, v=3.2)
movej([1.253965, -2.160242, -1.898328, -0.387497, -2.536413, -2.720598],a=25, v=3.2)
movej([1.255640, -2.156621, -1.905320, -0.385937, -2.537214, -2.722922],a=25, v=3.2)
movej([1.257200, -2.153249, -1.911831, -0.384485, -2.537959, -2.725086],a=25, v=3.2)
movej([1.258647, -2.150122, -1.917868, -0.383138, -2.538650, -2.727093],a=25, v=3.2)
movej([1.259924, -2.147362, -1.923198, -0.381949, -2.539260, -2.728864],a=25, v=3.2)
movej([1.261113, -2.144792, -1.928160, -0.380841, -2.539828, -2.730513],a=25, v=3.2)
movej([1.262128, -2.142599, -1.932393, -0.379897, -2.540312, -2.731921],a=25, v=3.2)
movej([1.263017, -2.140677, -1.936104, -0.379069, -2.540737, -2.733154],a=25, v=3.2)
movej([1.263799, -2.138989, -1.939365, -0.378342, -2.541110, -2.734238],a=25, v=3.2)
movej([1.264409, -2.137668, -1.941914, -0.377774, -2.541402, -2.735085],a=25, v=3.2)
movej([1.264919, -2.136568, -1.944040, -0.377299, -2.541645, -2.735792],a=25, v=3.2)
movej([1.265295, -2.135754, -1.945609, -0.376949, -2.541825, -2.736314],a=25, v=3.2)
movej([1.265504, -2.135303, -1.946481, -0.376754, -2.541925, -2.736603],a=25, v=3.2)
movej([1.265627, -2.135038, -1.946993, -0.376640, -2.541984, -2.736774],a=25, v=3.2)
movej([1.265721, -2.135218, -1.946860, -0.376867, -2.541715, -2.736639],a=25, v=3.2)
movej([1.265776, -2.135266, -1.946823, -0.376926, -2.541662, -2.736603],a=25, v=3.2)
movej([1.265782, -2.135266, -1.946823, -0.376926, -2.541668, -2.736603],a=25, v=3.2)
movej([1.265776, -2.135280, -1.946795, -0.376922, -2.541695, -2.736594],a=25, v=3.2)
movej([1.265713, -2.135416, -1.946533, -0.376975, -2.541677, -2.736506],a=25, v=3.2)
movej([1.265525, -2.135823, -1.945748, -0.377150, -2.541588, -2.736246],a=25, v=3.2)
movej([1.265179, -2.136571, -1.944304, -0.377472, -2.541423, -2.735765],a=25, v=3.2)
movej([1.264740, -2.137517, -1.942477, -0.377880, -2.541213, -2.735159],a=25, v=3.2)
movej([1.264126, -2.138843, -1.939916, -0.378451, -2.540920, -2.734308],a=25, v=3.2)
movej([1.263405, -2.140402, -1.936905, -0.379122, -2.540576, -2.733308],a=25, v=3.2)
movej([1.262563, -2.142221, -1.933392, -0.379906, -2.540174, -2.732141],a=25, v=3.2)
movej([1.261552, -2.144402, -1.929180, -0.380845, -2.539693, -2.730741],a=25, v=3.2)
movej([1.260449, -2.146785, -1.924579, -0.381871, -2.539166, -2.729212],a=25, v=3.2)
movej([1.259197, -2.149488, -1.919358, -0.383036, -2.538569, -2.727478],a=25, v=3.2)
movej([1.257772, -2.152567, -1.913412, -0.384362, -2.537889, -2.725503],a=25, v=3.2)
movej([1.256282, -2.155787, -1.907194, -0.385749, -2.537178, -2.723437],a=25, v=3.2)
movej([1.254604, -2.159411, -1.900196, -0.387310, -2.536377, -2.721111],a=25, v=3.2)
movej([1.252823, -2.163257, -1.892767, -0.388966, -2.535527, -2.718644],a=25, v=3.2)
movej([1.250921, -2.167365, -1.884836, -0.390736, -2.534620, -2.716008],a=25, v=3.2)
movej([1.248838, -2.171863, -1.876148, -0.392674, -2.533626, -2.713122],a=25, v=3.2)
movej([1.246661, -2.176565, -1.867068, -0.394699, -2.532588, -2.710105],a=25, v=3.2)
movej([1.244347, -2.181564, -1.857413, -0.396853, -2.531483, -2.706898],a=25, v=3.2)
movej([1.241877, -2.186898, -1.847113, -0.399150, -2.530305, -2.703476],a=25, v=3.2)
movej([1.239333, -2.192393, -1.836501, -0.401517, -2.529091, -2.699950],a=25, v=3.2)
movej([1.236592, -2.198311, -1.825071, -0.404066, -2.527784, -2.696153],a=25, v=3.2)
movej([1.233726, -2.204503, -1.813115, -0.406733, -2.526416, -2.692181],a=25, v=3.2)
movej([1.230745, -2.210942, -1.800679, -0.409507, -2.524993, -2.688049],a=25, v=3.2)
movej([1.227620, -2.217690, -1.787648, -0.412413, -2.523503, -2.683719],a=25, v=3.2)
movej([1.224422, -2.224601, -1.774302, -0.415389, -2.521976, -2.679286],a=25, v=3.2)
movej([1.220998, -2.231994, -1.760026, -0.418574, -2.520343, -2.674543],a=25, v=3.2)
movej([1.217478, -2.239597, -1.745342, -0.421850, -2.518663, -2.669664],a=25, v=3.2)
movej([1.213839, -2.247457, -1.730163, -0.425235, -2.516927, -2.664621],a=25, v=3.2)
movej([1.210044, -2.255652, -1.714336, -0.428765, -2.515117, -2.659363],a=25, v=3.2)
movej([1.206103, -2.264166, -1.697894, -0.432432, -2.513236, -2.653900],a=25, v=3.2)
movej([1.202085, -2.272845, -1.681135, -0.436170, -2.511319, -2.648333],a=25, v=3.2)
movej([1.197902, -2.281878, -1.663689, -0.440061, -2.509324, -2.642536],a=25, v=3.2)
movej([1.193574, -2.291228, -1.645636, -0.444088, -2.507258, -2.636539],a=25, v=3.2)
movej([1.189129, -2.300826, -1.627099, -0.448222, -2.505138, -2.630380],a=25, v=3.2)
movej([1.184568, -2.310678, -1.608073, -0.452466, -2.502961, -2.624059],a=25, v=3.2)
movej([1.179858, -2.320852, -1.588425, -0.456848, -2.500714, -2.617531],a=25, v=3.2)
movej([1.174975, -2.331398, -1.568058, -0.461391, -2.498384, -2.610764],a=25, v=3.2)
movej([1.170012, -2.342117, -1.547359, -0.466008, -2.496017, -2.603887],a=25, v=3.2)
movej([1.165020, -2.352900, -1.526534, -0.470653, -2.493635, -2.596968],a=25, v=3.2)
movej([1.160047, -2.363640, -1.505794, -0.475279, -2.491262, -2.590078],a=25, v=3.2)
movej([1.155010, -2.374519, -1.484784, -0.479965, -2.488859, -2.583098],a=25, v=3.2)
movej([1.150025, -2.385288, -1.463988, -0.484604, -2.486480, -2.576189],a=25, v=3.2)
movej([1.145001, -2.396139, -1.443033, -0.489277, -2.484083, -2.569227],a=25, v=3.2)
movej([1.139999, -2.406942, -1.422170, -0.493930, -2.481696, -2.562296],a=25, v=3.2)
movej([1.135023, -2.417690, -1.401415, -0.498560, -2.479322, -2.555400],a=25, v=3.2)
movej([1.130019, -2.428496, -1.380546, -0.503215, -2.476935, -2.548466],a=25, v=3.2)
movej([1.125037, -2.439259, -1.359761, -0.507850, -2.474558, -2.541561],a=25, v=3.2)
movej([1.119991, -2.450155, -1.338718, -0.512545, -2.472151, -2.534570],a=25, v=3.2)
movej([1.114992, -2.460952, -1.317867, -0.517195, -2.469766, -2.527643],a=25, v=3.2)
movej([1.110002, -2.471732, -1.297051, -0.521838, -2.467385, -2.520727],a=25, v=3.2)
movej([1.105027, -2.482475, -1.276303, -0.526465, -2.465011, -2.513834],a=25, v=3.2)
movej([1.099999, -2.493335, -1.255330, -0.531143, -2.462612, -2.506866],a=25, v=3.2)
movej([1.094979, -2.504178, -1.234391, -0.535813, -2.460217, -2.499909],a=25, v=3.2)
movej([1.089917, -2.515113, -1.213272, -0.540524, -2.457801, -2.492893],a=25, v=3.2)
movej([1.085001, -2.525731, -1.192769, -0.545098, -2.455456, -2.486081],a=25, v=3.2)
movej([1.079996, -2.536542, -1.171890, -0.549754, -2.453068, -2.479145],a=25, v=3.2)
movej([1.074998, -2.547336, -1.151046, -0.554404, -2.450683, -2.472220],a=25, v=3.2)
movej([1.069949, -2.558241, -1.129985, -0.559101, -2.448274, -2.465223],a=25, v=3.2)
movej([1.064965, -2.569005, -1.109197, -0.563737, -2.445897, -2.458316],a=25, v=3.2)
movej([1.059969, -2.579798, -1.088357, -0.568385, -2.443512, -2.451392],a=25, v=3.2)
movej([1.054976, -2.590581, -1.067531, -0.573031, -2.441130, -2.444473],a=25, v=3.2)
movej([1.049967, -2.601399, -1.046640, -0.577690, -2.438740, -2.437532],a=25, v=3.2)
movej([1.044941, -2.612254, -1.025677, -0.582366, -2.436342, -2.430568],a=25, v=3.2)
movej([1.039943, -2.623049, -1.004830, -0.587016, -2.433958, -2.423642],a=25, v=3.2)
movej([1.034967, -2.633799, -0.984072, -0.591646, -2.431583, -2.416746],a=25, v=3.2)
movej([1.029961, -2.644610, -0.963192, -0.596303, -2.429195, -2.409809],a=25, v=3.2)
movej([1.024940, -2.655454, -0.942252, -0.600973, -2.426800, -2.402851],a=25, v=3.2)
movej([1.019941, -2.666252, -0.921398, -0.605625, -2.424414, -2.395923],a=25, v=3.2)
movej([1.014914, -2.677109, -0.900432, -0.610301, -2.422016, -2.388957],a=25, v=3.2)
movej([1.009942, -2.687848, -0.879692, -0.614927, -2.419643, -2.382067],a=25, v=3.2)
movej([1.004919, -2.698696, -0.858742, -0.619599, -2.417248, -2.375107],a=25, v=3.2)
movej([0.999932, -2.709468, -0.837941, -0.624240, -2.414868, -2.368196],a=25, v=3.2)
movej([0.994914, -2.720306, -0.817009, -0.628908, -2.412473, -2.361241],a=25, v=3.2)
movej([0.989899, -2.731138, -0.796093, -0.633573, -2.410081, -2.354293],a=25, v=3.2)
movej([0.984919, -2.741894, -0.775321, -0.638206, -2.407705, -2.347391],a=25, v=3.2)
movej([0.979925, -2.752680, -0.754491, -0.642852, -2.405322, -2.340471],a=25, v=3.2)
movej([0.974908, -2.763518, -0.733561, -0.647520, -2.402928, -2.333517],a=25, v=3.2)
movej([0.969885, -2.774366, -0.712610, -0.652194, -2.400532, -2.326557],a=25, v=3.2)
movej([0.964893, -2.785149, -0.691789, -0.656838, -2.398150, -2.319639],a=25, v=3.2)
movej([0.959911, -2.795910, -0.671006, -0.661473, -2.395772, -2.312735],a=25, v=3.2)
movej([0.954892, -2.806749, -0.650075, -0.666142, -2.393378, -2.305781],a=25, v=3.2)
movej([0.949903, -2.817524, -0.629266, -0.670783, -2.390998, -2.298867],a=25, v=3.2)
movej([0.944860, -2.828417, -0.608230, -0.675475, -2.388592, -2.291878],a=25, v=3.2)
movej([0.939872, -2.839189, -0.587425, -0.680115, -2.386212, -2.284966],a=25, v=3.2)
movej([0.934995, -2.849724, -0.567082, -0.684653, -2.383885, -2.278208],a=25, v=3.2)
movej([0.930123, -2.860246, -0.546761, -0.689185, -2.381561, -2.271456],a=25, v=3.2)
movej([0.925534, -2.870157, -0.527621, -0.693454, -2.379371, -2.265097],a=25, v=3.2)
movej([0.921023, -2.879901, -0.508806, -0.697651, -2.377219, -2.258846],a=25, v=3.2)
movej([0.916604, -2.889447, -0.490370, -0.701763, -2.375110, -2.252721],a=25, v=3.2)
movej([0.912395, -2.898536, -0.472817, -0.705678, -2.373102, -2.246890],a=25, v=3.2)
movej([0.908252, -2.907486, -0.455535, -0.709532, -2.371125, -2.241148],a=25, v=3.2)
movej([0.904258, -2.916111, -0.438876, -0.713248, -2.369220, -2.235614],a=25, v=3.2)
movej([0.900441, -2.924356, -0.422956, -0.716799, -2.367399, -2.230324],a=25, v=3.2)
movej([0.896708, -2.932421, -0.407381, -0.720273, -2.365617, -2.225150],a=25, v=3.2)
movej([0.893141, -2.940123, -0.392507, -0.723591, -2.363915, -2.220208],a=25, v=3.2)
movej([0.889674, -2.947611, -0.378045, -0.726817, -2.362261, -2.215403],a=25, v=3.2)
movej([0.886335, -2.954823, -0.364119, -0.729923, -2.360668, -2.210777],a=25, v=3.2)
movej([0.883158, -2.961685, -0.350866, -0.732878, -2.359153, -2.206374],a=25, v=3.2)
movej([0.880088, -2.968317, -0.338059, -0.735735, -2.357687, -2.202118],a=25, v=3.2)
movej([0.877159, -2.974643, -0.325842, -0.738459, -2.356290, -2.198059],a=25, v=3.2)
movej([0.874395, -2.980612, -0.314314, -0.741031, -2.354971, -2.194230],a=25, v=3.2)
movej([0.871711, -2.986409, -0.303120, -0.743527, -2.353691, -2.190511],a=25, v=3.2)
movej([0.869193, -2.991848, -0.292618, -0.745870, -2.352490, -2.187022],a=25, v=3.2)
movej([0.866823, -2.996967, -0.282732, -0.748075, -2.351359, -2.183737],a=25, v=3.2)
movej([0.864557, -3.001862, -0.273278, -0.750184, -2.350277, -2.180596],a=25, v=3.2)
movej([0.862450, -3.006413, -0.264489, -0.752144, -2.349272, -2.177677],a=25, v=3.2)
movej([0.860440, -3.010753, -0.256107, -0.754014, -2.348313, -2.174892],a=25, v=3.2)
movej([0.858564, -3.014803, -0.248285, -0.755759, -2.347418, -2.172293],a=25, v=3.2)
movej([0.856867, -3.018470, -0.241204, -0.757338, -2.346608, -2.169940],a=25, v=3.2)
movej([0.855257, -3.021948, -0.234488, -0.758836, -2.345840, -2.167709],a=25, v=3.2)
movej([0.853813, -3.025067, -0.228463, -0.760180, -2.345151, -2.165707],a=25, v=3.2)
movej([0.852484, -3.027938, -0.222921, -0.761416, -2.344517, -2.163866],a=25, v=3.2)
movej([0.851267, -3.030566, -0.217846, -0.762548, -2.343936, -2.162180],a=25, v=3.2)
movej([0.850225, -3.032816, -0.213500, -0.763517, -2.343439, -2.160736],a=25, v=3.2)
movej([0.849287, -3.034843, -0.209585, -0.764390, -2.342992, -2.159436],a=25, v=3.2)
movej([0.848482, -3.036581, -0.206229, -0.765139, -2.342608, -2.158321],a=25, v=3.2)
movej([0.847841, -3.037965, -0.203556, -0.765735, -2.342302, -2.157433],a=25, v=3.2)
movej([0.847287, -3.039162, -0.201244, -0.766250, -2.342038, -2.156664],a=25, v=3.2)
movej([0.846904, -3.039989, -0.199648, -0.766607, -2.341855, -2.156134],a=25, v=3.2)
movej([0.846646, -3.040547, -0.198571, -0.766847, -2.341732, -2.155776],a=25, v=3.2)
movej([0.846498, -3.040868, -0.197951, -0.766985, -2.341661, -2.155570],a=25, v=3.2)
movej([0.846407, -3.040747, -0.198009, -0.766856, -2.341730, -2.155431],a=25, v=3.2)
movej([0.846364, -3.040643, -0.198110, -0.766780, -2.341782, -2.155351],a=25, v=3.2)
movej([0.846419, -3.040643, -0.198102, -0.766821, -2.341782, -2.155351],a=25, v=3.2)
movej([0.846441, -3.040603, -0.198177, -0.766807, -2.341791, -2.155376],a=25, v=3.2)
movej([0.846506, -3.040462, -0.198451, -0.766746, -2.341822, -2.155467],a=25, v=3.2)
movej([0.846737, -3.039964, -0.199414, -0.766531, -2.341932, -2.155787],a=25, v=3.2)
movej([0.847085, -3.039210, -0.200868, -0.766207, -2.342098, -2.156271],a=25, v=3.2)
movej([0.847548, -3.038210, -0.202799, -0.765776, -2.342319, -2.156912],a=25, v=3.2)
movej([0.848183, -3.036839, -0.205447, -0.765185, -2.342623, -2.157793],a=25, v=3.2)
movej([0.848907, -3.035276, -0.208466, -0.764512, -2.342969, -2.158796],a=25, v=3.2)
movej([0.849791, -3.033365, -0.212157, -0.763688, -2.343391, -2.160024],a=25, v=3.2)
movej([0.850819, -3.031145, -0.216444, -0.762731, -2.343881, -2.161449],a=25, v=3.2)
movej([0.851943, -3.028718, -0.221130, -0.761686, -2.344418, -2.163007],a=25, v=3.2)
movej([0.853242, -3.025911, -0.226552, -0.760476, -2.345039, -2.164809],a=25, v=3.2)
movej([0.854638, -3.022894, -0.232378, -0.759177, -2.345706, -2.166747],a=25, v=3.2)
movej([0.856163, -3.019599, -0.238741, -0.757758, -2.346434, -2.168862],a=25, v=3.2)
movej([0.857868, -3.015918, -0.245850, -0.756171, -2.347247, -2.171225],a=25, v=3.2)
movej([0.859663, -3.012039, -0.253341, -0.754500, -2.348105, -2.173715],a=25, v=3.2)
movej([0.861606, -3.007841, -0.261447, -0.752692, -2.349034, -2.176410],a=25, v=3.2)
movej([0.863693, -3.003333, -0.270153, -0.750749, -2.350030, -2.179304],a=25, v=3.2)
movej([0.865879, -2.998612, -0.279271, -0.748715, -2.351073, -2.182335],a=25, v=3.2)
movej([0.868258, -2.993471, -0.289199, -0.746500, -2.352210, -2.185636],a=25, v=3.2)
movej([0.870720, -2.988153, -0.299469, -0.744209, -2.353386, -2.189051],a=25, v=3.2)
movej([0.873305, -2.982568, -0.310255, -0.741802, -2.354621, -2.192636],a=25, v=3.2)
movej([0.876056, -2.976625, -0.321731, -0.739241, -2.355934, -2.196451],a=25, v=3.2)
movej([0.878914, -2.970452, -0.333654, -0.736582, -2.357299, -2.200416],a=25, v=3.2)
movej([0.881943, -2.963908, -0.346291, -0.733762, -2.358746, -2.204617],a=25, v=3.2)
movej([0.885088, -2.957113, -0.359413, -0.730835, -2.360248, -2.208979],a=25, v=3.2)
movej([0.888322, -2.950127, -0.372904, -0.727825, -2.361792, -2.213464],a=25, v=3.2)
movej([0.891740, -2.942743, -0.387164, -0.724644, -2.363425, -2.218205],a=25, v=3.2)
movej([0.895250, -2.935161, -0.401806, -0.721377, -2.365101, -2.223073],a=25, v=3.2)
movej([0.898942, -2.927185, -0.417211, -0.717940, -2.366864, -2.228194],a=25, v=3.2)
movej([0.902768, -2.918918, -0.433175, -0.714379, -2.368691, -2.233501],a=25, v=3.2)
movej([0.906681, -2.910466, -0.449496, -0.710737, -2.370560, -2.238927],a=25, v=3.2)
movej([0.910755, -2.901667, -0.466490, -0.706946, -2.372505, -2.244577],a=25, v=3.2)
movej([0.914973, -2.892552, -0.484092, -0.703019, -2.374520, -2.250429],a=25, v=3.2)
movej([0.919303, -2.883200, -0.502153, -0.698989, -2.376587, -2.256433],a=25, v=3.2)
movej([0.923786, -2.873515, -0.520856, -0.694816, -2.378728, -2.262651],a=25, v=3.2)
movej([0.928377, -2.863596, -0.540011, -0.690543, -2.380921, -2.269020],a=25, v=3.2)
movej([0.933087, -2.853423, -0.559658, -0.686159, -2.383170, -2.275551],a=25, v=3.2)
movej([0.937977, -2.842857, -0.580061, -0.681607, -2.385506, -2.282334],a=25, v=3.2)
movej([0.942942, -2.832131, -0.600777, -0.676986, -2.387877, -2.289221],a=25, v=3.2)
movej([0.947955, -2.821304, -0.621685, -0.672321, -2.390271, -2.296172],a=25, v=3.2)
movej([0.952942, -2.810531, -0.642491, -0.667679, -2.392652, -2.303089],a=25, v=3.2)
movej([0.957946, -2.799719, -0.663370, -0.663021, -2.395042, -2.310030],a=25, v=3.2)
movej([0.962947, -2.788915, -0.684235, -0.658366, -2.397431, -2.316967],a=25, v=3.2)
movej([0.967929, -2.778152, -0.705021, -0.653728, -2.399810, -2.323877],a=25, v=3.2)
movej([0.972951, -2.767303, -0.725970, -0.649054, -2.402208, -2.330842],a=25, v=3.2)
movej([0.977955, -2.756495, -0.746844, -0.644398, -2.404598, -2.337781],a=25, v=3.2)
movej([0.982954, -2.745695, -0.767701, -0.639745, -2.406985, -2.344716],a=25, v=3.2)
movej([0.987953, -2.734894, -0.788560, -0.635091, -2.409373, -2.351650],a=25, v=3.2)
movej([0.992957, -2.724084, -0.809435, -0.630434, -2.411763, -2.358590],a=25, v=3.2)
movej([0.997981, -2.713232, -0.830393, -0.625757, -2.414162, -2.365558],a=25, v=3.2)
movej([1.002955, -2.702488, -0.851143, -0.621128, -2.416538, -2.372456],a=25, v=3.2)
movej([1.007984, -2.691621, -0.872127, -0.616447, -2.418940, -2.379432],a=25, v=3.2)
movej([1.012971, -2.680848, -0.892931, -0.611805, -2.421322, -2.386348],a=25, v=3.2)
movej([1.017969, -2.670051, -0.913783, -0.607153, -2.423709, -2.393280],a=25, v=3.2)
movej([1.022972, -2.659244, -0.934653, -0.602497, -2.426098, -2.400219],a=25, v=3.2)
movej([1.027969, -2.648450, -0.955500, -0.597846, -2.428484, -2.407149],a=25, v=3.2)
movej([1.032968, -2.637650, -0.976355, -0.593193, -2.430872, -2.414083],a=25, v=3.2)
movej([1.037958, -2.626868, -0.997177, -0.588547, -2.433255, -2.421006],a=25, v=3.2)
movej([1.042980, -2.616019, -1.018129, -0.583873, -2.435653, -2.427971],a=25, v=3.2)
movej([1.048000, -2.605178, -1.039066, -0.579202, -2.438050, -2.434931],a=25, v=3.2)
movej([1.052981, -2.594415, -1.059849, -0.574565, -2.440429, -2.441841],a=25, v=3.2)
movej([1.057962, -2.583654, -1.080631, -0.569928, -2.442808, -2.448749],a=25, v=3.2)
movej([1.062983, -2.572807, -1.101579, -0.565255, -2.445206, -2.455713],a=25, v=3.2)
movej([1.068006, -2.561956, -1.122534, -0.560580, -2.447605, -2.462680],a=25, v=3.2)
movej([1.072981, -2.551211, -1.143286, -0.555950, -2.449980, -2.469579],a=25, v=3.2)
movej([1.077969, -2.540433, -1.164099, -0.551307, -2.452363, -2.476498],a=25, v=3.2)
movej([1.082977, -2.529616, -1.184990, -0.546646, -2.454754, -2.483444],a=25, v=3.2)
movej([1.087930, -2.518915, -1.205655, -0.542035, -2.457120, -2.490314],a=25, v=3.2)
movej([1.092996, -2.507969, -1.226793, -0.537319, -2.459540, -2.497342],a=25, v=3.2)
movej([1.098007, -2.497147, -1.247692, -0.532657, -2.461932, -2.504289],a=25, v=3.2)
movej([1.102976, -2.486412, -1.268424, -0.528032, -2.464305, -2.511181],a=25, v=3.2)
movej([1.107982, -2.475597, -1.289310, -0.523372, -2.466696, -2.518125],a=25, v=3.2)
movej([1.112994, -2.464769, -1.310220, -0.518706, -2.469090, -2.525077],a=25, v=3.2)
movej([1.118016, -2.453919, -1.331175, -0.514031, -2.471489, -2.532043],a=25, v=3.2)
movej([1.123021, -2.443108, -1.352053, -0.509373, -2.473878, -2.538985],a=25, v=3.2)
movej([1.128023, -2.432303, -1.372919, -0.504718, -2.476267, -2.545921],a=25, v=3.2)
movej([1.132985, -2.421582, -1.393623, -0.500099, -2.478637, -2.552805],a=25, v=3.2)
movej([1.138028, -2.410688, -1.414661, -0.495405, -2.481045, -2.559799],a=25, v=3.2)
movej([1.143029, -2.399884, -1.435525, -0.490750, -2.483434, -2.566734],a=25, v=3.2)
movej([1.148038, -2.389065, -1.456419, -0.486089, -2.485826, -2.573681],a=25, v=3.2)
movej([1.153042, -2.378254, -1.477298, -0.481431, -2.488216, -2.580622],a=25, v=3.2)
movej([1.157997, -2.367550, -1.497969, -0.476819, -2.490582, -2.587494],a=25, v=3.2)
movej([1.163010, -2.356720, -1.518884, -0.472153, -2.492976, -2.594448],a=25, v=3.2)
movej([1.168043, -2.345846, -1.539884, -0.467468, -2.495380, -2.601429],a=25, v=3.2)
movej([1.173051, -2.335028, -1.560775, -0.462807, -2.497772, -2.608375],a=25, v=3.2)
movej([1.177906, -2.324541, -1.581027, -0.458288, -2.500090, -2.615107],a=25, v=3.2)
movej([1.182689, -2.314206, -1.600985, -0.453836, -2.502375, -2.621742],a=25, v=3.2)
movej([1.187277, -2.304296, -1.620125, -0.449566, -2.504566, -2.628106],a=25, v=3.2)
movej([1.191821, -2.294479, -1.639082, -0.445337, -2.506735, -2.634408],a=25, v=3.2)
movej([1.196185, -2.285054, -1.657285, -0.441275, -2.508819, -2.640460],a=25, v=3.2)
movej([1.200393, -2.275961, -1.674844, -0.437358, -2.510830, -2.646297],a=25, v=3.2)
movej([1.204513, -2.267061, -1.692032, -0.433523, -2.512797, -2.652011],a=25, v=3.2)
movej([1.208454, -2.258546, -1.708476, -0.429854, -2.514679, -2.657478],a=25, v=3.2)
movej([1.212289, -2.250264, -1.724470, -0.426286, -2.516511, -2.662795],a=25, v=3.2)
movej([1.216016, -2.242212, -1.740021, -0.422816, -2.518291, -2.667965],a=25, v=3.2)
movej([1.219538, -2.234602, -1.754716, -0.419538, -2.519973, -2.672851],a=25, v=3.2)
movej([1.222998, -2.227127, -1.769150, -0.416317, -2.521625, -2.677649],a=25, v=3.2)
movej([1.226275, -2.220048, -1.782822, -0.413267, -2.523190, -2.682195],a=25, v=3.2)
movej([1.229452, -2.213186, -1.796075, -0.410310, -2.524707, -2.686600],a=25, v=3.2)
movej([1.232503, -2.206594, -1.808803, -0.407471, -2.526164, -2.690832],a=25, v=3.2)
movej([1.235383, -2.200374, -1.820817, -0.404790, -2.527539, -2.694826],a=25, v=3.2)
movej([1.238151, -2.194393, -1.832367, -0.402213, -2.528862, -2.698666],a=25, v=3.2)
movej([1.240806, -2.188657, -1.843444, -0.399742, -2.530129, -2.702348],a=25, v=3.2)
movej([1.243285, -2.183303, -1.853785, -0.397435, -2.531313, -2.705786],a=25, v=3.2)
movej([1.245677, -2.178136, -1.863763, -0.395209, -2.532456, -2.709103],a=25, v=3.2)
movej([1.247910, -2.173311, -1.873079, -0.393131, -2.533522, -2.712201],a=25, v=3.2)
movej([1.250013, -2.168768, -1.881854, -0.391173, -2.534527, -2.715118],a=25, v=3.2)
movej([1.251995, -2.164484, -1.890127, -0.389328, -2.535474, -2.717868],a=25, v=3.2)
movej([1.253827, -2.160527, -1.897768, -0.387622, -2.536349, -2.720408],a=25, v=3.2)
movej([1.255520, -2.156870, -1.904830, -0.386047, -2.537156, -2.722756],a=25, v=3.2)
movej([1.257105, -2.153447, -1.911442, -0.384572, -2.537914, -2.724954],a=25, v=3.2)
movej([1.258521, -2.150389, -1.917348, -0.383254, -2.538590, -2.726918],a=25, v=3.2)
movej([1.259838, -2.147543, -1.922844, -0.382028, -2.539219, -2.728745],a=25, v=3.2)
movej([1.261024, -2.144980, -1.927792, -0.380924, -2.539785, -2.730390],a=25, v=3.2)
movej([1.262044, -2.142777, -1.932047, -0.379975, -2.540273, -2.731804],a=25, v=3.2)
movej([1.262971, -2.140774, -1.935917, -0.379111, -2.540715, -2.733091],a=25, v=3.2)
movej([1.263726, -2.139144, -1.939064, -0.378409, -2.541075, -2.734137],a=25, v=3.2)
movej([1.264370, -2.137752, -1.941752, -0.377809, -2.541383, -2.735031],a=25, v=3.2)
movej([1.264896, -2.136615, -1.943947, -0.377320, -2.541634, -2.735761],a=25, v=3.2)
movej([1.265250, -2.135852, -1.945422, -0.376991, -2.541803, -2.736251],a=25, v=3.2)
movej([1.265509, -2.135291, -1.946503, -0.376750, -2.541927, -2.736611],a=25, v=3.2)
movej([1.265616, -2.135060, -1.946950, -0.376650, -2.541979, -2.736759],a=25, v=3.2)
movej([1.265692, -2.135126, -1.946931, -0.376751, -2.541876, -2.736710],a=25, v=3.2)
movej([1.265789, -2.135282, -1.946804, -0.376926, -2.541710, -2.736603],a=25, v=3.2)
movej([1.265799, -2.135278, -1.946804, -0.376926, -2.541710, -2.736603],a=25, v=3.2)
movej([1.265780, -2.135322, -1.946715, -0.376946, -2.541700, -2.736573],a=25, v=3.2)
movej([1.265694, -2.135509, -1.946354, -0.377027, -2.541659, -2.736453],a=25, v=3.2)
movej([1.265436, -2.136063, -1.945283, -0.377266, -2.541537, -2.736097],a=25, v=3.2)
movej([1.265084, -2.136825, -1.943812, -0.377594, -2.541368, -2.735609],a=25, v=3.2)
movej([1.264577, -2.137919, -1.941700, -0.378065, -2.541126, -2.734906],a=25, v=3.2)
movej([1.263931, -2.139315, -1.939003, -0.378666, -2.540819, -2.734011],a=25, v=3.2)
movej([1.263189, -2.140918, -1.935907, -0.379357, -2.540464, -2.732982],a=25, v=3.2)
movej([1.262269, -2.142904, -1.932072, -0.380212, -2.540025, -2.731708],a=25, v=3.2)
movej([1.261238, -2.145131, -1.927771, -0.381171, -2.539533, -2.730279],a=25, v=3.2)
movej([1.260083, -2.147626, -1.922953, -0.382246, -2.538982, -2.728679],a=25, v=3.2)
movej([1.258769, -2.150463, -1.917475, -0.383468, -2.538356, -2.726858],a=25, v=3.2)
movej([1.257360, -2.153509, -1.911594, -0.384779, -2.537683, -2.724905],a=25, v=3.2)
movej([1.255789, -2.156900, -1.905044, -0.386240, -2.536934, -2.722729],a=25, v=3.2)
movej([1.254081, -2.160589, -1.897918, -0.387830, -2.536119, -2.720361],a=25, v=3.2)
movej([1.252261, -2.164519, -1.890331, -0.389522, -2.535251, -2.717840],a=25, v=3.2)
movej([1.250281, -2.168794, -1.882074, -0.391364, -2.534306, -2.715097],a=25, v=3.2)
movej([1.248191, -2.173310, -1.873355, -0.393308, -2.533309, -2.712200],a=25, v=3.2)
movej([1.245980, -2.178086, -1.864131, -0.395365, -2.532253, -2.709135],a=25, v=3.2)
movej([1.243587, -2.183253, -1.854152, -0.397591, -2.531112, -2.705820],a=25, v=3.2)
movej([1.241108, -2.188606, -1.843815, -0.399897, -2.529930, -2.702386],a=25, v=3.2)
movej([1.238490, -2.194261, -1.832892, -0.402333, -2.528680, -2.698757],a=25, v=3.2)
movej([1.235720, -2.200242, -1.821341, -0.404909, -2.527359, -2.694919],a=25, v=3.2)
movej([1.232854, -2.206434, -1.809385, -0.407576, -2.525992, -2.690947],a=25, v=3.2)
movej([1.229794, -2.213043, -1.796623, -0.410422, -2.524531, -2.686707],a=25, v=3.2)
movej([1.226635, -2.219865, -1.783448, -0.413361, -2.523024, -2.682330],a=25, v=3.2)
movej([1.223341, -2.226979, -1.769710, -0.416425, -2.521453, -2.677765],a=25, v=3.2)
movej([1.219915, -2.234380, -1.755417, -0.419613, -2.519818, -2.673017],a=25, v=3.2)
movej([1.216405, -2.241958, -1.740781, -0.422877, -2.518143, -2.668154],a=25, v=3.2)
movej([1.212667, -2.250031, -1.725191, -0.426354, -2.516360, -2.662975],a=25, v=3.2)
movej([1.208819, -2.258343, -1.709140, -0.429934, -2.514524, -2.657642],a=25, v=3.2)
movej([1.204900, -2.266806, -1.692797, -0.433579, -2.512655, -2.652213],a=25, v=3.2)
movej([1.200814, -2.275630, -1.675756, -0.437380, -2.510706, -2.646550],a=25, v=3.2)
movej([1.196598, -2.284739, -1.658166, -0.441304, -2.508693, -2.640706],a=25, v=3.2)
movej([1.192235, -2.294160, -1.639973, -0.445361, -2.506612, -2.634662],a=25, v=3.2)
movej([1.187724, -2.303903, -1.621156, -0.449558, -2.504460, -2.628410],a=25, v=3.2)
movej([1.183130, -2.313825, -1.601995, -0.453831, -2.502268, -2.622044],a=25, v=3.2)
movej([1.178363, -2.324121, -1.582111, -0.458267, -2.499994, -2.615438],a=25, v=3.2)
movej([1.173467, -2.334693, -1.561694, -0.462820, -2.497658, -2.608655],a=25, v=3.2)
movej([1.168470, -2.345487, -1.540850, -0.467469, -2.495274, -2.601730],a=25, v=3.2)
movej([1.163471, -2.356285, -1.519998, -0.472120, -2.492889, -2.594802],a=25, v=3.2)
movej([1.158465, -2.367094, -1.499123, -0.476776, -2.490501, -2.587867],a=25, v=3.2)
movej([1.153460, -2.377903, -1.478250, -0.481431, -2.488113, -2.580932],a=25, v=3.2)
movej([1.148490, -2.388640, -1.457516, -0.486056, -2.485741, -2.574044],a=25, v=3.2)
movej([1.143466, -2.399490, -1.436562, -0.490729, -2.483344, -2.567082],a=25, v=3.2)
movej([1.138442, -2.410339, -1.415609, -0.495402, -2.480947, -2.560120],a=25, v=3.2)
movej([1.133399, -2.421231, -1.394574, -0.500094, -2.478541, -2.553132],a=25, v=3.2)
movej([1.128472, -2.431872, -1.374027, -0.504677, -2.476191, -2.546305],a=25, v=3.2)
movej([1.123462, -2.442693, -1.353129, -0.509338, -2.473801, -2.539363],a=25, v=3.2)
movej([1.118439, -2.453542, -1.332178, -0.514011, -2.471404, -2.532401],a=25, v=3.2)
movej([1.113443, -2.464331, -1.311343, -0.518658, -2.469021, -2.525479],a=25, v=3.2)
movej([1.108445, -2.475125, -1.290496, -0.523307, -2.466636, -2.518553],a=25, v=3.2)
movej([1.103446, -2.485923, -1.269644, -0.527958, -2.464251, -2.511626],a=25, v=3.2)
movej([1.098423, -2.496770, -1.248696, -0.532630, -2.461854, -2.504666],a=25, v=3.2)
movej([1.093436, -2.507541, -1.227897, -0.537269, -2.459475, -2.497755],a=25, v=3.2)
movej([1.088415, -2.518385, -1.206954, -0.541940, -2.457080, -2.490797],a=25, v=3.2)
movej([1.083394, -2.529230, -1.186010, -0.546612, -2.454684, -2.483839],a=25, v=3.2)
movej([1.078445, -2.539919, -1.165369, -0.551215, -2.452322, -2.476982],a=25, v=3.2)
movej([1.073435, -2.550739, -1.144474, -0.555876, -2.449933, -2.470040],a=25, v=3.2)
movej([1.068414, -2.561584, -1.123529, -0.560547, -2.447537, -2.463081],a=25, v=3.2)
movej([1.063403, -2.572405, -1.102633, -0.565207, -2.445146, -2.456138],a=25, v=3.2)
movej([1.058395, -2.583219, -1.081748, -0.569866, -2.442757, -2.449200],a=25, v=3.2)
movej([1.053421, -2.593964, -1.060999, -0.574493, -2.440384, -2.442306],a=25, v=3.2)
movej([1.048394, -2.604822, -1.040030, -0.579170, -2.437986, -2.435339],a=25, v=3.2)
movej([1.043372, -2.615667, -1.019086, -0.583842, -2.435590, -2.428381],a=25, v=3.2)
movej([1.038351, -2.626512, -0.998143, -0.588512, -2.433194, -2.421423],a=25, v=3.2)
movej([1.033385, -2.637236, -0.977432, -0.593132, -2.430824, -2.414542],a=25, v=3.2)
movej([1.028389, -2.648029, -0.956590, -0.597780, -2.428441, -2.407617],a=25, v=3.2)
movej([1.023387, -2.658831, -0.935730, -0.602433, -2.426055, -2.400687],a=25, v=3.2)
movej([1.018344, -2.669721, -0.914700, -0.607124, -2.423649, -2.393700],a=25, v=3.2)
movej([1.013356, -2.680495, -0.893891, -0.611765, -2.421269, -2.386787],a=25, v=3.2)
movej([1.008378, -2.691245, -0.873132, -0.616395, -2.418894, -2.379890],a=25, v=3.2)
movej([1.003350, -2.702104, -0.852162, -0.621072, -2.416495, -2.372923],a=25, v=3.2)
movej([0.998361, -2.712881, -0.831350, -0.625714, -2.414114, -2.366008],a=25, v=3.2)
movej([0.993344, -2.723715, -0.810426, -0.630380, -2.411721, -2.359057],a=25, v=3.2)
movej([0.988334, -2.734535, -0.789532, -0.635041, -2.409331, -2.352115],a=25, v=3.2)
movej([0.983350, -2.745300, -0.768744, -0.639677, -2.406953, -2.345208],a=25, v=3.2)
movej([0.978348, -2.756104, -0.747879, -0.644331, -2.404567, -2.338276],a=25, v=3.2)
movej([0.973355, -2.766887, -0.727055, -0.648975, -2.402185, -2.331358],a=25, v=3.2)
movej([0.968305, -2.777793, -0.705992, -0.653673, -2.399775, -2.324360],a=25, v=3.2)
movej([0.963316, -2.788568, -0.685184, -0.658314, -2.397394, -2.317447],a=25, v=3.2)
movej([0.958338, -2.799320, -0.664421, -0.662945, -2.395020, -2.310548],a=25, v=3.2)
movej([0.953310, -2.810180, -0.643448, -0.667622, -2.392621, -2.303580],a=25, v=3.2)
movej([0.948316, -2.820964, -0.622623, -0.672268, -2.390239, -2.296662],a=25, v=3.2)
movej([0.943300, -2.831798, -0.601700, -0.676934, -2.387845, -2.289710],a=25, v=3.2)
movej([0.938316, -2.842563, -0.580912, -0.681571, -2.385467, -2.282804],a=25, v=3.2)
movej([0.933447, -2.853078, -0.560604, -0.686100, -2.383144, -2.276057],a=25, v=3.2)
movej([0.928718, -2.863291, -0.540882, -0.690499, -2.380888, -2.269505],a=25, v=3.2)
movej([0.924130, -2.873200, -0.521747, -0.694766, -2.378699, -2.263147],a=25, v=3.2)
movej([0.919629, -2.882921, -0.502972, -0.698954, -2.376551, -2.256909],a=25, v=3.2)
movej([0.915285, -2.892303, -0.484854, -0.702995, -2.374479, -2.250890],a=25, v=3.2)
movej([0.911079, -2.901386, -0.467313, -0.706907, -2.372473, -2.245062],a=25, v=3.2)
movej([0.907010, -2.910174, -0.450343, -0.710692, -2.370532, -2.239424],a=25, v=3.2)
movej([0.903074, -2.918677, -0.433923, -0.714355, -2.368653, -2.233968],a=25, v=3.2)
movej([0.899260, -2.926914, -0.418015, -0.717902, -2.366834, -2.228684],a=25, v=3.2)
movej([0.895546, -2.934935, -0.402525, -0.721358, -2.365062, -2.223537],a=25, v=3.2)
movej([0.892013, -2.942564, -0.387792, -0.724644, -2.363376, -2.218642],a=25, v=3.2)
movej([0.888604, -2.949927, -0.373574, -0.727814, -2.361750, -2.213918],a=25, v=3.2)
movej([0.885349, -2.956959, -0.359994, -0.730844, -2.360197, -2.209407],a=25, v=3.2)
movej([0.882194, -2.963771, -0.346837, -0.733778, -2.358692, -2.205036],a=25, v=3.2)
movej([0.879151, -2.970342, -0.334147, -0.736609, -2.357240, -2.200819],a=25, v=3.2)
movej([0.876296, -2.976511, -0.322235, -0.739265, -2.355877, -2.196862],a=25, v=3.2)
movej([0.873548, -2.982445, -0.310776, -0.741821, -2.354567, -2.193055],a=25, v=3.2)
movej([0.870906, -2.988150, -0.299759, -0.744278, -2.353306, -2.189394],a=25, v=3.2)
movej([0.868448, -2.993459, -0.289505, -0.746565, -2.352133, -2.185988],a=25, v=3.2)
movej([0.866069, -2.998597, -0.279583, -0.748778, -2.350998, -2.182691],a=25, v=3.2)
movej([0.863889, -3.003306, -0.270491, -0.750806, -2.349959, -2.179670],a=25, v=3.2)
movej([0.861791, -3.007836, -0.261741, -0.752758, -2.348958, -2.176763],a=25, v=3.2)
movej([0.859840, -3.012049, -0.253604, -0.754572, -2.348027, -2.174060],a=25, v=3.2)
movej([0.858031, -3.015957, -0.246057, -0.756256, -2.347164, -2.171553],a=25, v=3.2)
movej([0.856328, -3.019635, -0.238955, -0.757840, -2.346352, -2.169193],a=25, v=3.2)
movej([0.854774, -3.022991, -0.232474, -0.759286, -2.345610, -2.167040],a=25, v=3.2)
movej([0.853381, -3.026001, -0.226661, -0.760582, -2.344945, -2.165109],a=25, v=3.2)
movej([0.852077, -3.028819, -0.221220, -0.761795, -2.344322, -2.163301],a=25, v=3.2)
movej([0.850935, -3.031283, -0.216461, -0.762857, -2.343778, -2.161720],a=25, v=3.2)
movej([0.849911, -3.033494, -0.212189, -0.763810, -2.343290, -2.160301],a=25, v=3.2)
movej([0.849011, -3.035438, -0.208436, -0.764647, -2.342860, -2.159053],a=25, v=3.2)
movej([0.848280, -3.037016, -0.205388, -0.765326, -2.342511, -2.158042],a=25, v=3.2)
movej([0.847639, -3.038402, -0.202712, -0.765923, -2.342205, -2.157153],a=25, v=3.2)
movej([0.847156, -3.039445, -0.200699, -0.766372, -2.341975, -2.156483],a=25, v=3.2)
movej([0.846812, -3.040187, -0.199266, -0.766692, -2.341811, -2.156007],a=25, v=3.2)
movej([0.846572, -3.040706, -0.198263, -0.766915, -2.341696, -2.155674],a=25, v=3.2)
movej([0.846500, -3.040862, -0.197962, -0.766983, -2.341662, -2.155574],a=25, v=3.2)
movej([0.846349, -3.040666, -0.198035, -0.766749, -2.341830, -2.155335],a=25, v=3.2)
movej([0.846359, -3.040643, -0.198112, -0.766777, -2.341830, -2.155335],a=25, v=3.2)
movej([0.846400, -3.040643, -0.198115, -0.766808, -2.341830, -2.155343],a=25, v=3.2)
movej([0.846469, -3.040523, -0.198344, -0.766756, -2.341857, -2.155428],a=25, v=3.2)
movej([0.847885, -3.037464, -0.204250, -0.765439, -2.342533, -2.157392],a=25, v=3.2)
movej([0.851686, -3.029252, -0.220110, -0.761900, -2.344348, -2.162664],a=25, v=3.2)
movej([0.857368, -3.016977, -0.243813, -0.756612, -2.347061, -2.170544],a=25, v=3.2)
movej([0.866112, -2.998087, -0.280294, -0.748473, -2.351236, -2.182673],a=25, v=3.2)
movej([0.876769, -2.975067, -0.324749, -0.738555, -2.356324, -2.197453],a=25, v=3.2)
movej([0.889540, -2.947479, -0.378026, -0.726670, -2.362421, -2.215165],a=25, v=3.2)
movej([0.904625, -2.914890, -0.440962, -0.712629, -2.369624, -2.236087],a=25, v=3.2)
movej([0.920034, -2.881603, -0.505245, -0.698288, -2.376981, -2.257459],a=25, v=3.2)
movej([0.935355, -2.848505, -0.569162, -0.684028, -2.384296, -2.278708],a=25, v=3.2)
movej([0.950593, -2.815590, -0.632728, -0.669847, -2.391571, -2.299841],a=25, v=3.2)
movej([0.965895, -2.782532, -0.696569, -0.655604, -2.398877, -2.321065],a=25, v=3.2)
movej([0.981097, -2.749693, -0.759987, -0.641456, -2.406135, -2.342149],a=25, v=3.2)
movej([0.996390, -2.716656, -0.823786, -0.627222, -2.413437, -2.363359],a=25, v=3.2)
movej([1.011729, -2.683520, -0.887778, -0.612946, -2.420761, -2.384633],a=25, v=3.2)
movej([1.027021, -2.650485, -0.951573, -0.598714, -2.428062, -2.405842],a=25, v=3.2)
movej([1.042221, -2.617649, -1.014987, -0.584567, -2.435319, -2.426924],a=25, v=3.2)
movej([1.057528, -2.584584, -1.078842, -0.570321, -2.442627, -2.448153],a=25, v=3.2)
movej([1.072902, -2.551371, -1.142981, -0.556011, -2.449967, -2.469476],a=25, v=3.2)
movej([1.088182, -2.518362, -1.206727, -0.541790, -2.457263, -2.490669],a=25, v=3.2)
movej([1.103473, -2.485330, -1.270517, -0.527559, -2.464563, -2.511876],a=25, v=3.2)
movej([1.118791, -2.452238, -1.334424, -0.513301, -2.471877, -2.533123],a=25, v=3.2)
movej([1.134049, -2.419279, -1.398074, -0.499101, -2.479162, -2.554283],a=25, v=3.2)
movej([1.149367, -2.386187, -1.461979, -0.484844, -2.486475, -2.575529],a=25, v=3.2)
movej([1.164702, -2.353061, -1.525953, -0.470572, -2.493797, -2.596797],a=25, v=3.2)
movej([1.179956, -2.320107, -1.589592, -0.456374, -2.501080, -2.617954],a=25, v=3.2)
movej([1.195159, -2.287265, -1.653016, -0.442225, -2.508339, -2.639040],a=25, v=3.2)
movej([1.210468, -2.254194, -1.716883, -0.427976, -2.515648, -2.660272],a=25, v=3.2)
movej([1.224906, -2.223004, -1.777114, -0.414539, -2.522541, -2.680297],a=25, v=3.2)
movej([1.237901, -2.194933, -1.831326, -0.402445, -2.528746, -2.698320],a=25, v=3.2)
movej([1.248167, -2.172754, -1.874157, -0.392890, -2.533648, -2.712559],a=25, v=3.2)
movej([1.255750, -2.156374, -1.905787, -0.385833, -2.537267, -2.723074],a=25, v=3.2)
movej([1.261622, -2.143689, -1.930287, -0.380368, -2.540071, -2.731219],a=25, v=3.2)
movej([1.264502, -2.137467, -1.942301, -0.377687, -2.541446, -2.735214],a=25, v=3.2)
movej([1.265675, -2.134854, -1.947459, -0.376503, -2.542009, -2.737118],a=25, v=3.2)
movej([1.265844, -2.134476, -1.948475, -0.376115, -2.542108, -2.738166],a=25, v=3.2)
movej([1.265627, -2.135855, -1.945565, -0.376260, -2.542132, -2.738095],a=25, v=3.2)
movej([1.265475, -2.136550, -1.943930, -0.376417, -2.542129, -2.737890],a=25, v=3.2)
movej([1.265326, -2.136300, -1.943331, -0.376432, -2.542102, -2.737809],a=25, v=3.2)
movej([1.265311, -2.136257, -1.943374, -0.376453, -2.542050, -2.737539],a=25, v=3.2)
movej([1.265325, -2.136302, -1.943585, -0.376540, -2.542002, -2.737175],a=25, v=3.2)
movej([1.265448, -2.136288, -1.943911, -0.376574, -2.542002, -2.736940],a=25, v=3.2)
movej([1.265420, -2.136156, -1.944374, -0.376578, -2.541987, -2.736827],a=25, v=3.2)
movej([1.265405, -2.135786, -1.944996, -0.376578, -2.541924, -2.736737],a=25, v=3.2)
movej([1.265464, -2.135811, -1.945750, -0.376633, -2.541873, -2.736724],a=25, v=3.2)
movej([1.265509, -2.135848, -1.946334, -0.376707, -2.541873, -2.736724],a=25, v=3.2)
movej([1.265509, -2.135638, -1.946533, -0.376694, -2.541873, -2.736724],a=25, v=3.2)
movej([1.265509, -2.135309, -1.946734, -0.376692, -2.541873, -2.736718],a=25, v=3.2)
movej([1.265509, -2.135194, -1.946886, -0.376692, -2.541873, -2.736697],a=25, v=3.2)
movej([1.265550, -2.135170, -1.947017, -0.376692, -2.541873, -2.736691],a=25, v=3.2)
movej([1.265566, -2.135042, -1.947136, -0.376692, -2.541873, -2.736675],a=25, v=3.2)
movej([1.265566, -2.134878, -1.947201, -0.376692, -2.541873, -2.736675],a=25, v=3.2)
movej([1.265576, -2.134823, -1.947253, -0.376701, -2.541873, -2.736675],a=25, v=3.2)
movej([1.265594, -2.134809, -1.947270, -0.376708, -2.541873, -2.736659],a=25, v=3.2)
movej([1.265594, -2.134785, -1.947270, -0.376708, -2.541873, -2.736659],a=25, v=3.2)
movej([1.265594, -2.134750, -1.947270, -0.376714, -2.541873, -2.736653],a=25, v=3.2)
movej([1.265605, -2.134744, -1.947270, -0.376734, -2.541873, -2.736643],a=25, v=3.2)
movej([1.265633, -2.134744, -1.947257, -0.376752, -2.541873, -2.736643],a=25, v=3.2)
movej([1.265641, -2.134746, -1.947238, -0.376760, -2.541873, -2.736643],a=25, v=3.2)
movej([1.265641, -2.134753, -1.947222, -0.376773, -2.541873, -2.736643],a=25, v=3.2)
movej([1.265641, -2.134783, -1.947184, -0.376773, -2.541873, -2.736643],a=25, v=3.2)
movej([1.265641, -2.134810, -1.947147, -0.376773, -2.541873, -2.736643],a=25, v=3.2)
movej([1.265641, -2.134810, -1.947132, -0.376773, -2.541873, -2.736643],a=25, v=3.2)
movej([1.265641, -2.134839, -1.947087, -0.376773, -2.541873, -2.736643],a=25, v=3.2)
movej([1.265641, -2.134900, -1.947044, -0.376773, -2.541863, -2.736643],a=25, v=3.2)
movej([1.265641, -2.134949, -1.947031, -0.376784, -2.541856, -2.736632],a=25, v=3.2)
movej([1.265641, -2.134970, -1.947013, -0.376789, -2.541856, -2.736627],a=25, v=3.2)
movej([1.265641, -2.134972, -1.946997, -0.376789, -2.541856, -2.736627],a=25, v=3.2)
movej([1.265641, -2.135064, -1.946978, -0.376789, -2.541848, -2.736627],a=25, v=3.2)
movej([1.265641, -2.135083, -1.946969, -0.376789, -2.541840, -2.736627],a=25, v=3.2)
movej([1.265641, -2.135083, -1.946969, -0.376789, -2.541840, -2.736627],a=25, v=3.2)
movej([1.265641, -2.135083, -1.946969, -0.376789, -2.541840, -2.736627],a=25, v=3.2)
movej([1.265641, -2.135083, -1.946969, -0.376789, -2.541840, -2.736627],a=25, v=3.2)
movej([1.265641, -2.135083, -1.946969, -0.376789, -2.541840, -2.736627],a=25, v=3.2)
movej([1.265641, -2.135083, -1.946969, -0.376773, -2.541840, -2.736627],a=25, v=3.2)
movej([1.265641, -2.135083, -1.946969, -0.376773, -2.541840, -2.736627],a=25, v=3.2)
movej([1.265641, -2.135083, -1.946969, -0.376773, -2.541840, -2.736627],a=25, v=3.2)
movej([1.265641, -2.135083, -1.946969, -0.376773, -2.541840, -2.736627],a=25, v=3.2)
movej([1.265641, -2.135083, -1.946969, -0.376773, -2.541840, -2.736627],a=25, v=3.2)
movej([1.265641, -2.135083, -1.946969, -0.376773, -2.541840, -2.736627],a=25, v=3.2)
movej([1.265641, -2.135083, -1.946969, -0.376773, -2.541840, -2.736634],a=25, v=3.2)
movej([1.265641, -2.135083, -1.946969, -0.376773, -2.541840, -2.736633],a=25, v=3.2)
movej([1.265641, -2.135083, -1.946969, -0.376773, -2.541840, -2.736627],a=25, v=3.2)
movej([1.265641, -2.135083, -1.946969, -0.376773, -2.541840, -2.736627],a=25, v=3.2)
movej([1.265641, -2.135083, -1.946969, -0.376773, -2.541832, -2.736627],a=25, v=3.2)
movej([1.265641, -2.135083, -1.946969, -0.376788, -2.541824, -2.736627],a=25, v=3.2)
movej([1.265641, -2.135083, -1.946969, -0.376776, -2.541824, -2.736627],a=25, v=3.2)
movej([1.265641, -2.135083, -1.946969, -0.376778, -2.541824, -2.736627],a=25, v=3.2)
movej([1.265641, -2.135083, -1.946969, -0.376789, -2.541824, -2.736627],a=25, v=3.2)
movej([1.265641, -2.135077, -1.946969, -0.376789, -2.541824, -2.736627],a=25, v=3.2)
movej([1.265641, -2.135074, -1.946970, -0.376789, -2.541824, -2.736627],a=25, v=3.2)
movej([1.265641, -2.135074, -1.946978, -0.376789, -2.541824, -2.736627],a=25, v=3.2)
movej([1.265641, -2.135074, -1.946978, -0.376789, -2.541824, -2.736627],a=25, v=3.2)
movej([1.265641, -2.135074, -1.946978, -0.376789, -2.541824, -2.736627],a=25, v=3.2)
movej([1.265641, -2.135074, -1.946978, -0.376789, -2.541824, -2.736627],a=25, v=3.2)
movej([1.265641, -2.135074, -1.946978, -0.376789, -2.541824, -2.736627],a=25, v=3.2)
movej([1.265641, -2.135074, -1.946978, -0.376789, -2.541824, -2.736627],a=25, v=3.2)
movej([1.265641, -2.135068, -1.946983, -0.376789, -2.541824, -2.736627],a=25, v=3.2)
movej([1.265641, -2.135064, -1.946987, -0.376789, -2.541824, -2.736627],a=25, v=3.2)
movej([1.265641, -2.135064, -1.946987, -0.376789, -2.541824, -2.736627],a=25, v=3.2)
movej([1.265641, -2.135064, -1.946987, -0.376789, -2.541824, -2.736636],a=25, v=3.2)
movej([1.265641, -2.135064, -1.946987, -0.376789, -2.541824, -2.736627],a=25, v=3.2)
movej([1.265641, -2.135064, -1.946987, -0.376789, -2.541824, -2.736627],a=25, v=3.2)
movej([1.265641, -2.135064, -1.946987, -0.376789, -2.541824, -2.736639],a=25, v=3.2)
movej([1.265641, -2.135064, -1.946987, -0.376789, -2.541824, -2.736627],a=25, v=3.2)
movej([1.265641, -2.135059, -1.946993, -0.376789, -2.541824, -2.736627],a=25, v=3.2)
movej([1.265641, -2.135055, -1.946997, -0.376789, -2.541825, -2.736627],a=25, v=3.2)
movej([1.265641, -2.135055, -1.946997, -0.376789, -2.541839, -2.736627],a=25, v=3.2)
movej([1.265641, -2.135051, -1.946997, -0.376789, -2.541840, -2.736627],a=25, v=3.2)
movej([1.265641, -2.135045, -1.946997, -0.376789, -2.541840, -2.736627],a=25, v=3.2)
movej([1.265641, -2.135045, -1.946997, -0.376789, -2.541840, -2.736627],a=25, v=3.2)
movej([1.265641, -2.135045, -1.946997, -0.376789, -2.541840, -2.736627],a=25, v=3.2)
movej([1.265641, -2.135045, -1.946997, -0.376789, -2.541840, -2.736627],a=25, v=3.2)
movej([1.265641, -2.135045, -1.946997, -0.376789, -2.541840, -2.736627],a=25, v=3.2)
movej([1.265641, -2.135045, -1.947006, -0.376789, -2.541839, -2.736627],a=25, v=3.2)
movej([1.265641, -2.135045, -1.947006, -0.376789, -2.541826, -2.736627],a=25, v=3.2)
movej([1.265641, -2.135045, -1.947006, -0.376789, -2.541824, -2.736627],a=25, v=3.2)
movej([1.265641, -2.135045, -1.947006, -0.376789, -2.541824, -2.736627],a=25, v=3.2)
movej([1.265641, -2.135045, -1.947006, -0.376789, -2.541824, -2.736627],a=25, v=3.2)
movej([1.265641, -2.135043, -1.947006, -0.376789, -2.541840, -2.736627],a=25, v=3.2)
movej([1.265641, -2.135036, -1.947006, -0.376789, -2.541840, -2.736627],a=25, v=3.2)
movej([1.265641, -2.135030, -1.947006, -0.376789, -2.541840, -2.736627],a=25, v=3.2)
movej([1.265641, -2.135026, -1.947006, -0.376789, -2.541840, -2.736627],a=25, v=3.2)
movej([1.265641, -2.135026, -1.947006, -0.376789, -2.541840, -2.736627],a=25, v=3.2)
movej([1.265641, -2.135026, -1.947006, -0.376789, -2.541840, -2.736637],a=25, v=3.2)
movej([1.265641, -2.135026, -1.947006, -0.376789, -2.541840, -2.736627],a=25, v=3.2)
movej([1.264430, -2.137645, -1.941949, -0.377917, -2.541261, -2.734947],a=25, v=3.2)
movej([1.261342, -2.144319, -1.929064, -0.380792, -2.539787, -2.730666],a=25, v=3.2)
movej([1.256040, -2.155775, -1.906943, -0.385727, -2.537255, -2.723317],a=25, v=3.2)
movej([1.247646, -2.173915, -1.871916, -0.393541, -2.533246, -2.711680],a=25, v=3.2)
movej([1.237665, -2.195487, -1.830266, -0.402833, -2.528479, -2.697844],a=25, v=3.2)
movej([1.224806, -2.223277, -1.776606, -0.414803, -2.522338, -2.680017],a=25, v=3.2)
movej([1.210141, -2.254970, -1.715410, -0.428456, -2.515334, -2.659688],a=25, v=3.2)
movej([1.194867, -2.287980, -1.651674, -0.442674, -2.508039, -2.638514],a=25, v=3.2)
movej([1.179533, -2.321120, -1.587684, -0.456950, -2.500715, -2.617255],a=25, v=3.2)
movej([1.164337, -2.353961, -1.524275, -0.471096, -2.493458, -2.596191],a=25, v=3.2)
movej([1.148996, -2.387115, -1.460257, -0.485378, -2.486132, -2.574923],a=25, v=3.2)
movej([1.133766, -2.420030, -1.396704, -0.499556, -2.478858, -2.553809],a=25, v=3.2)
movej([1.118421, -2.453193, -1.332670, -0.513841, -2.471529, -2.532537],a=25, v=3.2)
movej([1.103079, -2.486351, -1.268646, -0.528124, -2.464202, -2.511268],a=25, v=3.2)
movej([1.087710, -2.519566, -1.204512, -0.542432, -2.456862, -2.489961],a=25, v=3.2)
movej([1.072627, -2.552164, -1.141570, -0.556473, -2.449658, -2.469051],a=25, v=3.2)
movej([1.057371, -2.585134, -1.077910, -0.570675, -2.442372, -2.447903],a=25, v=3.2)
movej([1.042071, -2.618199, -1.014066, -0.584918, -2.435065, -2.426693],a=25, v=3.2)
movej([1.026704, -2.651409, -0.949943, -0.599224, -2.427726, -2.405391],a=25, v=3.2)
movej([1.011451, -2.684374, -0.886291, -0.613424, -2.420441, -2.384245],a=25, v=3.2)
movej([0.996152, -2.717437, -0.822451, -0.627665, -2.413135, -2.363036],a=25, v=3.2)
movej([0.980901, -2.750397, -0.758808, -0.641863, -2.405851, -2.341894],a=25, v=3.2)
movej([0.965580, -2.783509, -0.694875, -0.656127, -2.398534, -2.320654],a=25, v=3.2)
movej([0.950250, -2.816641, -0.630901, -0.670398, -2.391212, -2.299401],a=25, v=3.2)
movej([0.934982, -2.849637, -0.567190, -0.684612, -2.383920, -2.278236],a=25, v=3.2)
movej([0.919549, -2.882991, -0.502788, -0.698979, -2.376550, -2.256841],a=25, v=3.2)
movej([0.904443, -2.915636, -0.439755, -0.713042, -2.369335, -2.235900],a=25, v=3.2)
movej([0.889751, -2.947390, -0.378445, -0.726719, -2.362318, -2.215533],a=25, v=3.2)
movej([0.876220, -2.976631, -0.321984, -0.739314, -2.355856, -2.196776],a=25, v=3.2)
movej([0.865806, -2.999138, -0.278525, -0.749009, -2.350882, -2.182338],a=25, v=3.2)
movej([0.857552, -3.016976, -0.244082, -0.756694, -2.346940, -2.170895],a=25, v=3.2)
movej([0.851312, -3.030462, -0.218043, -0.762502, -2.343960, -2.162245],a=25, v=3.2)
movej([0.848086, -3.037433, -0.204582, -0.765505, -2.342420, -2.157773],a=25, v=3.2)
movej([0.846476, -3.040936, -0.197722, -0.767036, -2.341628, -2.155412],a=25, v=3.2)
movej([0.846284, -3.041539, -0.195761, -0.767476, -2.341344, -2.154082],a=25, v=3.2)
movej([0.847042, -3.039891, -0.198567, -0.767408, -2.341293, -2.154109],a=25, v=3.2)
movej([0.847645, -3.039092, -0.200809, -0.767334, -2.341409, -2.154278],a=25, v=3.2)
movej([0.847403, -3.039314, -0.201712, -0.767334, -2.341360, -2.154336],a=25, v=3.2)
movej([0.846843, -3.039384, -0.201829, -0.767305, -2.341477, -2.154402],a=25, v=3.2)
movej([0.846491, -3.039379, -0.201526, -0.767221, -2.341403, -2.154571],a=25, v=3.2)
movej([0.846464, -3.039518, -0.201160, -0.767211, -2.341461, -2.154786],a=25, v=3.2)
movej([0.846571, -3.039656, -0.200663, -0.767181, -2.341518, -2.155038],a=25, v=3.2)
movej([0.846641, -3.039719, -0.199763, -0.767114, -2.341544, -2.155138],a=25, v=3.2)
movej([0.846608, -3.039787, -0.199033, -0.767078, -2.341533, -2.155146],a=25, v=3.2)
movej([0.846564, -3.039895, -0.198590, -0.767059, -2.341510, -2.155177],a=25, v=3.2)
movej([0.846522, -3.040201, -0.198440, -0.767059, -2.341599, -2.155253],a=25, v=3.2)
movej([0.846520, -3.040442, -0.198272, -0.767055, -2.341476, -2.155278],a=25, v=3.2)
movej([0.846564, -3.040632, -0.198095, -0.767042, -2.341582, -2.155278],a=25, v=3.2)
movej([0.846559, -3.040723, -0.197913, -0.767033, -2.341531, -2.155288],a=25, v=3.2)
movej([0.846553, -3.040866, -0.197734, -0.767026, -2.341544, -2.155296],a=25, v=3.2)
movej([0.846529, -3.041072, -0.197622, -0.767026, -2.341504, -2.155309],a=25, v=3.2)
movej([0.846489, -3.041217, -0.197579, -0.767026, -2.341539, -2.155333],a=25, v=3.2)
movej([0.846489, -3.041297, -0.197579, -0.767015, -2.341579, -2.155343],a=25, v=3.2)
movej([0.846495, -3.041297, -0.197572, -0.767010, -2.341516, -2.155355],a=25, v=3.2)
movej([0.846507, -3.041297, -0.197579, -0.767006, -2.341583, -2.155376],a=25, v=3.2)
movej([0.846506, -3.041297, -0.197580, -0.766994, -2.341498, -2.155376],a=25, v=3.2)
movej([0.846488, -3.041297, -0.197609, -0.766994, -2.341571, -2.155385],a=25, v=3.2)
movej([0.846470, -3.041297, -0.197628, -0.766994, -2.341505, -2.155392],a=25, v=3.2)
movej([0.846461, -3.041289, -0.197659, -0.766994, -2.341627, -2.155392],a=25, v=3.2)
movej([0.846460, -3.041258, -0.197699, -0.766994, -2.341530, -2.155392],a=25, v=3.2)
movej([0.846460, -3.041235, -0.197711, -0.766994, -2.341529, -2.155392],a=25, v=3.2)
movej([0.846460, -3.041218, -0.197757, -0.766994, -2.341552, -2.155392],a=25, v=3.2)
movej([0.846460, -3.041207, -0.197835, -0.766994, -2.341508, -2.155392],a=25, v=3.2)
movej([0.846460, -3.041182, -0.197884, -0.766994, -2.341545, -2.155392],a=25, v=3.2)
movej([0.846460, -3.041121, -0.197939, -0.766994, -2.341506, -2.155384],a=25, v=3.2)
movej([0.846460, -3.041061, -0.197965, -0.766994, -2.341608, -2.155376],a=25, v=3.2)
movej([0.846460, -3.041030, -0.197965, -0.766994, -2.341460, -2.155376],a=25, v=3.2)
movej([0.846460, -3.040944, -0.197969, -0.766994, -2.341582, -2.155376],a=25, v=3.2)
movej([0.846460, -3.040875, -0.197975, -0.766994, -2.341539, -2.155376],a=25, v=3.2)
movej([0.846460, -3.040835, -0.197975, -0.766994, -2.341540, -2.155376],a=25, v=3.2)
movej([0.846460, -3.040772, -0.197973, -0.766994, -2.341553, -2.155376],a=25, v=3.2)
movej([0.846460, -3.040740, -0.197965, -0.766994, -2.341576, -2.155376],a=25, v=3.2)
movej([0.846460, -3.040722, -0.197965, -0.766994, -2.341557, -2.155376],a=25, v=3.2)
movej([0.846460, -3.040722, -0.197965, -0.766994, -2.341467, -2.155376],a=25, v=3.2)
movej([0.846460, -3.040722, -0.197965, -0.766994, -2.341616, -2.155376],a=25, v=3.2)
movej([0.846460, -3.040722, -0.197965, -0.766994, -2.341499, -2.155376],a=25, v=3.2)
movej([0.846460, -3.040722, -0.197965, -0.766994, -2.341549, -2.155376],a=25, v=3.2)
movej([0.846460, -3.040722, -0.197959, -0.766994, -2.341531, -2.155376],a=25, v=3.2)
movej([0.846460, -3.040722, -0.197956, -0.766981, -2.341537, -2.155379],a=25, v=3.2)
movej([0.846460, -3.040722, -0.197956, -0.766994, -2.341483, -2.155392],a=25, v=3.2)
movej([0.846460, -3.040722, -0.197952, -0.766978, -2.341542, -2.155392],a=25, v=3.2)
movej([0.846460, -3.040722, -0.197937, -0.766978, -2.341603, -2.155377],a=25, v=3.2)
movej([0.846460, -3.040730, -0.197930, -0.766978, -2.341493, -2.155389],a=25, v=3.2)
movej([0.846460, -3.040735, -0.197928, -0.766978, -2.341559, -2.155387],a=25, v=3.2)
movej([0.846460, -3.040741, -0.197924, -0.766978, -2.341529, -2.155383],a=25, v=3.2)
movej([0.846460, -3.040747, -0.197918, -0.766978, -2.341547, -2.155392],a=25, v=3.2)
movej([0.846460, -3.040761, -0.197915, -0.766978, -2.341499, -2.155392],a=25, v=3.2)
movej([0.846460, -3.040769, -0.197900, -0.766978, -2.341593, -2.155392],a=25, v=3.2)
movej([0.846460, -3.040778, -0.197895, -0.766978, -2.341535, -2.155392],a=25, v=3.2)
movej([0.846460, -3.040788, -0.197890, -0.766978, -2.341463, -2.155392],a=25, v=3.2)
movej([0.846460, -3.040811, -0.197890, -0.766978, -2.341566, -2.155392],a=25, v=3.2)
movej([0.846460, -3.040828, -0.197887, -0.766978, -2.341499, -2.155392],a=25, v=3.2)
movej([0.846460, -3.040858, -0.197881, -0.766978, -2.341545, -2.155392],a=25, v=3.2)
movej([0.846460, -3.040864, -0.197881, -0.766978, -2.341534, -2.155392],a=25, v=3.2)
movej([0.846460, -3.040866, -0.197881, -0.766978, -2.341537, -2.155392],a=25, v=3.2)
movej([0.846460, -3.040882, -0.197881, -0.766978, -2.341470, -2.155392],a=25, v=3.2)
movej([0.846460, -3.040896, -0.197881, -0.766978, -2.341540, -2.155392],a=25, v=3.2)
movej([0.846460, -3.040911, -0.197881, -0.766978, -2.341611, -2.155392],a=25, v=3.2)
movej([0.846460, -3.040911, -0.197881, -0.766978, -2.341504, -2.155392],a=25, v=3.2)
movej([0.846460, -3.040911, -0.197878, -0.766978, -2.341573, -2.155392],a=25, v=3.2)
movej([0.846460, -3.040911, -0.197871, -0.766978, -2.341520, -2.155392],a=25, v=3.2)
movej([0.846466, -3.040911, -0.197871, -0.766978, -2.341570, -2.155392],a=25, v=3.2)
movej([0.846470, -3.040911, -0.197871, -0.766978, -2.341498, -2.155392],a=25, v=3.2)
movej([0.846470, -3.040911, -0.197871, -0.766978, -2.341619, -2.155392],a=25, v=3.2)
movej([0.846470, -3.040911, -0.197871, -0.766978, -2.341535, -2.155392],a=25, v=3.2)
movej([0.846470, -3.040911, -0.197871, -0.766978, -2.341503, -2.155392],a=25, v=3.2)
movej([0.846470, -3.040911, -0.197871, -0.766978, -2.341565, -2.155392],a=25, v=3.2)
movej([0.846470, -3.040911, -0.197871, -0.766978, -2.341511, -2.155392],a=25, v=3.2)
movej([0.846470, -3.040911, -0.197871, -0.766978, -2.341521, -2.155392],a=25, v=3.2)
movej([0.846470, -3.040911, -0.197871, -0.766978, -2.341503, -2.155392],a=25, v=3.2)
movej([0.846470, -3.040911, -0.197871, -0.766978, -2.341612, -2.155392],a=25, v=3.2)
movej([0.846470, -3.040911, -0.197871, -0.766978, -2.341464, -2.155392],a=25, v=3.2)
movej([0.846470, -3.040911, -0.197871, -0.766978, -2.341582, -2.155392],a=25, v=3.2)
movej([0.846470, -3.040911, -0.197871, -0.766978, -2.341551, -2.155392],a=25, v=3.2)
movej([0.846470, -3.040911, -0.197871, -0.766978, -2.341564, -2.155392],a=25, v=3.2)
movej([0.846470, -3.040911, -0.197871, -0.766978, -2.341534, -2.155392],a=25, v=3.2)
movej([0.846470, -3.040911, -0.197871, -0.766978, -2.341603, -2.155392],a=25, v=3.2)
movej([0.846470, -3.040911, -0.197871, -0.766968, -2.341561, -2.155392],a=25, v=3.2)
movej([0.846470, -3.040911, -0.197871, -0.766978, -2.341450, -2.155392],a=25, v=3.2)
movej([0.846470, -3.040911, -0.197871, -0.766978, -2.341609, -2.155392],a=25, v=3.2)
movej([0.846470, -3.040911, -0.197871, -0.766961, -2.341512, -2.155392],a=25, v=3.2)
movej([0.846470, -3.040911, -0.197871, -0.766961, -2.341553, -2.155392],a=25, v=3.2)
movej([0.846470, -3.040911, -0.197871, -0.766961, -2.341493, -2.155392],a=25, v=3.2)
movej([0.846470, -3.040911, -0.197871, -0.766961, -2.341589, -2.155392],a=25, v=3.2)
movej([0.846470, -3.040911, -0.197871, -0.766961, -2.341482, -2.155392],a=25, v=3.2)
movej([0.847419, -3.038860, -0.201832, -0.766078, -2.342098, -2.156708],a=25, v=3.2)
movej([0.849822, -3.033665, -0.211862, -0.763839, -2.343247, -2.160042],a=25, v=3.2)
movej([0.855079, -3.022303, -0.233801, -0.758944, -2.345760, -2.167334],a=25, v=3.2)
movej([0.862834, -3.005544, -0.266159, -0.751723, -2.349466, -2.178090],a=25, v=3.2)
movej([0.872507, -2.984639, -0.306525, -0.742715, -2.354089, -2.191507],a=25, v=3.2)
movej([0.884991, -2.957660, -0.358618, -0.731090, -2.360056, -2.208822],a=25, v=3.2)
movej([0.899138, -2.927086, -0.417652, -0.717917, -2.366818, -2.228443],a=25, v=3.2)
movej([0.914388, -2.894128, -0.481290, -0.703716, -2.374106, -2.249596],a=25, v=3.2)
movej([0.929733, -2.860965, -0.545323, -0.689427, -2.381441, -2.270880],a=25, v=3.2)
movej([0.945061, -2.827838, -0.609286, -0.675153, -2.388767, -2.292140],a=25, v=3.2)
movej([0.960297, -2.794911, -0.672865, -0.660965, -2.396049, -2.313273],a=25, v=3.2)
movej([0.975620, -2.761795, -0.736807, -0.646696, -2.403372, -2.334526],a=25, v=3.2)
movej([0.990826, -2.728933, -0.800260, -0.632536, -2.410640, -2.355617],a=25, v=3.2)
movej([1.006160, -2.695792, -0.864249, -0.618257, -2.417969, -2.376886],a=25, v=3.2)
movej([1.021409, -2.662836, -0.927884, -0.604057, -2.425258, -2.398037],a=25, v=3.2)
movej([1.036737, -2.629709, -0.991848, -0.589783, -2.432584, -2.419297],a=25, v=3.2)
movej([1.051913, -2.596912, -1.055175, -0.575652, -2.439838, -2.440347],a=25, v=3.2)
movej([1.067200, -2.563871, -1.118972, -0.561415, -2.447145, -2.461552],a=25, v=3.2)
movej([1.082541, -2.530719, -1.182985, -0.547131, -2.454476, -2.482829],a=25, v=3.2)
movej([1.097877, -2.497574, -1.246985, -0.532849, -2.461807, -2.504101],a=25, v=3.2)
movej([1.113108, -2.464658, -1.310540, -0.518666, -2.469086, -2.525226],a=25, v=3.2)
movej([1.128333, -2.431754, -1.374074, -0.504488, -2.476363, -2.546344],a=25, v=3.2)
movej([1.143641, -2.398669, -1.437956, -0.490233, -2.483680, -2.567577],a=25, v=3.2)
movej([1.158998, -2.365482, -1.502036, -0.475933, -2.491020, -2.588876],a=25, v=3.2)
movej([1.174302, -2.332406, -1.565900, -0.461682, -2.498334, -2.610104],a=25, v=3.2)
movej([1.189555, -2.299442, -1.629549, -0.447479, -2.505625, -2.631260],a=25, v=3.2)
movej([1.204816, -2.266460, -1.693233, -0.433268, -2.512919, -2.652427],a=25, v=3.2)
movej([1.219688, -2.234319, -1.755294, -0.419418, -2.520027, -2.673056],a=25, v=3.2)
movej([1.233545, -2.204371, -1.813120, -0.406514, -2.526650, -2.692276],a=25, v=3.2)
movej([1.244370, -2.180976, -1.858293, -0.396434, -2.531824, -2.707291],a=25, v=3.2)
movej([1.253349, -2.161570, -1.895762, -0.388072, -2.536115, -2.719745],a=25, v=3.2)
movej([1.259855, -2.147512, -1.922907, -0.382015, -2.539225, -2.728767],a=25, v=3.2)
movej([1.263505, -2.139623, -1.938139, -0.378616, -2.540969, -2.733830],a=25, v=3.2)
movej([1.265565, -2.135172, -1.946735, -0.376698, -2.541954, -2.736688],a=25, v=3.2)
movej([1.265734, -2.134249, -1.948515, -0.376239, -2.542060, -2.737867],a=25, v=3.2)
movej([1.265632, -2.135445, -1.946010, -0.376240, -2.542151, -2.738147],a=25, v=3.2)
movej([1.265531, -2.136299, -1.943968, -0.376330, -2.542110, -2.737963],a=25, v=3.2)
movej([1.265399, -2.136358, -1.943535, -0.376436, -2.542060, -2.737829],a=25, v=3.2)
movej([1.265302, -2.136202, -1.943353, -0.376412, -2.542033, -2.737675],a=25, v=3.2)
movej([1.265302, -2.136304, -1.943573, -0.376507, -2.542019, -2.737323],a=25, v=3.2)
movej([1.265467, -2.136294, -1.943832, -0.376514, -2.542011, -2.737026],a=25, v=3.2)
movej([1.265494, -2.136253, -1.944217, -0.376527, -2.541989, -2.736886],a=25, v=3.2)
movej([1.265425, -2.135884, -1.944864, -0.376530, -2.541900, -2.736775],a=25, v=3.2)
movej([1.265430, -2.135746, -1.945528, -0.376584, -2.541873, -2.736740],a=25, v=3.2)
movej([1.265500, -2.135864, -1.946244, -0.376688, -2.541873, -2.736740],a=25, v=3.2)
movej([1.265511, -2.135605, -1.946508, -0.376676, -2.541882, -2.736740],a=25, v=3.2)
movej([1.265518, -2.135327, -1.946706, -0.376676, -2.541873, -2.736739],a=25, v=3.2)
movej([1.265518, -2.135176, -1.946865, -0.376676, -2.541873, -2.736725],a=25, v=3.2)
movej([1.265547, -2.135158, -1.946973, -0.376683, -2.541873, -2.736717],a=25, v=3.2)
movej([1.265575, -2.135111, -1.947089, -0.376692, -2.541873, -2.736708],a=25, v=3.2)
movej([1.265575, -2.134932, -1.947171, -0.376692, -2.541873, -2.736683],a=25, v=3.2)
movej([1.265582, -2.134850, -1.947230, -0.376700, -2.541873, -2.736651],a=25, v=3.2)
movej([1.265605, -2.134828, -1.947253, -0.376727, -2.541873, -2.736627],a=25, v=3.2)
movej([1.265607, -2.134823, -1.947261, -0.376750, -2.541873, -2.736627],a=25, v=3.2)
movej([1.265613, -2.134809, -1.947261, -0.376757, -2.541873, -2.736627],a=25, v=3.2)
movej([1.265613, -2.134801, -1.947261, -0.376757, -2.541873, -2.736627],a=25, v=3.2)
movej([1.265637, -2.134800, -1.947257, -0.376757, -2.541873, -2.736633],a=25, v=3.2)
movej([1.265660, -2.134800, -1.947251, -0.376757, -2.541873, -2.736643],a=25, v=3.2)
movej([1.265660, -2.134800, -1.947244, -0.376745, -2.541873, -2.736643],a=25, v=3.2)
movej([1.265660, -2.134823, -1.947210, -0.376757, -2.541873, -2.736643],a=25, v=3.2)
movej([1.265660, -2.134866, -1.947167, -0.376757, -2.541873, -2.736643],a=25, v=3.2)
movej([1.265660, -2.134866, -1.947167, -0.376757, -2.541873, -2.736643],a=25, v=3.2)
movej([1.265660, -2.134867, -1.947154, -0.376757, -2.541872, -2.736643],a=25, v=3.2)
movej([1.265660, -2.134883, -1.947099, -0.376757, -2.541858, -2.736643],a=25, v=3.2)
movej([1.265660, -2.134924, -1.947061, -0.376763, -2.541856, -2.736643],a=25, v=3.2)
movej([1.265660, -2.134942, -1.947044, -0.376773, -2.541856, -2.736643],a=25, v=3.2)
movej([1.265660, -2.134942, -1.946998, -0.376773, -2.541856, -2.736643],a=25, v=3.2)
movej([1.265660, -2.134970, -1.946978, -0.376776, -2.541853, -2.736643],a=25, v=3.2)
movej([1.265660, -2.135045, -1.946978, -0.376789, -2.541840, -2.736643],a=25, v=3.2)
movej([1.265660, -2.135040, -1.946978, -0.376789, -2.541840, -2.736643],a=25, v=3.2)
movej([1.265660, -2.135036, -1.946978, -0.376789, -2.541840, -2.736643],a=25, v=3.2)
movej([1.265660, -2.135044, -1.946978, -0.376789, -2.541840, -2.736643],a=25, v=3.2)
movej([1.265660, -2.135045, -1.946978, -0.376789, -2.541840, -2.736643],a=25, v=3.2)
movej([1.265660, -2.135045, -1.946978, -0.376789, -2.541840, -2.736643],a=25, v=3.2)
movej([1.265660, -2.135045, -1.946978, -0.376789, -2.541829, -2.736643],a=25, v=3.2)
movej([1.265660, -2.135045, -1.946978, -0.376789, -2.541824, -2.736643],a=25, v=3.2)
movej([1.265660, -2.135045, -1.946978, -0.376789, -2.541824, -2.736643],a=25, v=3.2)
movej([1.265660, -2.135040, -1.946978, -0.376789, -2.541824, -2.736643],a=25, v=3.2)
movej([1.265660, -2.135045, -1.946978, -0.376789, -2.541824, -2.736643],a=25, v=3.2)
movej([1.265660, -2.135045, -1.946978, -0.376789, -2.541824, -2.736643],a=25, v=3.2)
movej([1.265660, -2.135045, -1.946978, -0.376789, -2.541824, -2.736643],a=25, v=3.2)
movej([1.265660, -2.135040, -1.946978, -0.376789, -2.541824, -2.736643],a=25, v=3.2)
movej([1.265660, -2.135042, -1.946978, -0.376789, -2.541824, -2.736643],a=25, v=3.2)
movej([1.265660, -2.135045, -1.946978, -0.376789, -2.541824, -2.736643],a=25, v=3.2)
movej([1.265660, -2.135045, -1.946978, -0.376789, -2.541824, -2.736643],a=25, v=3.2)
movej([1.265660, -2.135036, -1.946978, -0.376789, -2.541824, -2.736643],a=25, v=3.2)
movej([1.265660, -2.135045, -1.946978, -0.376789, -2.541824, -2.736643],a=25, v=3.2)
movej([1.265660, -2.135045, -1.946978, -0.376789, -2.541824, -2.736630],a=25, v=3.2)
movej([1.265660, -2.135042, -1.946978, -0.376789, -2.541824, -2.736627],a=25, v=3.2)
movej([1.265660, -2.135036, -1.946978, -0.376789, -2.541824, -2.736627],a=25, v=3.2)
movej([1.265660, -2.135042, -1.946978, -0.376789, -2.541824, -2.736627],a=25, v=3.2)
movej([1.265660, -2.135044, -1.946978, -0.376789, -2.541824, -2.736627],a=25, v=3.2)
movej([1.265660, -2.135036, -1.946978, -0.376789, -2.541824, -2.736627],a=25, v=3.2)
movej([1.265660, -2.135036, -1.946978, -0.376789, -2.541824, -2.736627],a=25, v=3.2)
movej([1.265660, -2.135036, -1.946978, -0.376789, -2.541824, -2.736627],a=25, v=3.2)
movej([1.265660, -2.135036, -1.946978, -0.376789, -2.541824, -2.736627],a=25, v=3.2)
movej([1.265660, -2.135036, -1.946978, -0.376789, -2.541829, -2.736627],a=25, v=3.2)
movej([1.265660, -2.135036, -1.946978, -0.376789, -2.541840, -2.736627],a=25, v=3.2)
movej([1.265660, -2.135036, -1.946978, -0.376789, -2.541840, -2.736627],a=25, v=3.2)
movej([1.265660, -2.135036, -1.946978, -0.376789, -2.541840, -2.736627],a=25, v=3.2)
movej([1.265660, -2.135036, -1.946978, -0.376789, -2.541840, -2.736627],a=25, v=3.2)
movej([1.265650, -2.135036, -1.946978, -0.376789, -2.541840, -2.736627],a=25, v=3.2)
movej([1.265650, -2.135036, -1.946978, -0.376789, -2.541840, -2.736627],a=25, v=3.2)
movej([1.265650, -2.135036, -1.946978, -0.376789, -2.541840, -2.736627],a=25, v=3.2)
movej([1.265650, -2.135036, -1.946987, -0.376789, -2.541840, -2.736627],a=25, v=3.2)
movej([1.265650, -2.135036, -1.946987, -0.376789, -2.541840, -2.736627],a=25, v=3.2)
movej([1.265650, -2.135036, -1.946987, -0.376789, -2.541840, -2.736627],a=25, v=3.2)
movej([1.265650, -2.135036, -1.946987, -0.376789, -2.541840, -2.736627],a=25, v=3.2)
movej([1.265650, -2.135036, -1.946987, -0.376789, -2.541840, -2.736627],a=25, v=3.2)
movej([1.265650, -2.135036, -1.946987, -0.376789, -2.541840, -2.736627],a=25, v=3.2)
movej([1.265650, -2.135036, -1.946987, -0.376789, -2.541840, -2.736627],a=25, v=3.2)
movej([1.265650, -2.135036, -1.946987, -0.376789, -2.541840, -2.736627],a=25, v=3.2)
movej([1.265650, -2.135036, -1.946987, -0.376789, -2.541840, -2.736627],a=25, v=3.2)
movej([1.265650, -2.135036, -1.946990, -0.376789, -2.541840, -2.736627],a=25, v=3.2)
movej([1.265650, -2.135036, -1.946997, -0.376789, -2.541840, -2.736627],a=25, v=3.2)
movej([1.265650, -2.135036, -1.946997, -0.376789, -2.541840, -2.736627],a=25, v=3.2)
movej([1.265650, -2.135036, -1.946997, -0.376789, -2.541840, -2.736627],a=25, v=3.2)
movej([1.265650, -2.135036, -1.946997, -0.376789, -2.541840, -2.736627],a=25, v=3.2)
movej([1.265650, -2.135036, -1.946997, -0.376789, -2.541840, -2.736639],a=25, v=3.2)
movej([1.265650, -2.135036, -1.946997, -0.376789, -2.541840, -2.736631],a=25, v=3.2)
movej([1.265650, -2.135036, -1.946997, -0.376789, -2.541840, -2.736627],a=25, v=3.2)
movej([1.265650, -2.135036, -1.946997, -0.376789, -2.541840, -2.736627],a=25, v=3.2)
movej([1.265650, -2.135036, -1.946997, -0.376789, -2.541840, -2.736627],a=25, v=3.2)
movej([1.265650, -2.135036, -1.946997, -0.376789, -2.541840, -2.736627],a=25, v=3.2)
movej([1.265650, -2.135036, -1.946997, -0.376789, -2.541840, -2.736627],a=25, v=3.2)
movej([1.264955, -2.136539, -1.944096, -0.377436, -2.541508, -2.735663],a=25, v=3.2)
movej([1.263003, -2.140757, -1.935951, -0.379253, -2.540576, -2.732957],a=25, v=3.2)
movej([1.257983, -2.151607, -1.915001, -0.383927, -2.538178, -2.725997],a=25, v=3.2)
movej([1.250912, -2.166885, -1.885500, -0.390508, -2.534801, -2.716196],a=25, v=3.2)
movej([1.241740, -2.186710, -1.847222, -0.399048, -2.530420, -2.703480],a=25, v=3.2)
movej([1.229515, -2.213128, -1.796212, -0.410428, -2.524582, -2.686534],a=25, v=3.2)
movej([1.215583, -2.243237, -1.738075, -0.423398, -2.517929, -2.667220],a=25, v=3.2)
movej([1.200444, -2.275955, -1.674901, -0.437491, -2.510699, -2.646233],a=25, v=3.2)
movej([1.185034, -2.309256, -1.610601, -0.451836, -2.503339, -2.624872],a=25, v=3.2)
movej([1.169771, -2.342240, -1.546912, -0.466044, -2.496050, -2.603713],a=25, v=3.2)
movej([1.154471, -2.375305, -1.483067, -0.480287, -2.488743, -2.582503],a=25, v=3.2)
movej([1.139245, -2.408209, -1.419534, -0.494462, -2.481471, -2.561396],a=25, v=3.2)
movej([1.123995, -2.441167, -1.355898, -0.508658, -2.474189, -2.540255],a=25, v=3.2)
movej([1.108657, -2.474315, -1.291892, -0.522937, -2.466863, -2.518992],a=25, v=3.2)
movej([1.093321, -2.507459, -1.227896, -0.537214, -2.459539, -2.497732],a=25, v=3.2)
movej([1.077982, -2.540607, -1.163891, -0.551493, -2.452213, -2.476468],a=25, v=3.2)
movej([1.062809, -2.573397, -1.100579, -0.565617, -2.444967, -2.455435],a=25, v=3.2)
movej([1.047536, -2.606402, -1.036849, -0.579835, -2.437673, -2.434263],a=25, v=3.2)
movej([1.032197, -2.639551, -0.972842, -0.594114, -2.430348, -2.413000],a=25, v=3.2)
movej([1.016878, -2.672658, -0.908917, -0.608375, -2.423032, -2.391762],a=25, v=3.2)
movej([1.001660, -2.705545, -0.845416, -0.622541, -2.415764, -2.370667],a=25, v=3.2)
movej([0.986374, -2.738579, -0.781632, -0.636771, -2.408463, -2.349476],a=25, v=3.2)
movej([0.971201, -2.771369, -0.718319, -0.650896, -2.401217, -2.328444],a=25, v=3.2)
movej([0.955856, -2.804533, -0.654285, -0.665181, -2.393888, -2.307170],a=25, v=3.2)
movej([0.940524, -2.837668, -0.590304, -0.679455, -2.386566, -2.285915],a=25, v=3.2)
movej([0.925232, -2.870715, -0.526494, -0.693690, -2.379263, -2.264717],a=25, v=3.2)
movej([0.910026, -2.903577, -0.463042, -0.707845, -2.372001, -2.243637],a=25, v=3.2)
movej([0.894911, -2.936240, -0.399973, -0.721915, -2.364782, -2.222685],a=25, v=3.2)
movej([0.880726, -2.966895, -0.340782, -0.735121, -2.358008, -2.203021],a=25, v=3.2)
movej([0.869617, -2.990902, -0.294428, -0.745462, -2.352703, -2.187622],a=25, v=3.2)
movej([0.859955, -3.011784, -0.254108, -0.754457, -2.348088, -2.174227],a=25, v=3.2)
movej([0.853388, -3.025975, -0.226706, -0.760570, -2.344952, -2.165123],a=25, v=3.2)
movej([0.849082, -3.035282, -0.208737, -0.764579, -2.342895, -2.159154],a=25, v=3.2)
movej([0.846687, -3.040459, -0.198742, -0.766809, -2.341751, -2.155833],a=25, v=3.2)
movej([0.846364, -3.041249, -0.196470, -0.767329, -2.341466, -2.154547],a=25, v=3.2)
movej([0.846728, -3.040249, -0.197891, -0.767418, -2.341292, -2.154019],a=25, v=3.2)
movej([0.847563, -3.039333, -0.200243, -0.767338, -2.341320, -2.154193],a=25, v=3.2)
movej([0.847490, -3.039256, -0.201462, -0.767334, -2.341419, -2.154338],a=25, v=3.2)
movej([0.847221, -3.039274, -0.201896, -0.767334, -2.341458, -2.154347],a=25, v=3.2)
movej([0.846639, -3.039273, -0.201622, -0.767245, -2.341415, -2.154526],a=25, v=3.2)
movej([0.846460, -3.039424, -0.201250, -0.767216, -2.341471, -2.154732],a=25, v=3.2)
movej([0.846496, -3.039629, -0.200873, -0.767198, -2.341458, -2.154933],a=25, v=3.2)
movej([0.846605, -3.039718, -0.200051, -0.767138, -2.341454, -2.155067],a=25, v=3.2)
movej([0.846622, -3.039808, -0.199196, -0.767087, -2.341578, -2.155121],a=25, v=3.2)
movej([0.846559, -3.039859, -0.198686, -0.767061, -2.341442, -2.155209],a=25, v=3.2)
movej([0.846547, -3.040118, -0.198470, -0.767059, -2.341515, -2.155221],a=25, v=3.2)
movej([0.846520, -3.040425, -0.198307, -0.767059, -2.341542, -2.155230],a=25, v=3.2)
movej([0.846553, -3.040597, -0.198152, -0.767046, -2.341514, -2.155255],a=25, v=3.2)
