speedj([0.000000, 0.000000, 0.000000, 0.000000, 0.000000, 0.000000],a=0.000000, t_min = 0.024000)
speedj([0.000000, 0.000000, 0.000000, 0.000000, 0.000000, 0.000000],a=0.000000, t_min = 0.024000)
speedj([0.000000, 0.000000, 0.000000, 0.000000, 0.000000, 0.000000],a=0.000000, t_min = 0.024000)
speedj([0.000000, 0.000000, 0.000000, 0.000000, 0.000000, 0.000000],a=0.000000, t_min = 0.024000)
speedj([0.000000, 0.000000, 0.000000, 0.000000, 0.000000, 0.000000],a=0.000000, t_min = 0.024000)
speedj([0.000000, 0.000000, 0.000000, 0.000000, 0.000000, 0.000000],a=0.000000, t_min = 0.024000)
speedj([0.000000, 0.000000, 0.000000, 0.000000, 0.000000, 0.000000],a=0.000000, t_min = 0.024000)
speedj([0.000000, 0.000000, 0.000000, 0.000000, 0.000000, 0.000000],a=0.000000, t_min = 0.024000)
speedj([0.000000, 0.000000, 0.000000, 0.000000, 0.000000, 0.000000],a=0.000000, t_min = 0.024000)
speedj([0.000000, 0.000000, 0.000000, 0.000000, 0.000000, 0.000000],a=0.000000, t_min = 0.024000)
speedj([0.000000, 0.000000, 0.000000, 0.000000, 0.000000, 0.000000],a=0.000000, t_min = 0.024000)
speedj([0.000000, 0.000000, 0.000000, 0.000000, 0.000000, 0.000000],a=0.000000, t_min = 0.024000)
speedj([0.000000, 0.000000, 0.000000, 0.000000, 0.000000, 0.000000],a=0.000000, t_min = 0.024000)
speedj([0.000000, 0.000000, 0.000000, 0.000000, 0.000000, 0.000000],a=0.000000, t_min = 0.024000)
speedj([0.000000, 0.000000, 0.000000, 0.000000, 0.000000, 0.000000],a=0.000000, t_min = 0.024000)
speedj([0.000000, 0.000000, 0.000000, 0.000000, 0.000000, 0.000000],a=0.000000, t_min = 0.024000)
speedj([0.000000, 0.000000, 0.000000, 0.000000, 0.000000, 0.000000],a=0.000000, t_min = 0.024000)
speedj([0.000000, 0.000000, 0.000000, 0.000000, 0.000000, 0.000000],a=0.000000, t_min = 0.024000)
speedj([0.000000, 0.000000, 0.000000, 0.000000, 0.000000, 0.000000],a=0.000000, t_min = 0.024000)
speedj([0.000000, 0.000000, 0.000000, 0.000000, 0.000000, 0.000000],a=0.000000, t_min = 0.024000)
speedj([0.000000, 0.000000, 0.000000, 0.000000, 0.000000, 0.000000],a=0.000000, t_min = 0.024000)
speedj([0.000000, 0.000000, 0.000000, 0.000000, 0.000000, 0.000000],a=0.000000, t_min = 0.024000)
speedj([0.000000, 0.000000, 0.000000, 0.000000, 0.000000, 0.000000],a=0.000000, t_min = 0.024000)
speedj([0.000000, 0.000000, 0.000000, 0.000000, 0.000000, 0.000000],a=0.000000, t_min = 0.024000)
speedj([0.000000, 0.000000, 0.000000, 0.000000, 0.000000, 0.000000],a=0.000000, t_min = 0.024000)
speedj([0.000000, 0.000000, 0.000000, 0.000000, 0.000000, 0.000000],a=0.000000, t_min = 0.024000)
speedj([0.000000, 0.000000, 0.000000, 0.000000, 0.000000, 0.000000],a=0.000000, t_min = 0.024000)
speedj([0.000000, 0.000000, 0.000000, 0.000000, 0.000000, 0.000000],a=0.000000, t_min = 0.024000)
speedj([0.000000, 0.000000, 0.000000, 0.000000, 0.000000, 0.000000],a=0.000000, t_min = 0.024000)
speedj([0.000000, 0.000000, 0.000000, 0.000000, 0.000000, 0.000000],a=0.000000, t_min = 0.024000)
speedj([0.000000, 0.000000, 0.000000, 0.000000, 0.000000, 0.000000],a=0.000000, t_min = 0.024000)
speedj([0.000000, 0.000000, 0.000000, 0.000000, 0.000000, 0.000000],a=0.000000, t_min = 0.024000)
speedj([0.000000, 0.000000, 0.000000, 0.000000, 0.000000, 0.000000],a=0.000000, t_min = 0.024000)
speedj([0.000000, 0.000000, 0.000000, 0.000000, 0.000000, 0.000000],a=0.000000, t_min = 0.024000)
speedj([0.000000, 0.000000, 0.000000, 0.000000, 0.000000, 0.000000],a=0.000000, t_min = 0.024000)
speedj([0.000000, 0.000000, 0.000000, 0.000000, 0.000000, 0.000000],a=0.000000, t_min = 0.024000)
speedj([0.000000, 0.000000, 0.000000, 0.000000, 0.000000, 0.000000],a=0.000000, t_min = 0.024000)
speedj([0.000000, 0.000000, 0.000000, 0.000000, 0.000000, 0.000000],a=0.000000, t_min = 0.024000)
speedj([0.000000, 0.000000, 0.000000, 0.000000, 0.000000, 0.000000],a=0.000000, t_min = 0.024000)
speedj([0.000000, 0.000000, 0.000000, 0.000000, 0.000000, 0.000000],a=0.000000, t_min = 0.024000)
speedj([0.000000, 0.000000, 0.000000, 0.000000, 0.000000, 0.000000],a=0.000000, t_min = 0.024000)
speedj([0.000000, 0.000000, 0.000000, 0.000000, 0.000000, 0.000000],a=0.000000, t_min = 0.024000)
speedj([0.000000, 0.000000, 0.000000, 0.000000, 0.000000, 0.000000],a=0.000000, t_min = 0.024000)
speedj([0.000000, 0.000000, 0.000000, 0.000000, 0.000000, 0.000000],a=0.000000, t_min = 0.024000)
speedj([0.000000, 0.000000, 0.000000, 0.000000, 0.000000, 0.000000],a=0.000000, t_min = 0.024000)
speedj([0.000000, 0.000000, 0.000000, 0.000000, 0.000000, 0.000000],a=0.000000, t_min = 0.024000)
speedj([0.000000, 0.000000, 0.000000, 0.000000, 0.000000, 0.000000],a=0.000000, t_min = 0.024000)
speedj([0.000000, 0.000000, 0.000000, 0.000000, 0.000000, 0.000000],a=0.000000, t_min = 0.024000)
speedj([0.000000, 0.000000, 0.000000, 0.000000, 0.000000, 0.000000],a=0.000000, t_min = 0.024000)
speedj([0.000000, 0.000000, 0.000000, 0.000000, 0.000000, 0.000000],a=0.000000, t_min = 0.024000)
speedj([0.000000, 0.000000, 0.000000, 0.000000, 0.000000, 0.000000],a=0.000000, t_min = 0.024000)
speedj([0.000000, 0.000000, 0.000000, 0.000000, 0.000000, 0.000000],a=0.000000, t_min = 0.024000)
speedj([0.000000, 0.000000, 0.000000, 0.000000, 0.000000, 0.000000],a=0.000000, t_min = 0.024000)
speedj([0.000000, 0.000000, 0.000000, 0.000000, 0.000000, 0.000000],a=0.000000, t_min = 0.024000)
speedj([0.000000, 0.000000, 0.000000, 0.000000, 0.000000, 0.000000],a=0.000000, t_min = 0.024000)
speedj([0.000000, 0.000000, 0.000000, 0.000000, 0.000000, 0.000000],a=0.000000, t_min = 0.024000)
speedj([0.000000, 0.000000, 0.000000, 0.000000, 0.000000, 0.000000],a=0.000000, t_min = 0.024000)
speedj([0.000000, 0.000000, 0.000000, 0.000000, 0.000000, 0.000000],a=0.000000, t_min = 0.024000)
speedj([0.000000, 0.000000, 0.000000, 0.000000, 0.000000, 0.000000],a=0.000000, t_min = 0.024000)
speedj([0.000000, 0.000000, 0.000000, 0.000000, 0.000000, 0.000000],a=0.000000, t_min = 0.024000)
speedj([0.000000, 0.000000, 0.000000, 0.000000, 0.000000, 0.000000],a=0.000000, t_min = 0.024000)
speedj([0.000000, 0.000000, 0.000000, 0.000000, 0.000000, 0.000000],a=0.000000, t_min = 0.024000)
speedj([0.000000, 0.000000, 0.000000, 0.000000, 0.000000, 0.000000],a=0.000000, t_min = 0.024000)
speedj([0.000000, 0.000000, 0.000000, 0.000000, 0.000000, 0.000000],a=0.000000, t_min = 0.024000)
speedj([0.000000, 0.000000, 0.000000, 0.000000, 0.000000, 0.000000],a=0.000000, t_min = 0.024000)
speedj([0.000000, 0.000000, 0.000000, 0.000000, 0.000000, 0.000000],a=0.000000, t_min = 0.024000)
speedj([0.000000, 0.000000, 0.000000, 0.000000, 0.000000, 0.000000],a=0.000000, t_min = 0.024000)
speedj([0.000000, 0.000000, 0.000000, 0.000000, 0.000000, 0.000000],a=0.000000, t_min = 0.024000)
speedj([0.000000, 0.000000, 0.000000, 0.000000, 0.000000, 0.000000],a=0.000000, t_min = 0.024000)
speedj([0.000000, 0.000000, 0.000000, 0.000000, 0.000000, 0.000000],a=0.000000, t_min = 0.024000)
speedj([0.000000, 0.000000, 0.000000, 0.000000, 0.000000, 0.000000],a=0.000000, t_min = 0.024000)
speedj([0.000000, 0.000000, 0.000000, 0.000000, 0.000000, 0.000000],a=0.000000, t_min = 0.024000)
speedj([0.000000, 0.000000, 0.000000, 0.000000, 0.000000, 0.000000],a=0.000000, t_min = 0.024000)
speedj([0.000000, 0.000000, 0.000000, 0.000000, 0.000000, 0.000000],a=0.000000, t_min = 0.024000)
speedj([0.000000, 0.000000, 0.000000, 0.000000, 0.000000, 0.000000],a=0.000000, t_min = 0.024000)
speedj([0.000000, 0.000000, 0.000000, 0.000000, 0.000000, 0.000000],a=0.000000, t_min = 0.024000)
speedj([0.000000, 0.000000, 0.000000, 0.000000, 0.000000, 0.000000],a=0.000000, t_min = 0.024000)
speedj([0.000000, 0.000000, 0.000000, 0.000000, 0.000000, 0.000000],a=0.000000, t_min = 0.024000)
speedj([0.000000, 0.000000, 0.000000, 0.000000, 0.000000, 0.000000],a=0.000000, t_min = 0.024000)
speedj([0.000000, 0.000000, 0.000000, 0.000000, 0.000000, 0.000000],a=0.000000, t_min = 0.024000)
speedj([0.000000, 0.000000, 0.000000, 0.000000, 0.000000, 0.000000],a=0.000000, t_min = 0.024000)
speedj([0.000000, 0.000000, 0.000000, 0.000000, 0.000000, 0.000000],a=0.000000, t_min = 0.024000)
speedj([0.000000, 0.000000, 0.000000, 0.000000, 0.000000, 0.000000],a=0.000000, t_min = 0.024000)
speedj([0.000000, 0.000000, 0.000000, 0.000000, 0.000000, 0.000000],a=0.000000, t_min = 0.024000)
speedj([0.000000, 0.000000, 0.000000, 0.000000, 0.000000, 0.000000],a=0.000000, t_min = 0.024000)
speedj([0.000000, 0.000000, 0.000000, 0.000000, 0.000000, 0.000000],a=0.000000, t_min = 0.024000)
speedj([0.000000, 0.000000, 0.000000, 0.000000, 0.000000, 0.000000],a=0.000000, t_min = 0.024000)
speedj([0.000000, 0.000000, 0.000000, 0.000000, 0.000000, 0.000000],a=0.000000, t_min = 0.024000)
speedj([0.000000, 0.000000, 0.000000, 0.000000, 0.000000, 0.000000],a=0.000000, t_min = 0.024000)
speedj([0.000000, 0.000000, 0.000000, 0.000000, 0.000000, 0.000000],a=0.000000, t_min = 0.024000)
speedj([0.000000, 0.000000, 0.000000, 0.000000, 0.000000, 0.000000],a=0.000000, t_min = 0.024000)
speedj([0.000000, 0.000000, 0.000000, 0.000000, 0.000000, 0.000000],a=0.000000, t_min = 0.024000)
speedj([0.000000, 0.000000, 0.000000, 0.000000, 0.000000, 0.000000],a=0.000000, t_min = 0.024000)
speedj([0.000000, 0.000000, 0.000000, 0.000000, 0.000000, 0.000000],a=0.000000, t_min = 0.024000)
speedj([0.000000, 0.000000, 0.000000, 0.000000, 0.000000, 0.000000],a=0.000000, t_min = 0.024000)
speedj([0.000000, 0.000000, 0.000000, 0.000000, 0.000000, 0.000000],a=0.000000, t_min = 0.024000)
speedj([0.000000, 0.000000, 0.000000, 0.000000, 0.000000, 0.000000],a=0.000000, t_min = 0.024000)
speedj([0.000000, 0.000000, 0.000000, 0.000000, 0.000000, 0.000000],a=0.000000, t_min = 0.024000)
speedj([0.000000, 0.000000, 0.000000, 0.000000, 0.000000, 0.000000],a=0.000000, t_min = 0.024000)
speedj([0.000000, 0.000000, 0.000000, 0.000000, 0.000000, 0.000000],a=0.000000, t_min = 0.024000)
speedj([0.000000, 0.000000, 0.000000, 0.000000, 0.000000, 0.000000],a=0.000000, t_min = 0.024000)
speedj([0.000000, 0.000000, 0.000000, 0.000000, 0.000000, 0.000000],a=0.000000, t_min = 0.024000)
speedj([0.000000, 0.000000, 0.000000, 0.000000, 0.000000, 0.000000],a=0.000000, t_min = 0.024000)
speedj([0.000000, 0.000000, 0.000000, 0.000000, 0.000000, 0.000000],a=0.000000, t_min = 0.024000)
speedj([0.000000, 0.000000, 0.000000, 0.000000, 0.000000, 0.000000],a=0.000000, t_min = 0.024000)
speedj([0.000000, 0.000000, 0.000000, 0.000000, 0.000000, 0.000000],a=0.000000, t_min = 0.024000)
speedj([0.000000, 0.000000, 0.000000, 0.000000, 0.000000, 0.000000],a=0.000000, t_min = 0.024000)
speedj([0.000000, 0.000000, 0.000000, 0.000000, 0.000000, 0.000000],a=0.000000, t_min = 0.024000)
speedj([0.000000, 0.000000, 0.000000, 0.000000, 0.000000, 0.000000],a=0.000000, t_min = 0.024000)
speedj([0.000000, 0.000000, 0.000000, 0.000000, 0.000000, 0.000000],a=0.000000, t_min = 0.024000)
speedj([0.000000, 0.000000, 0.000000, 0.000000, 0.000000, 0.000000],a=0.000000, t_min = 0.024000)
speedj([0.000000, 0.000000, 0.000000, 0.000000, 0.000000, 0.000000],a=0.000000, t_min = 0.024000)
speedj([0.000000, 0.000000, 0.000000, 0.000000, 0.000000, 0.000000],a=0.000000, t_min = 0.024000)
speedj([0.000000, 0.000000, 0.000000, 0.000000, 0.000000, 0.000000],a=0.000000, t_min = 0.024000)
speedj([0.000000, 0.000000, 0.000000, 0.000000, 0.000000, 0.000000],a=0.000000, t_min = 0.024000)
speedj([0.000000, 0.000000, 0.000000, 0.000000, 0.000000, 0.000000],a=0.000000, t_min = 0.024000)
speedj([0.000000, 0.000000, 0.000000, 0.000000, 0.000000, 0.000000],a=0.000000, t_min = 0.024000)
speedj([0.000000, 0.000000, 0.000000, 0.000000, 0.000000, 0.000000],a=0.000000, t_min = 0.024000)
speedj([0.000000, 0.000000, 0.000000, 0.000000, 0.000000, 0.000000],a=0.000000, t_min = 0.024000)
speedj([0.000000, 0.000000, 0.000000, 0.000000, 0.000000, 0.000000],a=0.000000, t_min = 0.024000)
speedj([0.000000, 0.000000, 0.000000, 0.000000, 0.000000, 0.000000],a=0.000000, t_min = 0.024000)
speedj([0.000000, 0.000000, 0.000000, 0.000000, 0.000000, 0.000000],a=0.000000, t_min = 0.024000)
speedj([0.000000, 0.000000, 0.000000, 0.000000, 0.000000, 0.000000],a=0.000000, t_min = 0.024000)
speedj([0.000000, 0.000000, 0.000000, 0.000000, 0.000000, 0.000000],a=0.000000, t_min = 0.024000)
speedj([0.000000, 0.000000, 0.000000, 0.000000, 0.000000, 0.000000],a=0.000000, t_min = 0.024000)
speedj([0.000000, 0.000000, 0.000000, 0.000000, 0.000000, 0.000000],a=0.000000, t_min = 0.024000)
speedj([0.000000, 0.000000, 0.000000, 0.000000, 0.000000, 0.000000],a=0.000000, t_min = 0.024000)
speedj([0.000000, 0.000000, 0.000000, 0.000000, 0.000000, 0.000000],a=0.000000, t_min = 0.024000)
speedj([0.000000, 0.000000, 0.000000, 0.000000, 0.000000, 0.000000],a=0.000000, t_min = 0.024000)
speedj([0.000000, 0.000000, 0.000000, 0.000000, 0.000000, 0.000000],a=0.000000, t_min = 0.024000)
speedj([0.000000, 0.000000, 0.000000, 0.000000, 0.000000, 0.000000],a=0.000000, t_min = 0.024000)
speedj([0.000000, 0.000000, 0.000000, 0.000000, 0.000000, 0.000000],a=0.000000, t_min = 0.024000)
speedj([0.000000, 0.000000, 0.000000, 0.000000, 0.000000, 0.000000],a=0.000000, t_min = 0.024000)
speedj([0.000000, 0.000000, 0.000000, 0.000000, 0.000000, 0.000000],a=0.000000, t_min = 0.024000)
speedj([0.000000, 0.000000, 0.000000, 0.000000, 0.000000, 0.000000],a=0.000000, t_min = 0.024000)
speedj([0.000000, 0.000000, 0.000000, 0.000000, 0.000000, 0.000000],a=0.000000, t_min = 0.024000)
speedj([0.000000, 0.000000, 0.000000, 0.000000, 0.000000, 0.000000],a=0.000000, t_min = 0.024000)
speedj([0.000000, 0.000000, 0.000000, 0.000000, 0.000000, 0.000000],a=0.000000, t_min = 0.024000)
speedj([0.000000, 0.000000, 0.000000, 0.000000, 0.000000, 0.000000],a=0.000000, t_min = 0.024000)
speedj([0.000000, 0.000000, 0.000000, 0.000000, 0.000000, 0.000000],a=0.000000, t_min = 0.024000)
speedj([0.000000, 0.000000, 0.000000, 0.000000, 0.000000, 0.000000],a=0.000000, t_min = 0.024000)
speedj([0.000000, 0.000000, 0.000000, 0.000000, 0.000000, 0.000000],a=0.000000, t_min = 0.024000)
speedj([0.000000, 0.000000, 0.000000, 0.000000, 0.000000, 0.000000],a=0.000000, t_min = 0.024000)
speedj([0.000000, 0.000000, 0.000000, 0.000000, 0.000000, 0.000000],a=0.000000, t_min = 0.024000)
speedj([0.000000, 0.000000, 0.000000, 0.000000, 0.000000, 0.000000],a=0.000000, t_min = 0.024000)
speedj([0.000000, 0.000000, 0.000000, 0.000000, 0.000000, 0.000000],a=0.000000, t_min = 0.024000)
speedj([0.000000, 0.000000, 0.000000, 0.000000, 0.000000, 0.000000],a=0.000000, t_min = 0.024000)
speedj([0.000000, 0.000000, 0.000000, 0.000000, 0.000000, 0.000000],a=0.000000, t_min = 0.024000)
speedj([0.000000, 0.000000, 0.000000, 0.000000, 0.000000, 0.000000],a=0.000000, t_min = 0.024000)
speedj([0.000000, 0.000000, 0.000000, 0.000000, 0.000000, 0.000000],a=0.000000, t_min = 0.024000)
speedj([0.000000, 0.000000, 0.000000, 0.000000, 0.000000, 0.000000],a=0.000000, t_min = 0.024000)
speedj([0.000000, 0.000000, 0.000000, 0.000000, 0.000000, 0.000000],a=0.000000, t_min = 0.024000)
speedj([0.000000, 0.000000, 0.000000, 0.000000, 0.000000, 0.000000],a=0.000000, t_min = 0.024000)
speedj([0.000000, 0.000000, 0.000000, 0.000000, 0.000000, 0.000000],a=0.000000, t_min = 0.024000)
speedj([0.000000, 0.000000, 0.000000, 0.000000, 0.000000, 0.000000],a=0.000000, t_min = 0.024000)
speedj([0.000000, 0.000000, 0.000000, 0.000000, 0.000000, 0.000000],a=0.000000, t_min = 0.024000)
speedj([0.000000, 0.000000, 0.000000, 0.000000, 0.000000, 0.000000],a=0.000000, t_min = 0.024000)
speedj([0.000000, 0.000000, 0.000000, 0.000000, 0.000000, 0.000000],a=0.000000, t_min = 0.024000)
speedj([0.000000, 0.000000, 0.000000, 0.000000, 0.000000, 0.000000],a=0.000000, t_min = 0.024000)
speedj([0.000000, 0.000000, 0.000000, 0.000000, 0.000000, 0.000000],a=0.000000, t_min = 0.024000)
speedj([0.000000, 0.000000, 0.000000, 0.000000, 0.000000, 0.000000],a=0.000000, t_min = 0.024000)
speedj([0.000000, 0.000000, 0.000000, 0.000000, 0.000000, 0.000000],a=0.000000, t_min = 0.024000)
speedj([0.000000, 0.000000, 0.000000, 0.000000, 0.000000, 0.000000],a=0.000000, t_min = 0.024000)
speedj([0.000000, 0.000000, 0.000000, 0.000000, 0.000000, 0.000000],a=0.000000, t_min = 0.024000)
speedj([0.000000, 0.000000, 0.000000, 0.000000, 0.000000, 0.000000],a=0.000000, t_min = 0.024000)
speedj([0.000000, 0.000000, 0.000000, 0.000000, 0.000000, 0.000000],a=0.000000, t_min = 0.024000)
speedj([0.000000, 0.000000, 0.000000, 0.000000, 0.000000, 0.000000],a=0.000000, t_min = 0.024000)
speedj([0.000000, 0.000000, 0.000000, 0.000000, 0.000000, 0.000000],a=0.000000, t_min = 0.024000)
speedj([0.000000, 0.000000, 0.000000, 0.000000, 0.000000, 0.000000],a=0.000000, t_min = 0.024000)
speedj([0.000000, 0.000000, 0.000000, 0.000000, 0.000000, 0.000000],a=0.000000, t_min = 0.024000)
speedj([0.000000, 0.000000, 0.000000, 0.000000, 0.000000, 0.000000],a=0.000000, t_min = 0.024000)
speedj([0.000000, 0.000000, 0.000000, 0.000000, 0.000000, 0.000000],a=0.000000, t_min = 0.024000)
speedj([0.000000, 0.000000, 0.000000, 0.000000, 0.000000, 0.000000],a=0.000000, t_min = 0.024000)
speedj([0.000000, 0.000000, 0.000000, 0.000000, 0.000000, 0.000000],a=0.000000, t_min = 0.024000)
speedj([0.000000, 0.000000, 0.000000, 0.000000, 0.000000, 0.000000],a=0.000000, t_min = 0.024000)
speedj([0.000000, 0.000000, 0.000000, 0.000000, 0.000000, 0.000000],a=0.000000, t_min = 0.024000)
speedj([0.000000, 0.000000, 0.000000, 0.000000, 0.000000, 0.000000],a=0.000000, t_min = 0.024000)
speedj([0.000000, 0.000000, 0.000000, 0.000000, 0.000000, 0.000000],a=0.000000, t_min = 0.024000)
speedj([0.000000, 0.000000, 0.000000, 0.000000, 0.000000, 0.000000],a=0.000000, t_min = 0.024000)
speedj([0.000000, 0.000000, 0.000000, 0.000000, 0.000000, 0.000000],a=0.000000, t_min = 0.024000)
speedj([0.000000, 0.000000, 0.000000, 0.000000, 0.000000, 0.000000],a=0.000000, t_min = 0.024000)
speedj([0.000000, 0.000000, 0.000000, 0.000000, 0.000000, 0.000000],a=0.000000, t_min = 0.024000)
speedj([0.000000, 0.000000, 0.000000, 0.000000, 0.000000, 0.000000],a=0.000000, t_min = 0.024000)
speedj([0.000000, 0.000000, 0.000000, 0.000000, 0.000000, 0.000000],a=0.000000, t_min = 0.024000)
speedj([0.000000, 0.000000, 0.000000, 0.000000, 0.000000, 0.000000],a=0.000000, t_min = 0.024000)
speedj([0.002216, 0.004788, -0.009245, 0.002063, -0.001058, -0.003073],a=0.598536, t_min = 0.024000)
speedj([0.009319, 0.020140, -0.038888, 0.008676, -0.004451, -0.012926],a=0.723137, t_min = 0.024000)
speedj([0.017296, 0.037380, -0.072175, 0.016102, -0.008261, -0.023990],a=0.723137, t_min = 0.024000)
speedj([0.025343, 0.054772, -0.105756, 0.023594, -0.012104, -0.035152],a=0.723137, t_min = 0.024000)
speedj([0.033348, 0.072070, -0.139155, 0.031045, -0.015926, -0.046253],a=0.723137, t_min = 0.024000)
speedj([0.041325, 0.089312, -0.172447, 0.038472, -0.019737, -0.057319],a=0.723137, t_min = 0.024000)
speedj([0.049365, 0.106686, -0.205993, 0.045956, -0.023576, -0.068469],a=0.723137, t_min = 0.024000)
speedj([0.057345, 0.123934, -0.239297, 0.053386, -0.027388, -0.079539],a=0.723137, t_min = 0.024000)
speedj([0.065345, 0.141223, -0.272680, 0.060834, -0.031208, -0.090634],a=0.723137, t_min = 0.024000)
speedj([0.073335, 0.158491, -0.306021, 0.068272, -0.035024, -0.101716],a=0.723137, t_min = 0.024000)
speedj([0.081333, 0.175777, -0.339397, 0.075718, -0.038844, -0.112810],a=0.723137, t_min = 0.024000)
speedj([0.089345, 0.193091, -0.372830, 0.083177, -0.042670, -0.123922],a=0.723137, t_min = 0.024000)
speedj([0.097312, 0.210309, -0.406074, 0.090593, -0.046475, -0.134972],a=0.723137, t_min = 0.024000)
speedj([0.105336, 0.227651, -0.439558, 0.098063, -0.050307, -0.146102],a=0.723137, t_min = 0.024000)
speedj([0.113367, 0.245007, -0.473070, 0.105540, -0.054143, -0.157241],a=0.723137, t_min = 0.024000)
speedj([0.121382, 0.262331, -0.506521, 0.113001, -0.057971, -0.168359],a=0.723137, t_min = 0.024000)
speedj([0.129351, 0.279551, -0.539768, 0.120419, -0.061776, -0.179410],a=0.723137, t_min = 0.024000)
speedj([0.137331, 0.296800, -0.573074, 0.127849, -0.065588, -0.190480],a=0.723137, t_min = 0.024000)
speedj([0.145347, 0.314121, -0.606518, 0.135310, -0.069416, -0.201597],a=0.723137, t_min = 0.024000)
speedj([0.153365, 0.331451, -0.639981, 0.142776, -0.073246, -0.212719],a=0.723137, t_min = 0.024000)
speedj([0.161360, 0.348731, -0.673344, 0.150219, -0.077064, -0.223808],a=0.723137, t_min = 0.024000)
speedj([0.169331, 0.365957, -0.706606, 0.157639, -0.080871, -0.234864],a=0.723137, t_min = 0.024000)
speedj([0.177352, 0.383292, -0.740076, 0.165107, -0.084702, -0.245989],a=0.723137, t_min = 0.024000)
speedj([0.185346, 0.400567, -0.773431, 0.172548, -0.088519, -0.257075],a=0.723137, t_min = 0.024000)
speedj([0.193376, 0.417922, -0.806942, 0.180024, -0.092354, -0.268214],a=0.723137, t_min = 0.024000)
speedj([0.201367, 0.435193, -0.840289, 0.187464, -0.096171, -0.279298],a=0.723137, t_min = 0.024000)
speedj([0.209393, 0.452537, -0.873778, 0.194935, -0.100004, -0.290429],a=0.723137, t_min = 0.024000)
speedj([0.217372, 0.469785, -0.907080, 0.202364, -0.103815, -0.301498],a=0.723137, t_min = 0.024000)
speedj([0.225360, 0.487046, -0.940409, 0.209800, -0.107630, -0.312576],a=0.723137, t_min = 0.024000)
speedj([0.233360, 0.504337, -0.973796, 0.217248, -0.111451, -0.323673],a=0.723137, t_min = 0.024000)
speedj([0.241359, 0.521624, -1.007173, 0.224695, -0.115271, -0.334767],a=0.723137, t_min = 0.024000)
speedj([0.249289, 0.538761, -1.040263, 0.232077, -0.119058, -0.345766],a=0.598667, t_min = 0.024000)
speedj([0.250951, 0.542353, -1.047198, 0.233624, -0.119852, -0.348071],a=0.000000, t_min = 0.024000)
speedj([0.250951, 0.542353, -1.047198, 0.233624, -0.119852, -0.348071],a=0.000000, t_min = 0.024000)
speedj([0.250951, 0.542353, -1.047198, 0.233624, -0.119852, -0.348071],a=0.000000, t_min = 0.024000)
speedj([0.250951, 0.542353, -1.047198, 0.233624, -0.119852, -0.348071],a=0.000000, t_min = 0.024000)
speedj([0.250951, 0.542353, -1.047198, 0.233624, -0.119852, -0.348071],a=0.000000, t_min = 0.024000)
speedj([0.250951, 0.542353, -1.047198, 0.233624, -0.119852, -0.348071],a=0.000000, t_min = 0.024000)
speedj([0.250951, 0.542353, -1.047198, 0.233624, -0.119852, -0.348071],a=0.000000, t_min = 0.024000)
speedj([0.250951, 0.542353, -1.047198, 0.233624, -0.119852, -0.348071],a=0.000000, t_min = 0.024000)
speedj([0.250951, 0.542353, -1.047198, 0.233624, -0.119852, -0.348071],a=0.000000, t_min = 0.024000)
speedj([0.250951, 0.542353, -1.047198, 0.233624, -0.119852, -0.348071],a=0.000000, t_min = 0.024000)
speedj([0.250951, 0.542353, -1.047198, 0.233624, -0.119852, -0.348071],a=0.000000, t_min = 0.024000)
speedj([0.250951, 0.542353, -1.047198, 0.233624, -0.119852, -0.348071],a=0.000000, t_min = 0.024000)
speedj([0.250951, 0.542353, -1.047198, 0.233624, -0.119852, -0.348071],a=0.000000, t_min = 0.024000)
speedj([0.250951, 0.542353, -1.047198, 0.233624, -0.119852, -0.348071],a=0.000000, t_min = 0.024000)
speedj([0.250951, 0.542353, -1.047198, 0.233624, -0.119852, -0.348071],a=0.000000, t_min = 0.024000)
speedj([0.250951, 0.542353, -1.047198, 0.233624, -0.119852, -0.348071],a=0.000000, t_min = 0.024000)
speedj([0.250951, 0.542353, -1.047198, 0.233624, -0.119852, -0.348071],a=0.000000, t_min = 0.024000)
speedj([0.250951, 0.542353, -1.047198, 0.233624, -0.119852, -0.348071],a=0.000000, t_min = 0.024000)
speedj([0.250951, 0.542353, -1.047198, 0.233624, -0.119852, -0.348071],a=0.000000, t_min = 0.024000)
speedj([0.250951, 0.542353, -1.047198, 0.233624, -0.119852, -0.348071],a=0.000000, t_min = 0.024000)
speedj([0.250951, 0.542353, -1.047198, 0.233624, -0.119852, -0.348071],a=0.000000, t_min = 0.024000)
speedj([0.250951, 0.542353, -1.047198, 0.233624, -0.119852, -0.348071],a=0.000000, t_min = 0.024000)
speedj([0.250951, 0.542353, -1.047198, 0.233624, -0.119852, -0.348071],a=0.000000, t_min = 0.024000)
speedj([0.250951, 0.542353, -1.047198, 0.233624, -0.119852, -0.348071],a=0.000000, t_min = 0.024000)
speedj([0.250951, 0.542353, -1.047198, 0.233624, -0.119852, -0.348071],a=0.000000, t_min = 0.024000)
speedj([0.250951, 0.542353, -1.047198, 0.233624, -0.119852, -0.348071],a=0.000000, t_min = 0.024000)
speedj([0.250951, 0.542353, -1.047198, 0.233624, -0.119852, -0.348071],a=0.000000, t_min = 0.024000)
speedj([0.250951, 0.542353, -1.047198, 0.233624, -0.119852, -0.348071],a=0.000000, t_min = 0.024000)
speedj([0.250951, 0.542353, -1.047198, 0.233624, -0.119852, -0.348071],a=0.000000, t_min = 0.024000)
speedj([0.250951, 0.542353, -1.047198, 0.233624, -0.119852, -0.348071],a=0.000000, t_min = 0.024000)
speedj([0.250951, 0.542353, -1.047198, 0.233624, -0.119852, -0.348071],a=0.000000, t_min = 0.024000)
speedj([0.250951, 0.542353, -1.047198, 0.233624, -0.119852, -0.348071],a=0.000000, t_min = 0.024000)
speedj([0.250951, 0.542353, -1.047198, 0.233624, -0.119852, -0.348071],a=0.000000, t_min = 0.024000)
speedj([0.250951, 0.542353, -1.047198, 0.233624, -0.119852, -0.348071],a=0.000000, t_min = 0.024000)
speedj([0.250951, 0.542353, -1.047198, 0.233624, -0.119852, -0.348071],a=0.000000, t_min = 0.024000)
speedj([0.250951, 0.542353, -1.047198, 0.233624, -0.119852, -0.348071],a=0.000000, t_min = 0.024000)
speedj([0.250951, 0.542353, -1.047198, 0.233624, -0.119852, -0.348071],a=0.000000, t_min = 0.024000)
speedj([0.250808, 0.542045, -1.046603, 0.233491, -0.119784, -0.347873],a=0.349226, t_min = 0.024000)
speedj([0.248392, 0.536824, -1.036522, 0.231243, -0.118630, -0.344523],a=1.396263, t_min = 0.024000)
speedj([0.240427, 0.519609, -1.003284, 0.223827, -0.114826, -0.333474],a=1.396263, t_min = 0.024000)
speedj([0.232345, 0.502143, -0.969558, 0.216303, -0.110965, -0.322264],a=1.396263, t_min = 0.024000)
speedj([0.224374, 0.484915, -0.936294, 0.208882, -0.107159, -0.311208],a=1.396263, t_min = 0.024000)
speedj([0.216377, 0.467631, -0.902923, 0.201437, -0.103339, -0.300116],a=1.396263, t_min = 0.024000)
speedj([0.208401, 0.450394, -0.869640, 0.194012, -0.099530, -0.289053],a=1.396263, t_min = 0.024000)
speedj([0.200377, 0.433053, -0.836156, 0.186542, -0.095698, -0.277924],a=1.396263, t_min = 0.024000)
speedj([0.192359, 0.415723, -0.802697, 0.179077, -0.091869, -0.266803],a=1.396263, t_min = 0.024000)
speedj([0.184362, 0.398440, -0.769326, 0.171632, -0.088049, -0.255711],a=1.396263, t_min = 0.024000)
speedj([0.176374, 0.381180, -0.735997, 0.164197, -0.084235, -0.244633],a=1.396263, t_min = 0.024000)
speedj([0.168406, 0.363958, -0.702746, 0.156779, -0.080429, -0.233581],a=1.396263, t_min = 0.024000)
speedj([0.160368, 0.346587, -0.669206, 0.149296, -0.076591, -0.222433],a=1.396263, t_min = 0.024000)
speedj([0.152342, 0.329242, -0.635713, 0.141824, -0.072757, -0.211300],a=1.396263, t_min = 0.024000)
speedj([0.144400, 0.312076, -0.602570, 0.134430, -0.068964, -0.200284],a=1.396263, t_min = 0.024000)
speedj([0.136310, 0.294592, -0.568810, 0.126898, -0.065100, -0.189063],a=1.396263, t_min = 0.024000)
speedj([0.128345, 0.277378, -0.535572, 0.119483, -0.061297, -0.178016],a=1.396263, t_min = 0.024000)
speedj([0.120352, 0.260105, -0.502222, 0.112043, -0.057479, -0.166930],a=1.396263, t_min = 0.024000)
speedj([0.112333, 0.242774, -0.468759, 0.104577, -0.053649, -0.155807],a=1.396263, t_min = 0.024000)
speedj([0.104373, 0.225569, -0.435539, 0.097166, -0.049847, -0.144766],a=1.396263, t_min = 0.024000)
speedj([0.096372, 0.208279, -0.402154, 0.089718, -0.046027, -0.133670],a=1.396263, t_min = 0.024000)
speedj([0.088351, 0.190943, -0.368681, 0.082250, -0.042196, -0.122543],a=1.396263, t_min = 0.024000)
speedj([0.080353, 0.173659, -0.335308, 0.074805, -0.038376, -0.111451],a=1.396263, t_min = 0.024000)
speedj([0.072381, 0.156429, -0.302039, 0.067383, -0.034568, -0.100393],a=1.396263, t_min = 0.024000)
speedj([0.064348, 0.139068, -0.268518, 0.059905, -0.030732, -0.089250],a=1.396263, t_min = 0.024000)
speedj([0.056323, 0.121724, -0.235029, 0.052433, -0.026899, -0.078119],a=1.396263, t_min = 0.024000)
speedj([0.048329, 0.104447, -0.201671, 0.044991, -0.023081, -0.067032],a=1.396263, t_min = 0.024000)
speedj([0.040330, 0.087162, -0.168296, 0.037545, -0.019261, -0.055938],a=1.396263, t_min = 0.024000)
speedj([0.032333, 0.069877, -0.134922, 0.030100, -0.015442, -0.044845],a=1.396263, t_min = 0.024000)
speedj([0.024342, 0.052609, -0.101580, 0.022662, -0.011626, -0.033763],a=1.396263, t_min = 0.024000)
speedj([0.016316, 0.035262, -0.068086, 0.015190, -0.007793, -0.022630],a=1.396263, t_min = 0.024000)
speedj([0.008348, 0.018042, -0.034835, 0.007772, -0.003987, -0.011578],a=1.396263, t_min = 0.024000)
speedj([0.001252, 0.002705, -0.005222, 0.001165, -0.000598, -0.001736],a=1.215360, t_min = 0.024000)
speedj([0.000000, 0.000000, 0.000000, 0.000000, 0.000000, 0.000000],a=0.000000, t_min = 0.024000)
speedj([0.000000, 0.000000, 0.000000, 0.000000, 0.000000, 0.000000],a=0.000000, t_min = 0.024000)
speedj([-0.001225, -0.002645, 0.005107, -0.001139, 0.000584, 0.001697],a=0.638466, t_min = 0.024000)
speedj([-0.006306, -0.013619, 0.026301, -0.005866, 0.003008, 0.008738],a=1.396263, t_min = 0.024000)
speedj([-0.014358, -0.031012, 0.059889, -0.013358, 0.006851, 0.019897],a=1.396263, t_min = 0.024000)
speedj([-0.022403, -0.048387, 0.093444, -0.020842, 0.010689, 0.031045],a=1.396263, t_min = 0.024000)
speedj([-0.030437, -0.065740, 0.126956, -0.028316, 0.014522, 0.042179],a=1.396263, t_min = 0.024000)
speedj([-0.038398, -0.082935, 0.160161, -0.035723, 0.018320, 0.053210],a=1.396263, t_min = 0.024000)
speedj([-0.046414, -0.100248, 0.193597, -0.043180, 0.022145, 0.064319],a=1.396263, t_min = 0.024000)
speedj([-0.054411, -0.117519, 0.226951, -0.050620, 0.025960, 0.075401],a=1.396263, t_min = 0.024000)
speedj([-0.062370, -0.134711, 0.260150, -0.058025, 0.029758, 0.086431],a=1.396263, t_min = 0.024000)
speedj([-0.070488, -0.152245, 0.294012, -0.065577, 0.033631, 0.097680],a=1.396263, t_min = 0.024000)
speedj([-0.078409, -0.169353, 0.327050, -0.072946, 0.037411, 0.108656],a=1.396263, t_min = 0.024000)
speedj([-0.086444, -0.186708, 0.360565, -0.080422, 0.041244, 0.119791],a=1.396263, t_min = 0.024000)
speedj([-0.094415, -0.203923, 0.393811, -0.087837, 0.045047, 0.130837],a=1.396263, t_min = 0.024000)
speedj([-0.102418, -0.221208, 0.427191, -0.095282, 0.048866, 0.141927],a=1.396263, t_min = 0.024000)
speedj([-0.110453, -0.238564, 0.460708, -0.102758, 0.052700, 0.153062],a=1.396263, t_min = 0.024000)
speedj([-0.118444, -0.255825, 0.494042, -0.110193, 0.056513, 0.164137],a=1.396263, t_min = 0.024000)
speedj([-0.126448, -0.273111, 0.527425, -0.117639, 0.060331, 0.175228],a=1.396263, t_min = 0.024000)
speedj([-0.134390, -0.290266, 0.560554, -0.125028, 0.064120, 0.186235],a=1.396263, t_min = 0.024000)
speedj([-0.142430, -0.307632, 0.594091, -0.132508, 0.067956, 0.197376],a=1.396263, t_min = 0.024000)
speedj([-0.150478, -0.325014, 0.627658, -0.139995, 0.071796, 0.208528],a=1.396263, t_min = 0.024000)
speedj([-0.158468, -0.342271, 0.660984, -0.147428, 0.075608, 0.219601],a=1.396263, t_min = 0.024000)
speedj([-0.166399, -0.359402, 0.694067, -0.154807, 0.079393, 0.230592],a=1.396263, t_min = 0.024000)
speedj([-0.174475, -0.376843, 0.727749, -0.162319, 0.083246, 0.241782],a=1.396263, t_min = 0.024000)
speedj([-0.182469, -0.394110, 0.761095, -0.169757, 0.087060, 0.252861],a=1.396263, t_min = 0.024000)
speedj([-0.190477, -0.411406, 0.794496, -0.177208, 0.090881, 0.263957],a=1.396263, t_min = 0.024000)
speedj([-0.198532, -0.428804, 0.828095, -0.184701, 0.094724, 0.275121],a=1.396263, t_min = 0.024000)
speedj([-0.206507, -0.446028, 0.861358, -0.192121, 0.098529, 0.286172],a=1.396263, t_min = 0.024000)
speedj([-0.214489, -0.463269, 0.894653, -0.199547, 0.102338, 0.297233],a=1.396263, t_min = 0.024000)
speedj([-0.222529, -0.480634, 0.928186, -0.207026, 0.106173, 0.308374],a=1.396263, t_min = 0.024000)
speedj([-0.230472, -0.497789, 0.961317, -0.214415, 0.109963, 0.319381],a=1.396263, t_min = 0.024000)
speedj([-0.238503, -0.515136, 0.994817, -0.221888, 0.113795, 0.330511],a=1.396263, t_min = 0.024000)
speedj([-0.246540, -0.532495, 1.028339, -0.229364, 0.117629, 0.341648],a=1.396263, t_min = 0.024000)
speedj([-0.251061, -0.542260, 1.047198, -0.233571, 0.119787, 0.347913],a=0.000000, t_min = 0.024000)
speedj([-0.251061, -0.542260, 1.047198, -0.233571, 0.119787, 0.347913],a=0.000000, t_min = 0.024000)
speedj([-0.251061, -0.542260, 1.047198, -0.233571, 0.119787, 0.347913],a=0.000000, t_min = 0.024000)
speedj([-0.251061, -0.542260, 1.047198, -0.233571, 0.119787, 0.347913],a=0.000000, t_min = 0.024000)
speedj([-0.251061, -0.542260, 1.047198, -0.233571, 0.119787, 0.347913],a=0.000000, t_min = 0.024000)
speedj([-0.251061, -0.542260, 1.047198, -0.233571, 0.119787, 0.347913],a=0.000000, t_min = 0.024000)
speedj([-0.251061, -0.542260, 1.047198, -0.233571, 0.119787, 0.347913],a=0.000000, t_min = 0.024000)
speedj([-0.251061, -0.542260, 1.047198, -0.233571, 0.119787, 0.347913],a=0.000000, t_min = 0.024000)
speedj([-0.251061, -0.542260, 1.047198, -0.233571, 0.119787, 0.347913],a=0.000000, t_min = 0.024000)
speedj([-0.251061, -0.542260, 1.047198, -0.233571, 0.119787, 0.347913],a=0.000000, t_min = 0.024000)
speedj([-0.251061, -0.542260, 1.047198, -0.233571, 0.119787, 0.347913],a=0.000000, t_min = 0.024000)
speedj([-0.251061, -0.542260, 1.047198, -0.233571, 0.119787, 0.347913],a=0.000000, t_min = 0.024000)
speedj([-0.251061, -0.542260, 1.047198, -0.233571, 0.119787, 0.347913],a=0.000000, t_min = 0.024000)
speedj([-0.251061, -0.542260, 1.047198, -0.233571, 0.119787, 0.347913],a=0.000000, t_min = 0.024000)
speedj([-0.251061, -0.542260, 1.047198, -0.233571, 0.119787, 0.347913],a=0.000000, t_min = 0.024000)
speedj([-0.251061, -0.542260, 1.047198, -0.233571, 0.119787, 0.347913],a=0.000000, t_min = 0.024000)
speedj([-0.251061, -0.542260, 1.047198, -0.233571, 0.119787, 0.347913],a=0.000000, t_min = 0.024000)
speedj([-0.251061, -0.542260, 1.047198, -0.233571, 0.119787, 0.347913],a=0.000000, t_min = 0.024000)
speedj([-0.251061, -0.542260, 1.047198, -0.233571, 0.119787, 0.347913],a=0.000000, t_min = 0.024000)
speedj([-0.251061, -0.542260, 1.047198, -0.233571, 0.119787, 0.347913],a=0.000000, t_min = 0.024000)
speedj([-0.251061, -0.542260, 1.047198, -0.233571, 0.119787, 0.347913],a=0.000000, t_min = 0.024000)
speedj([-0.251061, -0.542260, 1.047198, -0.233571, 0.119787, 0.347913],a=0.000000, t_min = 0.024000)
speedj([-0.251061, -0.542260, 1.047198, -0.233571, 0.119787, 0.347913],a=0.000000, t_min = 0.024000)
speedj([-0.251061, -0.542260, 1.047198, -0.233571, 0.119787, 0.347913],a=0.000000, t_min = 0.024000)
speedj([-0.251061, -0.542260, 1.047198, -0.233571, 0.119787, 0.347913],a=0.000000, t_min = 0.024000)
speedj([-0.251061, -0.542260, 1.047198, -0.233571, 0.119787, 0.347913],a=0.000000, t_min = 0.024000)
speedj([-0.251061, -0.542260, 1.047198, -0.233571, 0.119787, 0.347913],a=0.000000, t_min = 0.024000)
speedj([-0.251061, -0.542260, 1.047198, -0.233571, 0.119787, 0.347913],a=0.000000, t_min = 0.024000)
speedj([-0.251061, -0.542260, 1.047198, -0.233571, 0.119787, 0.347913],a=0.000000, t_min = 0.024000)
speedj([-0.251061, -0.542260, 1.047198, -0.233571, 0.119787, 0.347913],a=0.000000, t_min = 0.024000)
speedj([-0.251061, -0.542260, 1.047198, -0.233571, 0.119787, 0.347913],a=0.000000, t_min = 0.024000)
speedj([-0.251061, -0.542260, 1.047198, -0.233571, 0.119787, 0.347913],a=0.000000, t_min = 0.024000)
speedj([-0.251061, -0.542260, 1.047198, -0.233571, 0.119787, 0.347913],a=0.000000, t_min = 0.024000)
speedj([-0.251061, -0.542260, 1.047198, -0.233571, 0.119787, 0.347913],a=0.000000, t_min = 0.024000)
speedj([-0.251061, -0.542260, 1.047198, -0.233571, 0.119787, 0.347913],a=0.000000, t_min = 0.024000)
speedj([-0.251061, -0.542260, 1.047198, -0.233571, 0.119787, 0.347913],a=0.000000, t_min = 0.024000)
speedj([-0.251061, -0.542260, 1.047198, -0.233571, 0.119787, 0.347913],a=0.000000, t_min = 0.024000)
speedj([-0.251061, -0.542260, 1.047198, -0.233571, 0.119787, 0.347913],a=0.000000, t_min = 0.024000)
speedj([-0.250507, -0.541062, 1.044884, -0.233055, 0.119522, 0.347144],a=0.638072, t_min = 0.024000)
speedj([-0.243402, -0.525717, 1.015249, -0.226445, 0.116132, 0.337299],a=0.723014, t_min = 0.024000)
speedj([-0.235316, -0.508252, 0.981521, -0.218922, 0.112274, 0.326094],a=0.723014, t_min = 0.024000)
speedj([-0.227380, -0.491111, 0.948420, -0.211539, 0.108488, 0.315096],a=0.723014, t_min = 0.024000)
speedj([-0.219350, -0.473767, 0.914926, -0.204068, 0.104656, 0.303968],a=0.723014, t_min = 0.024000)
speedj([-0.211363, -0.456516, 0.881611, -0.196638, 0.100845, 0.292900],a=0.723014, t_min = 0.024000)
speedj([-0.203337, -0.439183, 0.848137, -0.189172, 0.097017, 0.281779],a=0.723014, t_min = 0.024000)
speedj([-0.195366, -0.421964, 0.814887, -0.181755, 0.093213, 0.270732],a=0.723014, t_min = 0.024000)
speedj([-0.187347, -0.404645, 0.781440, -0.174295, 0.089387, 0.259620],a=0.723014, t_min = 0.024000)
speedj([-0.179384, -0.387447, 0.748225, -0.166887, 0.085588, 0.248585],a=0.723014, t_min = 0.024000)
speedj([-0.171345, -0.370083, 0.714695, -0.159408, 0.081753, 0.237445],a=0.723014, t_min = 0.024000)
speedj([-0.163344, -0.352803, 0.681323, -0.151965, 0.077935, 0.226358],a=0.723014, t_min = 0.024000)
speedj([-0.155322, -0.335475, 0.647860, -0.144501, 0.074108, 0.215241],a=0.723014, t_min = 0.024000)
speedj([-0.147309, -0.318169, 0.614438, -0.137046, 0.070284, 0.204136],a=0.723014, t_min = 0.024000)
speedj([-0.139312, -0.300896, 0.581082, -0.129607, 0.066469, 0.193055],a=0.723014, t_min = 0.024000)
speedj([-0.131313, -0.283619, 0.547717, -0.122165, 0.062652, 0.181970],a=0.723014, t_min = 0.024000)
speedj([-0.123278, -0.266265, 0.514204, -0.114690, 0.058819, 0.170836],a=0.723014, t_min = 0.024000)
speedj([-0.115315, -0.249067, 0.480992, -0.107282, 0.055019, 0.159801],a=0.723014, t_min = 0.024000)
speedj([-0.107343, -0.231847, 0.447736, -0.099865, 0.051215, 0.148752],a=0.723014, t_min = 0.024000)
speedj([-0.099316, -0.214509, 0.414254, -0.092397, 0.047386, 0.137629],a=0.723014, t_min = 0.024000)
speedj([-0.091281, -0.197155, 0.380740, -0.084922, 0.043552, 0.126495],a=0.723014, t_min = 0.024000)
speedj([-0.083298, -0.179911, 0.347439, -0.077494, 0.039743, 0.115431],a=0.723014, t_min = 0.024000)
speedj([-0.075320, -0.162682, 0.314166, -0.070073, 0.035937, 0.104376],a=0.723014, t_min = 0.024000)
speedj([-0.067323, -0.145408, 0.280809, -0.062632, 0.032121, 0.093294],a=0.723014, t_min = 0.024000)
speedj([-0.059265, -0.128005, 0.247199, -0.055137, 0.028277, 0.082128],a=0.723014, t_min = 0.024000)
speedj([-0.051270, -0.110736, 0.213849, -0.047698, 0.024462, 0.071048],a=0.723014, t_min = 0.024000)
speedj([-0.043275, -0.093468, 0.180504, -0.040260, 0.020647, 0.059969],a=0.723014, t_min = 0.024000)
speedj([-0.035253, -0.076141, 0.147041, -0.032797, 0.016820, 0.048852],a=0.723014, t_min = 0.024000)
speedj([-0.027260, -0.058879, 0.113705, -0.025362, 0.013007, 0.037776],a=0.723014, t_min = 0.024000)
speedj([-0.019214, -0.041499, 0.080142, -0.017875, 0.009167, 0.026626],a=0.723014, t_min = 0.024000)
speedj([-0.011293, -0.024391, 0.047102, -0.010506, 0.005388, 0.015649],a=0.723014, t_min = 0.024000)
speedj([-0.003266, -0.007054, 0.013623, -0.003038, 0.001558, 0.004526],a=0.723014, t_min = 0.024000)
speedj([-0.000326, -0.000703, 0.001358, -0.000303, 0.000155, 0.000451],a=0.170543, t_min = 0.024000)
speedj([0.000000, 0.000000, 0.000000, 0.000000, 0.000000, 0.000000],a=0.000000, t_min = 0.024000)
speedj([0.000512, 0.001106, -0.002137, 0.000477, -0.000245, -0.000710],a=0.069148, t_min = 0.024000)
speedj([0.006064, 0.013099, -0.025298, 0.005644, -0.002896, -0.008410],a=0.723008, t_min = 0.024000)
speedj([0.014093, 0.030444, -0.058795, 0.013118, -0.006730, -0.019546],a=0.723008, t_min = 0.024000)
speedj([0.022106, 0.047756, -0.092226, 0.020576, -0.010558, -0.030661],a=0.723008, t_min = 0.024000)
speedj([0.030108, 0.065042, -0.125608, 0.028024, -0.014378, -0.041759],a=0.723008, t_min = 0.024000)
speedj([0.038088, 0.082281, -0.158900, 0.035451, -0.018190, -0.052826],a=0.723008, t_min = 0.024000)
speedj([0.046090, 0.099568, -0.192285, 0.042900, -0.022011, -0.063925],a=0.723008, t_min = 0.024000)
speedj([0.054108, 0.116888, -0.225734, 0.050362, -0.025841, -0.075046],a=0.723008, t_min = 0.024000)
speedj([0.062101, 0.134156, -0.259080, 0.057802, -0.029658, -0.086132],a=0.723008, t_min = 0.024000)
speedj([0.070139, 0.151521, -0.292615, 0.065283, -0.033497, -0.097281],a=0.723008, t_min = 0.024000)
speedj([0.078079, 0.168673, -0.325739, 0.072674, -0.037288, -0.108293],a=0.723008, t_min = 0.024000)
speedj([0.086098, 0.185996, -0.359194, 0.080137, -0.041118, -0.119415],a=0.723008, t_min = 0.024000)
speedj([0.094127, 0.203343, -0.392693, 0.087611, -0.044953, -0.130551],a=0.723008, t_min = 0.024000)
speedj([0.102114, 0.220597, -0.426013, 0.095045, -0.048767, -0.141629],a=0.723008, t_min = 0.024000)
speedj([0.110111, 0.237872, -0.459376, 0.102489, -0.052587, -0.152720],a=0.723008, t_min = 0.024000)
speedj([0.118148, 0.255235, -0.492906, 0.109969, -0.056424, -0.163868],a=0.723008, t_min = 0.024000)
speedj([0.126159, 0.272540, -0.526325, 0.117425, -0.060250, -0.174978],a=0.723008, t_min = 0.024000)
speedj([0.134141, 0.289785, -0.559628, 0.124856, -0.064063, -0.186050],a=0.723008, t_min = 0.024000)
speedj([0.142119, 0.307020, -0.592912, 0.132281, -0.067873, -0.197115],a=0.723008, t_min = 0.024000)
speedj([0.150150, 0.324369, -0.626417, 0.139756, -0.071708, -0.208254],a=0.723008, t_min = 0.024000)
speedj([0.158185, 0.341727, -0.659939, 0.147234, -0.075545, -0.219398],a=0.723008, t_min = 0.024000)
speedj([0.166127, 0.358884, -0.693073, 0.154627, -0.079338, -0.230414],a=0.723008, t_min = 0.024000)
speedj([0.174127, 0.376166, -0.726447, 0.162073, -0.083159, -0.241509],a=0.723008, t_min = 0.024000)
speedj([0.182109, 0.393408, -0.759743, 0.169501, -0.086971, -0.252578],a=0.723008, t_min = 0.024000)
speedj([0.190172, 0.410829, -0.793386, 0.177007, -0.090821, -0.263762],a=0.723008, t_min = 0.024000)
speedj([0.198160, 0.428083, -0.826708, 0.184442, -0.094636, -0.274841],a=0.723008, t_min = 0.024000)
speedj([0.206160, 0.445367, -0.860087, 0.191889, -0.098457, -0.285938],a=0.723008, t_min = 0.024000)
speedj([0.214177, 0.462685, -0.893531, 0.199350, -0.102286, -0.297056],a=0.723008, t_min = 0.024000)
speedj([0.222206, 0.480030, -0.927028, 0.206824, -0.106120, -0.308193],a=0.723008, t_min = 0.024000)
speedj([0.230192, 0.497284, -0.960347, 0.214257, -0.109934, -0.319269],a=0.723008, t_min = 0.024000)
speedj([0.238190, 0.514562, -0.993714, 0.221701, -0.113754, -0.330362],a=0.723008, t_min = 0.024000)
speedj([0.245979, 0.531387, -1.026207, 0.228950, -0.117473, -0.341165],a=0.494085, t_min = 0.024000)
speedj([0.251010, 0.542256, -1.047198, 0.233634, -0.119876, -0.348143],a=0.000000, t_min = 0.024000)
speedj([0.251010, 0.542256, -1.047198, 0.233634, -0.119876, -0.348143],a=0.000000, t_min = 0.024000)
speedj([0.251010, 0.542256, -1.047198, 0.233634, -0.119876, -0.348143],a=0.000000, t_min = 0.024000)
speedj([0.251010, 0.542256, -1.047198, 0.233634, -0.119876, -0.348143],a=0.000000, t_min = 0.024000)
speedj([0.251010, 0.542256, -1.047198, 0.233634, -0.119876, -0.348143],a=0.000000, t_min = 0.024000)
speedj([0.251010, 0.542256, -1.047198, 0.233634, -0.119876, -0.348143],a=0.000000, t_min = 0.024000)
speedj([0.251010, 0.542256, -1.047198, 0.233634, -0.119876, -0.348143],a=0.000000, t_min = 0.024000)
speedj([0.251010, 0.542256, -1.047198, 0.233634, -0.119876, -0.348143],a=0.000000, t_min = 0.024000)
speedj([0.251010, 0.542256, -1.047198, 0.233634, -0.119876, -0.348143],a=0.000000, t_min = 0.024000)
speedj([0.251010, 0.542256, -1.047198, 0.233634, -0.119876, -0.348143],a=0.000000, t_min = 0.024000)
speedj([0.251010, 0.542256, -1.047198, 0.233634, -0.119876, -0.348143],a=0.000000, t_min = 0.024000)
speedj([0.251010, 0.542256, -1.047198, 0.233634, -0.119876, -0.348143],a=0.000000, t_min = 0.024000)
speedj([0.251010, 0.542256, -1.047198, 0.233634, -0.119876, -0.348143],a=0.000000, t_min = 0.024000)
speedj([0.251010, 0.542256, -1.047198, 0.233634, -0.119876, -0.348143],a=0.000000, t_min = 0.024000)
speedj([0.251010, 0.542256, -1.047198, 0.233634, -0.119876, -0.348143],a=0.000000, t_min = 0.024000)
speedj([0.251010, 0.542256, -1.047198, 0.233634, -0.119876, -0.348143],a=0.000000, t_min = 0.024000)
speedj([0.251010, 0.542256, -1.047198, 0.233634, -0.119876, -0.348143],a=0.000000, t_min = 0.024000)
speedj([0.251010, 0.542256, -1.047198, 0.233634, -0.119876, -0.348143],a=0.000000, t_min = 0.024000)
speedj([0.251010, 0.542256, -1.047198, 0.233634, -0.119876, -0.348143],a=0.000000, t_min = 0.024000)
speedj([0.251010, 0.542256, -1.047198, 0.233634, -0.119876, -0.348143],a=0.000000, t_min = 0.024000)
speedj([0.251010, 0.542256, -1.047198, 0.233634, -0.119876, -0.348143],a=0.000000, t_min = 0.024000)
speedj([0.251010, 0.542256, -1.047198, 0.233634, -0.119876, -0.348143],a=0.000000, t_min = 0.024000)
speedj([0.251010, 0.542256, -1.047198, 0.233634, -0.119876, -0.348143],a=0.000000, t_min = 0.024000)
speedj([0.251010, 0.542256, -1.047198, 0.233634, -0.119876, -0.348143],a=0.000000, t_min = 0.024000)
speedj([0.251010, 0.542256, -1.047198, 0.233634, -0.119876, -0.348143],a=0.000000, t_min = 0.024000)
speedj([0.251010, 0.542256, -1.047198, 0.233634, -0.119876, -0.348143],a=0.000000, t_min = 0.024000)
speedj([0.251010, 0.542256, -1.047198, 0.233634, -0.119876, -0.348143],a=0.000000, t_min = 0.024000)
speedj([0.251010, 0.542256, -1.047198, 0.233634, -0.119876, -0.348143],a=0.000000, t_min = 0.024000)
speedj([0.251010, 0.542256, -1.047198, 0.233634, -0.119876, -0.348143],a=0.000000, t_min = 0.024000)
speedj([0.251010, 0.542256, -1.047198, 0.233634, -0.119876, -0.348143],a=0.000000, t_min = 0.024000)
speedj([0.251010, 0.542256, -1.047198, 0.233634, -0.119876, -0.348143],a=0.000000, t_min = 0.024000)
speedj([0.251010, 0.542256, -1.047198, 0.233634, -0.119876, -0.348143],a=0.000000, t_min = 0.024000)
speedj([0.251010, 0.542256, -1.047198, 0.233634, -0.119876, -0.348143],a=0.000000, t_min = 0.024000)
speedj([0.251010, 0.542256, -1.047198, 0.233634, -0.119876, -0.348143],a=0.000000, t_min = 0.024000)
speedj([0.251010, 0.542256, -1.047198, 0.233634, -0.119876, -0.348143],a=0.000000, t_min = 0.024000)
speedj([0.251010, 0.542256, -1.047198, 0.233634, -0.119876, -0.348143],a=0.000000, t_min = 0.024000)
speedj([0.251010, 0.542256, -1.047198, 0.233634, -0.119876, -0.348143],a=0.000000, t_min = 0.024000)
speedj([0.251010, 0.542256, -1.047198, 0.233634, -0.119876, -0.348143],a=0.000000, t_min = 0.024000)
speedj([0.249309, 0.538580, -1.040098, 0.232050, -0.119063, -0.345783],a=0.716432, t_min = 0.024000)
speedj([0.243631, 0.526315, -1.016412, 0.226765, -0.116352, -0.337908],a=1.396263, t_min = 0.024000)
speedj([0.235618, 0.509005, -0.982985, 0.219307, -0.112526, -0.326795],a=1.396263, t_min = 0.024000)
speedj([0.227652, 0.491796, -0.949750, 0.211893, -0.108721, -0.315746],a=1.396263, t_min = 0.024000)
speedj([0.219593, 0.474387, -0.916128, 0.204391, -0.104872, -0.304569],a=1.396263, t_min = 0.024000)
speedj([0.211592, 0.457101, -0.882747, 0.196944, -0.101051, -0.293471],a=1.396263, t_min = 0.024000)
speedj([0.203599, 0.439835, -0.849403, 0.189505, -0.097234, -0.282386],a=1.396263, t_min = 0.024000)
speedj([0.195607, 0.422569, -0.816059, 0.182066, -0.093417, -0.271300],a=1.396263, t_min = 0.024000)
speedj([0.187583, 0.405236, -0.782586, 0.174598, -0.089585, -0.260172],a=1.396263, t_min = 0.024000)
speedj([0.179575, 0.387936, -0.749175, 0.167144, -0.085760, -0.249065],a=1.396263, t_min = 0.024000)
speedj([0.171602, 0.370712, -0.715912, 0.159723, -0.081953, -0.238006],a=1.396263, t_min = 0.024000)
speedj([0.163620, 0.353469, -0.682615, 0.152294, -0.078142, -0.226937],a=1.396263, t_min = 0.024000)
speedj([0.155567, 0.336071, -0.649015, 0.144798, -0.074295, -0.215767],a=1.396263, t_min = 0.024000)
speedj([0.147582, 0.318820, -0.615701, 0.137365, -0.070481, -0.204692],a=1.396263, t_min = 0.024000)
speedj([0.139591, 0.301557, -0.582363, 0.129927, -0.066665, -0.193608],a=1.396263, t_min = 0.024000)
speedj([0.131556, 0.284201, -0.548845, 0.122450, -0.062828, -0.182465],a=1.396263, t_min = 0.024000)
speedj([0.123582, 0.266973, -0.515574, 0.115026, -0.059020, -0.171404],a=1.396263, t_min = 0.024000)
speedj([0.115544, 0.249609, -0.482041, 0.107545, -0.055181, -0.160255],a=1.396263, t_min = 0.024000)
speedj([0.107562, 0.232366, -0.448741, 0.100116, -0.051369, -0.149185],a=1.396263, t_min = 0.024000)
speedj([0.099465, 0.214875, -0.414963, 0.092579, -0.047502, -0.137956],a=1.396263, t_min = 0.024000)
speedj([0.091517, 0.197705, -0.381805, 0.085182, -0.043707, -0.126931],a=1.396263, t_min = 0.024000)
speedj([0.083526, 0.180440, -0.348464, 0.077743, -0.039890, -0.115847],a=1.396263, t_min = 0.024000)
speedj([0.075538, 0.163184, -0.315138, 0.070309, -0.036075, -0.104768],a=1.396263, t_min = 0.024000)
speedj([0.067541, 0.145909, -0.281777, 0.062865, -0.032256, -0.093677],a=1.396263, t_min = 0.024000)
speedj([0.059538, 0.128620, -0.248388, 0.055416, -0.028433, -0.082577],a=1.396263, t_min = 0.024000)
speedj([0.051523, 0.111305, -0.214950, 0.047956, -0.024606, -0.071461],a=1.396263, t_min = 0.024000)
speedj([0.043501, 0.093974, -0.181482, 0.040490, -0.020775, -0.060334],a=1.396263, t_min = 0.024000)
speedj([0.035545, 0.076788, -0.148293, 0.033085, -0.016976, -0.049300],a=1.396263, t_min = 0.024000)
speedj([0.027515, 0.059441, -0.114792, 0.025610, -0.013140, -0.038163],a=1.396263, t_min = 0.024000)
speedj([0.019486, 0.042095, -0.081293, 0.018137, -0.009306, -0.027026],a=1.396263, t_min = 0.024000)
speedj([0.011498, 0.024838, -0.047967, 0.010702, -0.005491, -0.015947],a=1.396263, t_min = 0.024000)
speedj([0.003508, 0.007578, -0.014636, 0.003265, -0.001676, -0.004866],a=1.396263, t_min = 0.024000)
speedj([0.000000, 0.000000, -0.000000, -0.000000, -0.000000, -0.000000],a=0.839306, t_min = 0.024000)
speedj([0.000000, 0.000000, 0.000000, 0.000000, 0.000000, 0.000000],a=0.000000, t_min = 0.024000)
speedj([0.000000, 0.000000, 0.000000, 0.000000, 0.000000, 0.000000],a=0.000000, t_min = 0.024000)
speedj([-0.005781, -0.012486, 0.024113, -0.005378, 0.002758, 0.008011],a=1.004731, t_min = 0.024000)
speedj([-0.013769, -0.029736, 0.057426, -0.012808, 0.006569, 0.019079],a=1.396263, t_min = 0.024000)
speedj([-0.021845, -0.047179, 0.091111, -0.020321, 0.010422, 0.030270],a=1.396263, t_min = 0.024000)
speedj([-0.029843, -0.064452, 0.124469, -0.027761, 0.014238, 0.041353],a=1.396263, t_min = 0.024000)
speedj([-0.037838, -0.081721, 0.157817, -0.035199, 0.018053, 0.052433],a=1.396263, t_min = 0.024000)
speedj([-0.045808, -0.098933, 0.191056, -0.042613, 0.021855, 0.063476],a=1.396263, t_min = 0.024000)
speedj([-0.053843, -0.116288, 0.224572, -0.050088, 0.025689, 0.074611],a=1.396263, t_min = 0.024000)
speedj([-0.061872, -0.133629, 0.258060, -0.057557, 0.029519, 0.085737],a=1.396263, t_min = 0.024000)
speedj([-0.069829, -0.150814, 0.291247, -0.064958, 0.033316, 0.096763],a=1.396263, t_min = 0.024000)
speedj([-0.077834, -0.168103, 0.324635, -0.072406, 0.037135, 0.107856],a=1.396263, t_min = 0.024000)
speedj([-0.085827, -0.185365, 0.357971, -0.079841, 0.040948, 0.118931],a=1.396263, t_min = 0.024000)
speedj([-0.093860, -0.202715, 0.391477, -0.087314, 0.044781, 0.130063],a=1.396263, t_min = 0.024000)
speedj([-0.101868, -0.220010, 0.424878, -0.094763, 0.048602, 0.141160],a=1.396263, t_min = 0.024000)
speedj([-0.109875, -0.237302, 0.458272, -0.102212, 0.052422, 0.152255],a=1.396263, t_min = 0.024000)
speedj([-0.117877, -0.254586, 0.491648, -0.109655, 0.056240, 0.163343],a=1.396263, t_min = 0.024000)
speedj([-0.125903, -0.271921, 0.525126, -0.117122, 0.060069, 0.174466],a=1.396263, t_min = 0.024000)
speedj([-0.133870, -0.289126, 0.558351, -0.124533, 0.063869, 0.185505],a=1.396263, t_min = 0.024000)
speedj([-0.141868, -0.306399, 0.591710, -0.131973, 0.067685, 0.196587],a=1.396263, t_min = 0.024000)
speedj([-0.149859, -0.323657, 0.625037, -0.139406, 0.071497, 0.207660],a=1.396263, t_min = 0.024000)
speedj([-0.157904, -0.341035, 0.658596, -0.146891, 0.075337, 0.218810],a=1.396263, t_min = 0.024000)
speedj([-0.165928, -0.358364, 0.692062, -0.154356, 0.079165, 0.229928],a=1.396263, t_min = 0.024000)
speedj([-0.173904, -0.375590, 0.725329, -0.161775, 0.082970, 0.240980],a=1.396263, t_min = 0.024000)
speedj([-0.181857, -0.392767, 0.758500, -0.169174, 0.086764, 0.252001],a=1.396263, t_min = 0.024000)
speedj([-0.189935, -0.410212, 0.792190, -0.176688, 0.090617, 0.263194],a=1.396263, t_min = 0.024000)
speedj([-0.197951, -0.427526, 0.825626, -0.184145, 0.094442, 0.274303],a=1.396263, t_min = 0.024000)
speedj([-0.205892, -0.444677, 0.858747, -0.191532, 0.098231, 0.285307],a=1.396263, t_min = 0.024000)
speedj([-0.213900, -0.461972, 0.892147, -0.198982, 0.102052, 0.296403],a=1.396263, t_min = 0.024000)
speedj([-0.221929, -0.479312, 0.925635, -0.206451, 0.105882, 0.307529],a=1.396263, t_min = 0.024000)
speedj([-0.229934, -0.496600, 0.959020, -0.213897, 0.109701, 0.318621],a=1.396263, t_min = 0.024000)
speedj([-0.237936, -0.513882, 0.992394, -0.221340, 0.113519, 0.329709],a=1.396263, t_min = 0.024000)
speedj([-0.245942, -0.531173, 1.025787, -0.228788, 0.117339, 0.340804],a=1.396263, t_min = 0.024000)
speedj([-0.250813, -0.541695, 1.046107, -0.233321, 0.119663, 0.347554],a=0.077945, t_min = 0.024000)
speedj([-0.251075, -0.542260, 1.047198, -0.233564, 0.119788, 0.347917],a=0.000000, t_min = 0.024000)
speedj([-0.251075, -0.542260, 1.047198, -0.233564, 0.119788, 0.347917],a=0.000000, t_min = 0.024000)
speedj([-0.251075, -0.542260, 1.047198, -0.233564, 0.119788, 0.347917],a=0.000000, t_min = 0.024000)
speedj([-0.251075, -0.542260, 1.047198, -0.233564, 0.119788, 0.347917],a=0.000000, t_min = 0.024000)
speedj([-0.251075, -0.542260, 1.047198, -0.233564, 0.119788, 0.347917],a=0.000000, t_min = 0.024000)
speedj([-0.251075, -0.542260, 1.047198, -0.233564, 0.119788, 0.347917],a=0.000000, t_min = 0.024000)
speedj([-0.251075, -0.542260, 1.047198, -0.233564, 0.119788, 0.347917],a=0.000000, t_min = 0.024000)
speedj([-0.251075, -0.542260, 1.047198, -0.233564, 0.119788, 0.347917],a=0.000000, t_min = 0.024000)
speedj([-0.251075, -0.542260, 1.047198, -0.233564, 0.119788, 0.347917],a=0.000000, t_min = 0.024000)
speedj([-0.251075, -0.542260, 1.047198, -0.233564, 0.119788, 0.347917],a=0.000000, t_min = 0.024000)
speedj([-0.251075, -0.542260, 1.047198, -0.233564, 0.119788, 0.347917],a=0.000000, t_min = 0.024000)
speedj([-0.251075, -0.542260, 1.047198, -0.233564, 0.119788, 0.347917],a=0.000000, t_min = 0.024000)
speedj([-0.251075, -0.542260, 1.047198, -0.233564, 0.119788, 0.347917],a=0.000000, t_min = 0.024000)
speedj([-0.251075, -0.542260, 1.047198, -0.233564, 0.119788, 0.347917],a=0.000000, t_min = 0.024000)
speedj([-0.251075, -0.542260, 1.047198, -0.233564, 0.119788, 0.347917],a=0.000000, t_min = 0.024000)
speedj([-0.251075, -0.542260, 1.047198, -0.233564, 0.119788, 0.347917],a=0.000000, t_min = 0.024000)
speedj([-0.251075, -0.542260, 1.047198, -0.233564, 0.119788, 0.347917],a=0.000000, t_min = 0.024000)
speedj([-0.251075, -0.542260, 1.047198, -0.233564, 0.119788, 0.347917],a=0.000000, t_min = 0.024000)
speedj([-0.251075, -0.542260, 1.047198, -0.233564, 0.119788, 0.347917],a=0.000000, t_min = 0.024000)
speedj([-0.251075, -0.542260, 1.047198, -0.233564, 0.119788, 0.347917],a=0.000000, t_min = 0.024000)
speedj([-0.251075, -0.542260, 1.047198, -0.233564, 0.119788, 0.347917],a=0.000000, t_min = 0.024000)
speedj([-0.251075, -0.542260, 1.047198, -0.233564, 0.119788, 0.347917],a=0.000000, t_min = 0.024000)
speedj([-0.251075, -0.542260, 1.047198, -0.233564, 0.119788, 0.347917],a=0.000000, t_min = 0.024000)
speedj([-0.251075, -0.542260, 1.047198, -0.233564, 0.119788, 0.347917],a=0.000000, t_min = 0.024000)
speedj([-0.251075, -0.542260, 1.047198, -0.233564, 0.119788, 0.347917],a=0.000000, t_min = 0.024000)
speedj([-0.251075, -0.542260, 1.047198, -0.233564, 0.119788, 0.347917],a=0.000000, t_min = 0.024000)
speedj([-0.251075, -0.542260, 1.047198, -0.233564, 0.119788, 0.347917],a=0.000000, t_min = 0.024000)
speedj([-0.251075, -0.542260, 1.047198, -0.233564, 0.119788, 0.347917],a=0.000000, t_min = 0.024000)
speedj([-0.251075, -0.542260, 1.047198, -0.233564, 0.119788, 0.347917],a=0.000000, t_min = 0.024000)
speedj([-0.251075, -0.542260, 1.047198, -0.233564, 0.119788, 0.347917],a=0.000000, t_min = 0.024000)
speedj([-0.251075, -0.542260, 1.047198, -0.233564, 0.119788, 0.347917],a=0.000000, t_min = 0.024000)
speedj([-0.251075, -0.542260, 1.047198, -0.233564, 0.119788, 0.347917],a=0.000000, t_min = 0.024000)
speedj([-0.251075, -0.542260, 1.047198, -0.233564, 0.119788, 0.347917],a=0.000000, t_min = 0.024000)
speedj([-0.251075, -0.542260, 1.047198, -0.233564, 0.119788, 0.347917],a=0.000000, t_min = 0.024000)
speedj([-0.251075, -0.542260, 1.047198, -0.233564, 0.119788, 0.347917],a=0.000000, t_min = 0.024000)
speedj([-0.251075, -0.542260, 1.047198, -0.233564, 0.119788, 0.347917],a=0.000000, t_min = 0.024000)
speedj([-0.251075, -0.542260, 1.047198, -0.233564, 0.119788, 0.347917],a=0.000000, t_min = 0.024000)
speedj([-0.250210, -0.540392, 1.043590, -0.232759, 0.119375, 0.346718],a=0.104386, t_min = 0.024000)
speedj([-0.243936, -0.526840, 1.017419, -0.226922, 0.116382, 0.338023],a=0.723014, t_min = 0.024000)
speedj([-0.235975, -0.509648, 0.984217, -0.219516, 0.112584, 0.326993],a=0.723014, t_min = 0.024000)
speedj([-0.227977, -0.492374, 0.950859, -0.212077, 0.108768, 0.315910],a=0.723014, t_min = 0.024000)
speedj([-0.219964, -0.475069, 0.917438, -0.204623, 0.104945, 0.304806],a=0.723014, t_min = 0.024000)
speedj([-0.211930, -0.457716, 0.883927, -0.197148, 0.101112, 0.293673],a=0.723014, t_min = 0.024000)
speedj([-0.203966, -0.440517, 0.850714, -0.189740, 0.097312, 0.282638],a=0.723014, t_min = 0.024000)
speedj([-0.195957, -0.423219, 0.817307, -0.182290, 0.093491, 0.271539],a=0.723014, t_min = 0.024000)
speedj([-0.187968, -0.405963, 0.783984, -0.174857, 0.089679, 0.260468],a=0.723014, t_min = 0.024000)
speedj([-0.179897, -0.388532, 0.750323, -0.167349, 0.085829, 0.249285],a=0.723014, t_min = 0.024000)
speedj([-0.171896, -0.371253, 0.716953, -0.159907, 0.082011, 0.238197],a=0.723014, t_min = 0.024000)
speedj([-0.163948, -0.354087, 0.683803, -0.152514, 0.078219, 0.227184],a=0.723014, t_min = 0.024000)
speedj([-0.155936, -0.336782, 0.650383, -0.145059, 0.074396, 0.216081],a=0.723014, t_min = 0.024000)
speedj([-0.147897, -0.319421, 0.616856, -0.137581, 0.070561, 0.204942],a=0.723014, t_min = 0.024000)
speedj([-0.139902, -0.302153, 0.583510, -0.130144, 0.066747, 0.193863],a=0.723014, t_min = 0.024000)
speedj([-0.131910, -0.284892, 0.550176, -0.122709, 0.062934, 0.182788],a=0.723014, t_min = 0.024000)
speedj([-0.123891, -0.267575, 0.516732, -0.115250, 0.059109, 0.171677],a=0.723014, t_min = 0.024000)
speedj([-0.115862, -0.250232, 0.483241, -0.107781, 0.055277, 0.160550],a=0.723014, t_min = 0.024000)
speedj([-0.107907, -0.233053, 0.450066, -0.100382, 0.051482, 0.149528],a=0.723014, t_min = 0.024000)
speedj([-0.099871, -0.215697, 0.416549, -0.092905, 0.047649, 0.138392],a=0.723014, t_min = 0.024000)
speedj([-0.091895, -0.198470, 0.383280, -0.085486, 0.043843, 0.127340],a=0.723014, t_min = 0.024000)
speedj([-0.083827, -0.181045, 0.349629, -0.077980, 0.039993, 0.116160],a=0.723014, t_min = 0.024000)
speedj([-0.075824, -0.163761, 0.316251, -0.070536, 0.036175, 0.105070],a=0.723014, t_min = 0.024000)
speedj([-0.067863, -0.146566, 0.283045, -0.063129, 0.032378, 0.094038],a=0.723014, t_min = 0.024000)
speedj([-0.059866, -0.129296, 0.249692, -0.055691, 0.028562, 0.082956],a=0.723014, t_min = 0.024000)
speedj([-0.051822, -0.111922, 0.216139, -0.048207, 0.024724, 0.071809],a=0.723014, t_min = 0.024000)
speedj([-0.043826, -0.094654, 0.182793, -0.040769, 0.020910, 0.060731],a=0.723014, t_min = 0.024000)
speedj([-0.035828, -0.077378, 0.149430, -0.033329, 0.017093, 0.049646],a=0.723014, t_min = 0.024000)
speedj([-0.027819, -0.060082, 0.116029, -0.025879, 0.013272, 0.038549],a=0.723014, t_min = 0.024000)
speedj([-0.019784, -0.042728, 0.082515, -0.018404, 0.009439, 0.027415],a=0.723014, t_min = 0.024000)
speedj([-0.011748, -0.025373, 0.049000, -0.010929, 0.005605, 0.016279],a=0.723014, t_min = 0.024000)
speedj([-0.004295, -0.009276, 0.017914, -0.003996, 0.002049, 0.005952],a=0.723014, t_min = 0.024000)
speedj([0.000000, 0.000000, 0.000000, 0.000000, 0.000000, 0.000000],a=0.000000, t_min = 0.024000)
speedj([0.000000, 0.000000, 0.000000, 0.000000, 0.000000, 0.000000],a=0.000000, t_min = 0.024000)
speedj([0.000000, 0.000000, 0.000000, 0.000000, 0.000000, 0.000000],a=0.000000, t_min = 0.024000)
speedj([0.051866, 0.112043, -0.216374, 0.048272, -0.024763, -0.071934],a=4.668445, t_min = 0.024000)
speedj([0.194264, 0.419657, -0.810433, 0.180804, -0.092751, -0.269432],a=12.945483, t_min = 0.024000)
speedj([0.337206, 0.728448, -1.406762, 0.313842, -0.160999, -0.467683],a=12.945483, t_min = 0.024000)
speedj([0.481267, 1.039656, -2.007758, 0.447922, -0.229781, -0.667487],a=12.945483, t_min = 0.024000)
speedj([0.624349, 1.348748, -2.604670, 0.581090, -0.298095, -0.865932],a=12.945483, t_min = 0.024000)
speedj([0.766998, 1.656905, -3.199774, 0.713856, -0.366202, -1.063777],a=0.014600, t_min = 0.024000)
speedj([0.767052, 1.657022, -3.200000, 0.713906, -0.366228, -1.063852],a=0.000000, t_min = 0.024000)
speedj([0.767052, 1.657022, -3.200000, 0.713906, -0.366228, -1.063852],a=0.000000, t_min = 0.024000)
speedj([0.767052, 1.657022, -3.200000, 0.713906, -0.366228, -1.063852],a=0.000000, t_min = 0.024000)
speedj([0.767052, 1.657022, -3.200000, 0.713906, -0.366228, -1.063852],a=0.000000, t_min = 0.024000)
speedj([0.767052, 1.657022, -3.200000, 0.713906, -0.366228, -1.063852],a=0.000000, t_min = 0.024000)
speedj([0.767052, 1.657022, -3.200000, 0.713906, -0.366228, -1.063852],a=0.000000, t_min = 0.024000)
speedj([0.767052, 1.657022, -3.200000, 0.713906, -0.366228, -1.063852],a=0.000000, t_min = 0.024000)
speedj([0.767052, 1.657022, -3.200000, 0.713906, -0.366228, -1.063852],a=0.000000, t_min = 0.024000)
speedj([0.767052, 1.657022, -3.200000, 0.713906, -0.366228, -1.063852],a=0.000000, t_min = 0.024000)
speedj([0.767052, 1.657022, -3.200000, 0.713906, -0.366228, -1.063852],a=0.000000, t_min = 0.024000)
speedj([0.767052, 1.657022, -3.200000, 0.713906, -0.366228, -1.063852],a=0.000000, t_min = 0.024000)
speedj([0.767052, 1.657022, -3.200000, 0.713906, -0.366228, -1.063852],a=0.000000, t_min = 0.024000)
speedj([0.767052, 1.657022, -3.200000, 0.713906, -0.366228, -1.063852],a=0.000000, t_min = 0.024000)
speedj([0.767052, 1.657022, -3.200000, 0.713906, -0.366228, -1.063852],a=0.000000, t_min = 0.024000)
speedj([0.767052, 1.657022, -3.200000, 0.713906, -0.366228, -1.063852],a=0.000000, t_min = 0.024000)
speedj([0.767052, 1.657022, -3.200000, 0.713906, -0.366228, -1.063852],a=0.000000, t_min = 0.024000)
speedj([0.767052, 1.657022, -3.200000, 0.713906, -0.366228, -1.063852],a=0.000000, t_min = 0.024000)
speedj([0.689154, 1.488743, -2.875024, 0.641405, -0.329036, -0.955812],a=15.137882, t_min = 0.024000)
speedj([0.551011, 1.190321, -2.298719, 0.512834, -0.263080, -0.764218],a=25.000000, t_min = 0.024000)
speedj([0.408269, 0.881964, -1.703226, 0.379982, -0.194928, -0.566244],a=25.000000, t_min = 0.024000)
speedj([0.265142, 0.572773, -1.106125, 0.246771, -0.126592, -0.367735],a=25.000000, t_min = 0.024000)
speedj([0.122516, 0.264666, -0.511117, 0.114028, -0.058495, -0.169922],a=25.000000, t_min = 0.024000)
speedj([0.011238, 0.024277, -0.046883, 0.010460, -0.005366, -0.015586],a=18.509974, t_min = 0.024000)
speedj([0.000000, 0.000000, 0.000000, 0.000000, 0.000000, 0.000000],a=0.000000, t_min = 0.024000)
speedj([0.000000, 0.000000, 0.000000, 0.000000, 0.000000, 0.000000],a=0.000000, t_min = 0.024000)
speedj([0.000000, 0.000000, 0.000000, 0.000000, 0.000000, 0.000000],a=0.000000, t_min = 0.024000)
speedj([0.000000, 0.000000, 0.000000, 0.000000, 0.000000, 0.000000],a=0.000000, t_min = 0.024000)
speedj([0.000000, 0.000000, 0.000000, 0.000000, 0.000000, 0.000000],a=0.000000, t_min = 0.024000)
speedj([0.000000, 0.000000, 0.000000, 0.000000, 0.000000, 0.000000],a=0.000000, t_min = 0.024000)
speedj([0.000000, 0.000000, 0.000000, 0.000000, 0.000000, 0.000000],a=0.000000, t_min = 0.024000)
speedj([0.000000, 0.000000, 0.000000, 0.000000, 0.000000, 0.000000],a=0.000000, t_min = 0.024000)
speedj([0.000000, 0.000000, 0.000000, 0.000000, 0.000000, 0.000000],a=0.000000, t_min = 0.024000)
speedj([0.000000, 0.000000, 0.000000, 0.000000, 0.000000, 0.000000],a=0.000000, t_min = 0.024000)
speedj([0.000000, 0.000000, 0.000000, 0.000000, 0.000000, 0.000000],a=0.000000, t_min = 0.024000)
speedj([0.000000, 0.000000, 0.000000, 0.000000, 0.000000, 0.000000],a=0.000000, t_min = 0.024000)
speedj([0.000000, 0.000000, 0.000000, 0.000000, 0.000000, 0.000000],a=0.000000, t_min = 0.024000)
speedj([0.000000, 0.000000, 0.000000, 0.000000, 0.000000, 0.000000],a=0.000000, t_min = 0.024000)
speedj([0.000000, 0.000000, 0.000000, 0.000000, 0.000000, 0.000000],a=0.000000, t_min = 0.024000)
speedj([0.000000, 0.000000, 0.000000, 0.000000, 0.000000, 0.000000],a=0.000000, t_min = 0.024000)
speedj([0.000000, 0.000000, 0.000000, 0.000000, 0.000000, 0.000000],a=0.000000, t_min = 0.024000)
speedj([0.000000, 0.000000, 0.000000, 0.000000, 0.000000, 0.000000],a=0.000000, t_min = 0.024000)
speedj([0.000000, 0.000000, 0.000000, 0.000000, 0.000000, 0.000000],a=0.000000, t_min = 0.024000)
speedj([0.000000, 0.000000, 0.000000, 0.000000, 0.000000, 0.000000],a=0.000000, t_min = 0.024000)
speedj([0.000000, 0.000000, 0.000000, 0.000000, 0.000000, 0.000000],a=0.000000, t_min = 0.024000)
speedj([0.000000, 0.000000, 0.000000, 0.000000, 0.000000, 0.000000],a=0.000000, t_min = 0.024000)
speedj([0.000000, 0.000000, 0.000000, 0.000000, 0.000000, 0.000000],a=0.000000, t_min = 0.024000)
speedj([0.000000, 0.000000, 0.000000, 0.000000, 0.000000, 0.000000],a=0.000000, t_min = 0.024000)
speedj([0.000000, 0.000000, 0.000000, 0.000000, 0.000000, 0.000000],a=0.000000, t_min = 0.024000)
speedj([0.000000, 0.000000, 0.000000, 0.000000, 0.000000, 0.000000],a=0.000000, t_min = 0.024000)
speedj([0.000000, 0.000000, 0.000000, 0.000000, 0.000000, 0.000000],a=0.000000, t_min = 0.024000)
speedj([0.000000, 0.000000, 0.000000, 0.000000, 0.000000, 0.000000],a=0.000000, t_min = 0.024000)
speedj([0.000000, 0.000000, 0.000000, 0.000000, 0.000000, 0.000000],a=0.000000, t_min = 0.024000)
speedj([0.000000, 0.000000, 0.000000, 0.000000, 0.000000, 0.000000],a=0.000000, t_min = 0.024000)
speedj([0.000000, 0.000000, 0.000000, 0.000000, 0.000000, 0.000000],a=0.000000, t_min = 0.024000)
speedj([0.000000, 0.000000, 0.000000, 0.000000, 0.000000, 0.000000],a=0.000000, t_min = 0.024000)
speedj([0.000000, 0.000000, 0.000000, 0.000000, 0.000000, 0.000000],a=0.000000, t_min = 0.024000)
speedj([0.000000, 0.000000, 0.000000, 0.000000, 0.000000, 0.000000],a=0.000000, t_min = 0.024000)
speedj([0.000000, 0.000000, 0.000000, 0.000000, 0.000000, 0.000000],a=0.000000, t_min = 0.024000)
speedj([0.000000, 0.000000, 0.000000, 0.000000, 0.000000, 0.000000],a=0.000000, t_min = 0.024000)
speedj([0.000000, 0.000000, 0.000000, 0.000000, 0.000000, 0.000000],a=0.000000, t_min = 0.024000)
speedj([0.000000, 0.000000, 0.000000, 0.000000, 0.000000, 0.000000],a=0.000000, t_min = 0.024000)
speedj([0.000000, 0.000000, 0.000000, 0.000000, 0.000000, 0.000000],a=0.000000, t_min = 0.024000)
speedj([0.000000, 0.000000, 0.000000, 0.000000, 0.000000, 0.000000],a=0.000000, t_min = 0.024000)
speedj([0.000000, 0.000000, 0.000000, 0.000000, 0.000000, 0.000000],a=0.000000, t_min = 0.024000)
speedj([0.000000, 0.000000, 0.000000, 0.000000, 0.000000, 0.000000],a=0.000000, t_min = 0.024000)
speedj([0.000000, 0.000000, 0.000000, 0.000000, 0.000000, 0.000000],a=0.000000, t_min = 0.024000)
speedj([0.000000, 0.000000, 0.000000, 0.000000, 0.000000, 0.000000],a=0.000000, t_min = 0.024000)
speedj([0.000000, 0.000000, 0.000000, 0.000000, 0.000000, 0.000000],a=0.000000, t_min = 0.024000)
speedj([0.000000, 0.000000, 0.000000, 0.000000, 0.000000, 0.000000],a=0.000000, t_min = 0.024000)
speedj([0.000000, 0.000000, 0.000000, 0.000000, 0.000000, 0.000000],a=0.000000, t_min = 0.024000)
speedj([0.000000, 0.000000, 0.000000, 0.000000, 0.000000, 0.000000],a=0.000000, t_min = 0.024000)
speedj([0.000000, 0.000000, 0.000000, 0.000000, 0.000000, 0.000000],a=0.000000, t_min = 0.024000)
speedj([0.000000, 0.000000, 0.000000, 0.000000, 0.000000, 0.000000],a=0.000000, t_min = 0.024000)
speedj([0.000000, 0.000000, 0.000000, 0.000000, 0.000000, 0.000000],a=0.000000, t_min = 0.024000)
speedj([0.000000, 0.000000, 0.000000, 0.000000, 0.000000, 0.000000],a=0.000000, t_min = 0.024000)
speedj([0.000000, 0.000000, 0.000000, 0.000000, 0.000000, 0.000000],a=0.000000, t_min = 0.024000)
speedj([0.000000, 0.000000, 0.000000, 0.000000, 0.000000, 0.000000],a=0.000000, t_min = 0.024000)
speedj([0.000000, 0.000000, 0.000000, 0.000000, 0.000000, 0.000000],a=0.000000, t_min = 0.024000)
speedj([0.000000, 0.000000, 0.000000, 0.000000, 0.000000, 0.000000],a=0.000000, t_min = 0.024000)
speedj([0.000000, 0.000000, 0.000000, 0.000000, 0.000000, 0.000000],a=0.000000, t_min = 0.024000)
speedj([0.000000, 0.000000, 0.000000, 0.000000, 0.000000, 0.000000],a=0.000000, t_min = 0.024000)
speedj([0.000000, 0.000000, 0.000000, 0.000000, 0.000000, 0.000000],a=0.000000, t_min = 0.024000)
speedj([0.000000, 0.000000, 0.000000, 0.000000, 0.000000, 0.000000],a=0.000000, t_min = 0.024000)
speedj([0.000000, 0.000000, 0.000000, 0.000000, 0.000000, 0.000000],a=0.000000, t_min = 0.024000)
speedj([0.000000, 0.000000, 0.000000, 0.000000, 0.000000, 0.000000],a=0.000000, t_min = 0.024000)
speedj([0.000000, 0.000000, 0.000000, 0.000000, 0.000000, 0.000000],a=0.000000, t_min = 0.024000)
speedj([0.000000, 0.000000, 0.000000, 0.000000, 0.000000, 0.000000],a=0.000000, t_min = 0.024000)
speedj([0.000000, 0.000000, 0.000000, 0.000000, 0.000000, 0.000000],a=0.000000, t_min = 0.024000)
speedj([0.000000, 0.000000, 0.000000, 0.000000, 0.000000, 0.000000],a=0.000000, t_min = 0.024000)
speedj([0.000000, 0.000000, 0.000000, 0.000000, 0.000000, 0.000000],a=0.000000, t_min = 0.024000)
speedj([0.000000, 0.000000, 0.000000, 0.000000, 0.000000, 0.000000],a=0.000000, t_min = 0.024000)
speedj([0.000000, 0.000000, 0.000000, 0.000000, 0.000000, 0.000000],a=0.000000, t_min = 0.024000)
speedj([0.000000, 0.000000, 0.000000, 0.000000, 0.000000, 0.000000],a=0.000000, t_min = 0.024000)
speedj([0.000000, 0.000000, 0.000000, 0.000000, 0.000000, 0.000000],a=0.000000, t_min = 0.024000)
speedj([0.000000, 0.000000, 0.000000, 0.000000, 0.000000, 0.000000],a=0.000000, t_min = 0.024000)
speedj([0.000000, 0.000000, 0.000000, 0.000000, 0.000000, 0.000000],a=0.000000, t_min = 0.024000)
speedj([0.000000, 0.000000, 0.000000, 0.000000, 0.000000, 0.000000],a=0.000000, t_min = 0.024000)
speedj([0.000000, 0.000000, 0.000000, 0.000000, 0.000000, 0.000000],a=0.000000, t_min = 0.024000)
speedj([-0.007221, -0.015606, 0.030133, -0.006722, 0.003449, 0.010011],a=1.255554, t_min = 0.024000)
speedj([-0.147984, -0.319819, 0.617527, -0.137764, 0.070676, 0.205150],a=25.000000, t_min = 0.024000)
speedj([-0.291268, -0.629479, 1.215438, -0.271151, 0.139107, 0.403782],a=25.000000, t_min = 0.024000)
speedj([-0.434806, -0.939690, 1.814413, -0.404776, 0.207660, 0.602768],a=25.000000, t_min = 0.024000)
speedj([-0.578577, -1.250405, 2.414359, -0.538618, 0.276323, 0.802078],a=25.000000, t_min = 0.024000)
speedj([-0.721472, -1.559224, 3.010647, -0.671644, 0.344569, 1.000172],a=23.672041, t_min = 0.024000)
speedj([-0.766848, -1.657290, 3.200000, -0.713887, 0.366240, 1.063077],a=0.000000, t_min = 0.024000)
speedj([-0.766848, -1.657290, 3.200000, -0.713887, 0.366240, 1.063077],a=0.000000, t_min = 0.024000)
speedj([-0.766848, -1.657290, 3.200000, -0.713887, 0.366240, 1.063077],a=0.000000, t_min = 0.024000)
speedj([-0.766848, -1.657290, 3.200000, -0.713887, 0.366240, 1.063077],a=0.000000, t_min = 0.024000)
speedj([-0.766848, -1.657290, 3.200000, -0.713887, 0.366240, 1.063077],a=0.000000, t_min = 0.024000)
speedj([-0.766848, -1.657290, 3.200000, -0.713887, 0.366240, 1.063077],a=0.000000, t_min = 0.024000)
speedj([-0.766848, -1.657290, 3.200000, -0.713887, 0.366240, 1.063077],a=0.000000, t_min = 0.024000)
speedj([-0.766848, -1.657290, 3.200000, -0.713887, 0.366240, 1.063077],a=0.000000, t_min = 0.024000)
speedj([-0.766848, -1.657290, 3.200000, -0.713887, 0.366240, 1.063077],a=0.000000, t_min = 0.024000)
speedj([-0.766848, -1.657290, 3.200000, -0.713887, 0.366240, 1.063077],a=0.000000, t_min = 0.024000)
speedj([-0.766848, -1.657290, 3.200000, -0.713887, 0.366240, 1.063077],a=0.000000, t_min = 0.024000)
speedj([-0.766848, -1.657290, 3.200000, -0.713887, 0.366240, 1.063077],a=0.000000, t_min = 0.024000)
speedj([-0.766848, -1.657290, 3.200000, -0.713887, 0.366240, 1.063077],a=0.000000, t_min = 0.024000)
speedj([-0.766848, -1.657290, 3.200000, -0.713887, 0.366240, 1.063077],a=0.000000, t_min = 0.024000)
speedj([-0.766848, -1.657290, 3.200000, -0.713887, 0.366240, 1.063077],a=0.000000, t_min = 0.024000)
speedj([-0.766848, -1.657290, 3.200000, -0.713887, 0.366240, 1.063077],a=0.000000, t_min = 0.024000)
speedj([-0.766848, -1.657290, 3.200000, -0.713887, 0.366240, 1.063077],a=0.000000, t_min = 0.024000)
speedj([-0.729455, -1.576477, 3.043961, -0.679076, 0.348381, 1.011239],a=3.776557, t_min = 0.024000)
speedj([-0.596728, -1.289631, 2.490101, -0.555515, 0.284992, 0.827240],a=12.947579, t_min = 0.024000)
speedj([-0.453763, -0.980658, 1.893516, -0.422424, 0.216713, 0.629048],a=12.947579, t_min = 0.024000)
speedj([-0.311068, -0.672270, 1.298062, -0.289584, 0.148563, 0.431231],a=12.947579, t_min = 0.024000)
speedj([-0.167356, -0.361685, 0.698363, -0.155797, 0.079927, 0.232004],a=12.947579, t_min = 0.024000)
speedj([-0.024867, -0.053741, 0.103766, -0.023149, 0.011876, 0.034472],a=12.947579, t_min = 0.024000)
speedj([-0.001044, -0.002257, 0.004357, -0.000972, 0.000499, 0.001448],a=0.866297, t_min = 0.024000)
speedj([0.000000, 0.000000, 0.000000, 0.000000, 0.000000, 0.000000],a=0.000000, t_min = 0.024000)
speedj([0.000000, 0.000000, 0.000000, 0.000000, 0.000000, 0.000000],a=0.000000, t_min = 0.024000)
speedj([0.000000, 0.000000, 0.000000, 0.000000, 0.000000, 0.000000],a=0.000000, t_min = 0.024000)
speedj([0.000000, 0.000000, 0.000000, 0.000000, 0.000000, 0.000000],a=0.000000, t_min = 0.024000)
speedj([0.000000, 0.000000, 0.000000, 0.000000, 0.000000, 0.000000],a=0.000000, t_min = 0.024000)
speedj([0.000000, 0.000000, 0.000000, 0.000000, 0.000000, 0.000000],a=0.000000, t_min = 0.024000)
speedj([0.000000, 0.000000, 0.000000, 0.000000, 0.000000, 0.000000],a=0.000000, t_min = 0.024000)
speedj([0.000000, 0.000000, 0.000000, 0.000000, 0.000000, 0.000000],a=0.000000, t_min = 0.024000)
speedj([0.000000, 0.000000, 0.000000, 0.000000, 0.000000, 0.000000],a=0.000000, t_min = 0.024000)
speedj([0.000000, 0.000000, 0.000000, 0.000000, 0.000000, 0.000000],a=0.000000, t_min = 0.024000)
speedj([0.000000, 0.000000, 0.000000, 0.000000, 0.000000, 0.000000],a=0.000000, t_min = 0.024000)
speedj([0.000000, 0.000000, 0.000000, 0.000000, 0.000000, 0.000000],a=0.000000, t_min = 0.024000)
speedj([0.000000, 0.000000, 0.000000, 0.000000, 0.000000, 0.000000],a=0.000000, t_min = 0.024000)
speedj([0.000000, 0.000000, 0.000000, 0.000000, 0.000000, 0.000000],a=0.000000, t_min = 0.024000)
speedj([0.000000, 0.000000, 0.000000, 0.000000, 0.000000, 0.000000],a=0.000000, t_min = 0.024000)
speedj([0.000000, 0.000000, 0.000000, 0.000000, 0.000000, 0.000000],a=0.000000, t_min = 0.024000)
speedj([0.000000, 0.000000, 0.000000, 0.000000, 0.000000, 0.000000],a=0.000000, t_min = 0.024000)
speedj([0.000000, 0.000000, 0.000000, 0.000000, 0.000000, 0.000000],a=0.000000, t_min = 0.024000)
speedj([0.000000, 0.000000, 0.000000, 0.000000, 0.000000, 0.000000],a=0.000000, t_min = 0.024000)
speedj([0.000000, 0.000000, 0.000000, 0.000000, 0.000000, 0.000000],a=0.000000, t_min = 0.024000)
speedj([0.000000, 0.000000, 0.000000, 0.000000, 0.000000, 0.000000],a=0.000000, t_min = 0.024000)
speedj([0.000000, 0.000000, 0.000000, 0.000000, 0.000000, 0.000000],a=0.000000, t_min = 0.024000)
speedj([0.000000, 0.000000, 0.000000, 0.000000, 0.000000, 0.000000],a=0.000000, t_min = 0.024000)
speedj([0.000000, 0.000000, 0.000000, 0.000000, 0.000000, 0.000000],a=0.000000, t_min = 0.024000)
speedj([0.000000, 0.000000, 0.000000, 0.000000, 0.000000, 0.000000],a=0.000000, t_min = 0.024000)
speedj([0.000000, 0.000000, 0.000000, 0.000000, 0.000000, 0.000000],a=0.000000, t_min = 0.024000)
speedj([0.000000, 0.000000, 0.000000, 0.000000, 0.000000, 0.000000],a=0.000000, t_min = 0.024000)
speedj([0.000000, 0.000000, 0.000000, 0.000000, 0.000000, 0.000000],a=0.000000, t_min = 0.024000)
speedj([0.000000, 0.000000, 0.000000, 0.000000, 0.000000, 0.000000],a=0.000000, t_min = 0.024000)
speedj([0.000000, 0.000000, 0.000000, 0.000000, 0.000000, 0.000000],a=0.000000, t_min = 0.024000)
speedj([0.000000, 0.000000, 0.000000, 0.000000, 0.000000, 0.000000],a=0.000000, t_min = 0.024000)
speedj([0.000000, 0.000000, 0.000000, 0.000000, 0.000000, 0.000000],a=0.000000, t_min = 0.024000)
speedj([0.000000, 0.000000, 0.000000, 0.000000, 0.000000, 0.000000],a=0.000000, t_min = 0.024000)
speedj([0.000000, 0.000000, 0.000000, 0.000000, 0.000000, 0.000000],a=0.000000, t_min = 0.024000)
speedj([0.000000, 0.000000, 0.000000, 0.000000, 0.000000, 0.000000],a=0.000000, t_min = 0.024000)
speedj([0.000000, 0.000000, 0.000000, 0.000000, 0.000000, 0.000000],a=0.000000, t_min = 0.024000)
speedj([0.000000, 0.000000, 0.000000, 0.000000, 0.000000, 0.000000],a=0.000000, t_min = 0.024000)
speedj([0.000000, 0.000000, 0.000000, 0.000000, 0.000000, 0.000000],a=0.000000, t_min = 0.024000)
speedj([0.000000, 0.000000, 0.000000, 0.000000, 0.000000, 0.000000],a=0.000000, t_min = 0.024000)
speedj([0.000000, 0.000000, 0.000000, 0.000000, 0.000000, 0.000000],a=0.000000, t_min = 0.024000)
speedj([0.000000, 0.000000, 0.000000, 0.000000, 0.000000, 0.000000],a=0.000000, t_min = 0.024000)
speedj([0.000000, 0.000000, 0.000000, 0.000000, 0.000000, 0.000000],a=0.000000, t_min = 0.024000)
speedj([0.000000, 0.000000, 0.000000, 0.000000, 0.000000, 0.000000],a=0.000000, t_min = 0.024000)
speedj([0.000000, 0.000000, 0.000000, 0.000000, 0.000000, 0.000000],a=0.000000, t_min = 0.024000)
speedj([0.000000, 0.000000, 0.000000, 0.000000, 0.000000, 0.000000],a=0.000000, t_min = 0.024000)
speedj([0.000000, 0.000000, 0.000000, 0.000000, 0.000000, 0.000000],a=0.000000, t_min = 0.024000)
speedj([0.000000, 0.000000, 0.000000, 0.000000, 0.000000, 0.000000],a=0.000000, t_min = 0.024000)
speedj([0.000000, 0.000000, 0.000000, 0.000000, 0.000000, 0.000000],a=0.000000, t_min = 0.024000)
speedj([0.000000, 0.000000, 0.000000, 0.000000, 0.000000, 0.000000],a=0.000000, t_min = 0.024000)
speedj([0.000000, 0.000000, 0.000000, 0.000000, 0.000000, 0.000000],a=0.000000, t_min = 0.024000)
speedj([0.000000, 0.000000, 0.000000, 0.000000, 0.000000, 0.000000],a=0.000000, t_min = 0.024000)
speedj([0.000000, 0.000000, 0.000000, 0.000000, 0.000000, 0.000000],a=0.000000, t_min = 0.024000)
speedj([0.000000, 0.000000, 0.000000, 0.000000, 0.000000, 0.000000],a=0.000000, t_min = 0.024000)
speedj([0.000000, 0.000000, 0.000000, 0.000000, 0.000000, 0.000000],a=0.000000, t_min = 0.024000)
speedj([0.000000, 0.000000, 0.000000, 0.000000, 0.000000, 0.000000],a=0.000000, t_min = 0.024000)
speedj([0.000000, 0.000000, 0.000000, 0.000000, 0.000000, 0.000000],a=0.000000, t_min = 0.024000)
speedj([0.000000, 0.000000, 0.000000, 0.000000, 0.000000, 0.000000],a=0.000000, t_min = 0.024000)
speedj([0.000000, 0.000000, 0.000000, 0.000000, 0.000000, 0.000000],a=0.000000, t_min = 0.024000)
speedj([0.000000, 0.000000, 0.000000, 0.000000, 0.000000, 0.000000],a=0.000000, t_min = 0.024000)
speedj([0.000000, 0.000000, 0.000000, 0.000000, 0.000000, 0.000000],a=0.000000, t_min = 0.024000)
speedj([0.000000, 0.000000, 0.000000, 0.000000, 0.000000, 0.000000],a=0.000000, t_min = 0.024000)
speedj([0.000000, 0.000000, 0.000000, 0.000000, 0.000000, 0.000000],a=0.000000, t_min = 0.024000)
speedj([0.000000, 0.000000, 0.000000, 0.000000, 0.000000, 0.000000],a=0.000000, t_min = 0.024000)
speedj([0.000000, 0.000000, 0.000000, 0.000000, 0.000000, 0.000000],a=0.000000, t_min = 0.024000)
speedj([0.000000, 0.000000, 0.000000, 0.000000, 0.000000, 0.000000],a=0.000000, t_min = 0.024000)
speedj([0.000000, 0.000000, 0.000000, 0.000000, 0.000000, 0.000000],a=0.000000, t_min = 0.024000)
speedj([0.000000, 0.000000, 0.000000, 0.000000, 0.000000, 0.000000],a=0.000000, t_min = 0.024000)
speedj([0.000000, 0.000000, 0.000000, 0.000000, 0.000000, 0.000000],a=0.000000, t_min = 0.024000)
speedj([0.000000, 0.000000, 0.000000, 0.000000, 0.000000, 0.000000],a=0.000000, t_min = 0.024000)
speedj([0.000000, 0.000000, 0.000000, 0.000000, 0.000000, 0.000000],a=0.000000, t_min = 0.024000)
speedj([0.000000, 0.000000, 0.000000, 0.000000, 0.000000, 0.000000],a=0.000000, t_min = 0.024000)
speedj([0.000000, 0.000000, 0.000000, 0.000000, 0.000000, 0.000000],a=0.000000, t_min = 0.024000)
speedj([0.000000, 0.000000, 0.000000, 0.000000, 0.000000, 0.000000],a=0.000000, t_min = 0.024000)
speedj([0.000000, 0.000000, 0.000000, 0.000000, 0.000000, 0.000000],a=0.000000, t_min = 0.024000)
speedj([0.000000, 0.000000, 0.000000, 0.000000, 0.000000, 0.000000],a=0.000000, t_min = 0.024000)
speedj([0.102939, 0.222471, -0.429562, 0.095858, -0.049201, -0.142780],a=9.269230, t_min = 0.024000)
speedj([0.246015, 0.531682, -1.026608, 0.229090, -0.117584, -0.341229],a=12.947539, t_min = 0.024000)
speedj([0.389321, 0.841391, -1.624615, 0.362537, -0.186078, -0.539998],a=12.947539, t_min = 0.024000)
speedj([0.533494, 1.152974, -2.226242, 0.496792, -0.254987, -0.739969],a=12.947539, t_min = 0.024000)
speedj([0.676222, 1.461437, -2.821843, 0.629702, -0.323205, -0.937938],a=12.947539, t_min = 0.024000)
speedj([0.766843, 1.657285, -3.200000, 0.714089, -0.366518, -1.063631],a=0.000000, t_min = 0.024000)
speedj([0.766843, 1.657285, -3.200000, 0.714089, -0.366518, -1.063631],a=0.000000, t_min = 0.024000)
speedj([0.766843, 1.657285, -3.200000, 0.714089, -0.366518, -1.063631],a=0.000000, t_min = 0.024000)
speedj([0.766843, 1.657285, -3.200000, 0.714089, -0.366518, -1.063631],a=0.000000, t_min = 0.024000)
speedj([0.766843, 1.657285, -3.200000, 0.714089, -0.366518, -1.063631],a=0.000000, t_min = 0.024000)
speedj([0.766843, 1.657285, -3.200000, 0.714089, -0.366518, -1.063631],a=0.000000, t_min = 0.024000)
speedj([0.766843, 1.657285, -3.200000, 0.714089, -0.366518, -1.063631],a=0.000000, t_min = 0.024000)
speedj([0.766843, 1.657285, -3.200000, 0.714089, -0.366518, -1.063631],a=0.000000, t_min = 0.024000)
speedj([0.766843, 1.657285, -3.200000, 0.714089, -0.366518, -1.063631],a=0.000000, t_min = 0.024000)
speedj([0.766843, 1.657285, -3.200000, 0.714089, -0.366518, -1.063631],a=0.000000, t_min = 0.024000)
speedj([0.766843, 1.657285, -3.200000, 0.714089, -0.366518, -1.063631],a=0.000000, t_min = 0.024000)
speedj([0.766843, 1.657285, -3.200000, 0.714089, -0.366518, -1.063631],a=0.000000, t_min = 0.024000)
speedj([0.766843, 1.657285, -3.200000, 0.714089, -0.366518, -1.063631],a=0.000000, t_min = 0.024000)
speedj([0.766843, 1.657285, -3.200000, 0.714089, -0.366518, -1.063631],a=0.000000, t_min = 0.024000)
speedj([0.766843, 1.657285, -3.200000, 0.714089, -0.366518, -1.063631],a=0.000000, t_min = 0.024000)
speedj([0.766843, 1.657285, -3.200000, 0.714089, -0.366518, -1.063631],a=0.000000, t_min = 0.024000)
speedj([0.766843, 1.657285, -3.200000, 0.714089, -0.366518, -1.063631],a=0.000000, t_min = 0.024000)
speedj([0.766843, 1.657285, -3.200000, 0.714089, -0.366518, -1.063631],a=0.000000, t_min = 0.024000)
speedj([0.643324, 1.390339, -2.684562, 0.599067, -0.307481, -0.892308],a=24.094615, t_min = 0.024000)
speedj([0.499925, 1.080428, -2.086164, 0.465533, -0.238942, -0.693409],a=25.000000, t_min = 0.024000)
speedj([0.356750, 0.771000, -1.488699, 0.332207, -0.170511, -0.494821],a=25.000000, t_min = 0.024000)
speedj([0.214109, 0.462727, -0.893466, 0.199379, -0.102335, -0.296974],a=25.000000, t_min = 0.024000)
speedj([0.071267, 0.154020, -0.297393, 0.066364, -0.034062, -0.098848],a=25.000000, t_min = 0.024000)
speedj([0.005967, 0.012897, -0.024902, 0.005557, -0.002852, -0.008277],a=9.548409, t_min = 0.024000)
speedj([0.000000, 0.000000, 0.000000, 0.000000, 0.000000, 0.000000],a=0.000000, t_min = 0.024000)
speedj([0.000000, 0.000000, 0.000000, 0.000000, 0.000000, 0.000000],a=0.000000, t_min = 0.024000)
speedj([0.000000, 0.000000, 0.000000, 0.000000, 0.000000, 0.000000],a=0.000000, t_min = 0.024000)
speedj([0.000000, 0.000000, 0.000000, 0.000000, 0.000000, 0.000000],a=0.000000, t_min = 0.024000)
speedj([0.000000, 0.000000, 0.000000, 0.000000, 0.000000, 0.000000],a=0.000000, t_min = 0.024000)
speedj([0.000000, 0.000000, 0.000000, 0.000000, 0.000000, 0.000000],a=0.000000, t_min = 0.024000)
speedj([0.000000, 0.000000, 0.000000, 0.000000, 0.000000, 0.000000],a=0.000000, t_min = 0.024000)
speedj([0.000000, 0.000000, 0.000000, 0.000000, 0.000000, 0.000000],a=0.000000, t_min = 0.024000)
speedj([0.000000, 0.000000, 0.000000, 0.000000, 0.000000, 0.000000],a=0.000000, t_min = 0.024000)
speedj([0.000000, 0.000000, 0.000000, 0.000000, 0.000000, 0.000000],a=0.000000, t_min = 0.024000)
speedj([0.000000, 0.000000, 0.000000, 0.000000, 0.000000, 0.000000],a=0.000000, t_min = 0.024000)
speedj([0.000000, 0.000000, 0.000000, 0.000000, 0.000000, 0.000000],a=0.000000, t_min = 0.024000)
speedj([0.000000, 0.000000, 0.000000, 0.000000, 0.000000, 0.000000],a=0.000000, t_min = 0.024000)
speedj([0.000000, 0.000000, 0.000000, 0.000000, 0.000000, 0.000000],a=0.000000, t_min = 0.024000)
speedj([0.000000, 0.000000, 0.000000, 0.000000, 0.000000, 0.000000],a=0.000000, t_min = 0.024000)
speedj([0.000000, 0.000000, 0.000000, 0.000000, 0.000000, 0.000000],a=0.000000, t_min = 0.024000)
speedj([0.000000, 0.000000, 0.000000, 0.000000, 0.000000, 0.000000],a=0.000000, t_min = 0.024000)
speedj([0.000000, 0.000000, 0.000000, 0.000000, 0.000000, 0.000000],a=0.000000, t_min = 0.024000)
speedj([0.000000, 0.000000, 0.000000, 0.000000, 0.000000, 0.000000],a=0.000000, t_min = 0.024000)
speedj([0.000000, 0.000000, 0.000000, 0.000000, 0.000000, 0.000000],a=0.000000, t_min = 0.024000)
speedj([0.000000, 0.000000, 0.000000, 0.000000, 0.000000, 0.000000],a=0.000000, t_min = 0.024000)
speedj([0.000000, 0.000000, 0.000000, 0.000000, 0.000000, 0.000000],a=0.000000, t_min = 0.024000)
speedj([0.000000, 0.000000, 0.000000, 0.000000, 0.000000, 0.000000],a=0.000000, t_min = 0.024000)
speedj([0.000000, 0.000000, 0.000000, 0.000000, 0.000000, 0.000000],a=0.000000, t_min = 0.024000)
speedj([0.000000, 0.000000, 0.000000, 0.000000, 0.000000, 0.000000],a=0.000000, t_min = 0.024000)
speedj([0.000000, 0.000000, 0.000000, 0.000000, 0.000000, 0.000000],a=0.000000, t_min = 0.024000)
speedj([0.000000, 0.000000, 0.000000, 0.000000, 0.000000, 0.000000],a=0.000000, t_min = 0.024000)
speedj([0.000000, 0.000000, 0.000000, 0.000000, 0.000000, 0.000000],a=0.000000, t_min = 0.024000)
speedj([0.000000, 0.000000, 0.000000, 0.000000, 0.000000, 0.000000],a=0.000000, t_min = 0.024000)
speedj([0.000000, 0.000000, 0.000000, 0.000000, 0.000000, 0.000000],a=0.000000, t_min = 0.024000)
speedj([0.000000, 0.000000, 0.000000, 0.000000, 0.000000, 0.000000],a=0.000000, t_min = 0.024000)
speedj([0.000000, 0.000000, 0.000000, 0.000000, 0.000000, 0.000000],a=0.000000, t_min = 0.024000)
speedj([0.000000, 0.000000, 0.000000, 0.000000, 0.000000, 0.000000],a=0.000000, t_min = 0.024000)
speedj([0.000000, 0.000000, 0.000000, 0.000000, 0.000000, 0.000000],a=0.000000, t_min = 0.024000)
speedj([0.000000, 0.000000, 0.000000, 0.000000, 0.000000, 0.000000],a=0.000000, t_min = 0.024000)
speedj([0.000000, 0.000000, 0.000000, 0.000000, 0.000000, 0.000000],a=0.000000, t_min = 0.024000)
speedj([0.000000, 0.000000, 0.000000, 0.000000, 0.000000, 0.000000],a=0.000000, t_min = 0.024000)
speedj([0.000000, 0.000000, 0.000000, 0.000000, 0.000000, 0.000000],a=0.000000, t_min = 0.024000)
speedj([0.000000, 0.000000, 0.000000, 0.000000, 0.000000, 0.000000],a=0.000000, t_min = 0.024000)
speedj([0.000000, 0.000000, 0.000000, 0.000000, 0.000000, 0.000000],a=0.000000, t_min = 0.024000)
speedj([0.000000, 0.000000, 0.000000, 0.000000, 0.000000, 0.000000],a=0.000000, t_min = 0.024000)
speedj([0.000000, 0.000000, 0.000000, 0.000000, 0.000000, 0.000000],a=0.000000, t_min = 0.024000)
speedj([0.000000, 0.000000, 0.000000, 0.000000, 0.000000, 0.000000],a=0.000000, t_min = 0.024000)
speedj([0.000000, 0.000000, 0.000000, 0.000000, 0.000000, 0.000000],a=0.000000, t_min = 0.024000)
speedj([0.000000, 0.000000, 0.000000, 0.000000, 0.000000, 0.000000],a=0.000000, t_min = 0.024000)
speedj([0.000000, 0.000000, 0.000000, 0.000000, 0.000000, 0.000000],a=0.000000, t_min = 0.024000)
speedj([0.000000, 0.000000, 0.000000, 0.000000, 0.000000, 0.000000],a=0.000000, t_min = 0.024000)
speedj([0.000000, 0.000000, 0.000000, 0.000000, 0.000000, 0.000000],a=0.000000, t_min = 0.024000)
speedj([0.000000, 0.000000, 0.000000, 0.000000, 0.000000, 0.000000],a=0.000000, t_min = 0.024000)
speedj([0.000000, 0.000000, 0.000000, 0.000000, 0.000000, 0.000000],a=0.000000, t_min = 0.024000)
speedj([0.000000, 0.000000, 0.000000, 0.000000, 0.000000, 0.000000],a=0.000000, t_min = 0.024000)
speedj([0.000000, 0.000000, 0.000000, 0.000000, 0.000000, 0.000000],a=0.000000, t_min = 0.024000)
speedj([0.000000, 0.000000, 0.000000, 0.000000, 0.000000, 0.000000],a=0.000000, t_min = 0.024000)
speedj([0.000000, 0.000000, 0.000000, 0.000000, 0.000000, 0.000000],a=0.000000, t_min = 0.024000)
speedj([0.000000, 0.000000, 0.000000, 0.000000, 0.000000, 0.000000],a=0.000000, t_min = 0.024000)
speedj([0.000000, 0.000000, 0.000000, 0.000000, 0.000000, 0.000000],a=0.000000, t_min = 0.024000)
speedj([0.000000, 0.000000, 0.000000, 0.000000, 0.000000, 0.000000],a=0.000000, t_min = 0.024000)
speedj([0.000000, 0.000000, 0.000000, 0.000000, 0.000000, 0.000000],a=0.000000, t_min = 0.024000)
speedj([0.000000, 0.000000, 0.000000, 0.000000, 0.000000, 0.000000],a=0.000000, t_min = 0.024000)
speedj([0.000000, 0.000000, 0.000000, 0.000000, 0.000000, 0.000000],a=0.000000, t_min = 0.024000)
speedj([0.000000, 0.000000, 0.000000, 0.000000, 0.000000, 0.000000],a=0.000000, t_min = 0.024000)
speedj([0.000000, 0.000000, 0.000000, 0.000000, 0.000000, 0.000000],a=0.000000, t_min = 0.024000)
speedj([0.000000, 0.000000, 0.000000, 0.000000, 0.000000, 0.000000],a=0.000000, t_min = 0.024000)
speedj([0.000000, 0.000000, 0.000000, 0.000000, 0.000000, 0.000000],a=0.000000, t_min = 0.024000)
speedj([0.000000, 0.000000, 0.000000, 0.000000, 0.000000, 0.000000],a=0.000000, t_min = 0.024000)
speedj([0.000000, 0.000000, 0.000000, 0.000000, 0.000000, 0.000000],a=0.000000, t_min = 0.024000)
speedj([0.000000, 0.000000, 0.000000, 0.000000, 0.000000, 0.000000],a=0.000000, t_min = 0.024000)
speedj([0.000000, 0.000000, 0.000000, 0.000000, 0.000000, 0.000000],a=0.000000, t_min = 0.024000)
speedj([0.000000, 0.000000, 0.000000, 0.000000, 0.000000, 0.000000],a=0.000000, t_min = 0.024000)
speedj([0.000000, 0.000000, 0.000000, 0.000000, 0.000000, 0.000000],a=0.000000, t_min = 0.024000)
speedj([0.000000, 0.000000, 0.000000, 0.000000, 0.000000, 0.000000],a=0.000000, t_min = 0.024000)
speedj([0.000000, 0.000000, 0.000000, 0.000000, 0.000000, 0.000000],a=0.000000, t_min = 0.024000)
speedj([0.000000, 0.000000, 0.000000, 0.000000, 0.000000, 0.000000],a=0.000000, t_min = 0.024000)
speedj([0.000000, 0.000000, 0.000000, 0.000000, 0.000000, 0.000000],a=0.000000, t_min = 0.024000)
speedj([0.000000, 0.000000, 0.000000, 0.000000, 0.000000, 0.000000],a=0.000000, t_min = 0.024000)
speedj([-0.057959, -0.125256, 0.241853, -0.053955, 0.027680, 0.080347],a=10.077840, t_min = 0.024000)
speedj([-0.200456, -0.433206, 0.836466, -0.186608, 0.095735, 0.277885],a=25.000000, t_min = 0.024000)
speedj([-0.344216, -0.743885, 1.436348, -0.320436, 0.164391, 0.477174],a=25.000000, t_min = 0.024000)
speedj([-0.487371, -1.053256, 2.033703, -0.453701, 0.232758, 0.675623],a=25.000000, t_min = 0.024000)
speedj([-0.630300, -1.362142, 2.630123, -0.586756, 0.301020, 0.873762],a=25.000000, t_min = 0.024000)
speedj([-0.766870, -1.657282, 3.200000, -0.713891, 0.366242, 1.063083],a=0.000000, t_min = 0.024000)
speedj([-0.766870, -1.657282, 3.200000, -0.713891, 0.366242, 1.063083],a=0.000000, t_min = 0.024000)
speedj([-0.766870, -1.657282, 3.200000, -0.713891, 0.366242, 1.063083],a=0.000000, t_min = 0.024000)
speedj([-0.766870, -1.657282, 3.200000, -0.713891, 0.366242, 1.063083],a=0.000000, t_min = 0.024000)
speedj([-0.766870, -1.657282, 3.200000, -0.713891, 0.366242, 1.063083],a=0.000000, t_min = 0.024000)
speedj([-0.766870, -1.657282, 3.200000, -0.713891, 0.366242, 1.063083],a=0.000000, t_min = 0.024000)
speedj([-0.766870, -1.657282, 3.200000, -0.713891, 0.366242, 1.063083],a=0.000000, t_min = 0.024000)
speedj([-0.766870, -1.657282, 3.200000, -0.713891, 0.366242, 1.063083],a=0.000000, t_min = 0.024000)
speedj([-0.766870, -1.657282, 3.200000, -0.713891, 0.366242, 1.063083],a=0.000000, t_min = 0.024000)
speedj([-0.766870, -1.657282, 3.200000, -0.713891, 0.366242, 1.063083],a=0.000000, t_min = 0.024000)
speedj([-0.766870, -1.657282, 3.200000, -0.713891, 0.366242, 1.063083],a=0.000000, t_min = 0.024000)
speedj([-0.766870, -1.657282, 3.200000, -0.713891, 0.366242, 1.063083],a=0.000000, t_min = 0.024000)
speedj([-0.766870, -1.657282, 3.200000, -0.713891, 0.366242, 1.063083],a=0.000000, t_min = 0.024000)
speedj([-0.766870, -1.657282, 3.200000, -0.713891, 0.366242, 1.063083],a=0.000000, t_min = 0.024000)
speedj([-0.766870, -1.657282, 3.200000, -0.713891, 0.366242, 1.063083],a=0.000000, t_min = 0.024000)
speedj([-0.766870, -1.657282, 3.200000, -0.713891, 0.366242, 1.063083],a=0.000000, t_min = 0.024000)
speedj([-0.766870, -1.657282, 3.200000, -0.713891, 0.366242, 1.063083],a=0.000000, t_min = 0.024000)
speedj([-0.766870, -1.657282, 3.200000, -0.713891, 0.366242, 1.063083],a=0.000000, t_min = 0.024000)
speedj([-0.682902, -1.475818, 2.849617, -0.635723, 0.326141, 0.946681],a=8.479638, t_min = 0.024000)
speedj([-0.545582, -1.179055, 2.276606, -0.507890, 0.260559, 0.756319],a=12.947514, t_min = 0.024000)
speedj([-0.401666, -0.868042, 1.676078, -0.373917, 0.191828, 0.556816],a=12.947514, t_min = 0.024000)
speedj([-0.258291, -0.558193, 1.077801, -0.240448, 0.123355, 0.358060],a=12.947514, t_min = 0.024000)
speedj([-0.115813, -0.250284, 0.483266, -0.107812, 0.055310, 0.160547],a=12.947514, t_min = 0.024000)
speedj([-0.010869, -0.023490, 0.045356, -0.010118, 0.005191, 0.015068],a=9.032560, t_min = 0.024000)
speedj([0.000000, 0.000000, 0.000000, 0.000000, 0.000000, 0.000000],a=0.000000, t_min = 0.024000)
speedj([0.000000, 0.000000, 0.000000, 0.000000, 0.000000, 0.000000],a=0.000000, t_min = 0.024000)
speedj([0.000000, 0.000000, 0.000000, 0.000000, 0.000000, 0.000000],a=0.000000, t_min = 0.024000)
speedj([0.000000, 0.000000, 0.000000, 0.000000, 0.000000, 0.000000],a=0.000000, t_min = 0.024000)
speedj([0.000000, 0.000000, 0.000000, 0.000000, 0.000000, 0.000000],a=0.000000, t_min = 0.024000)
speedj([0.000000, 0.000000, 0.000000, 0.000000, 0.000000, 0.000000],a=0.000000, t_min = 0.024000)
speedj([0.000000, 0.000000, 0.000000, 0.000000, 0.000000, 0.000000],a=0.000000, t_min = 0.024000)
speedj([0.000000, 0.000000, 0.000000, 0.000000, 0.000000, 0.000000],a=0.000000, t_min = 0.024000)
speedj([0.000000, 0.000000, 0.000000, 0.000000, 0.000000, 0.000000],a=0.000000, t_min = 0.024000)
speedj([0.000000, 0.000000, 0.000000, 0.000000, 0.000000, 0.000000],a=0.000000, t_min = 0.024000)
speedj([0.000000, 0.000000, 0.000000, 0.000000, 0.000000, 0.000000],a=0.000000, t_min = 0.024000)
