speedj([0.000000, 0.000000, 0.000000, 0.000000, 0.000000, 0.000000],a=0.000000, t_min = 0.040000)
speedj([0.000000, 0.000000, 0.000000, 0.000000, 0.000000, 0.000000],a=0.000000, t_min = 0.040000)
speedj([0.000000, 0.000000, 0.000000, 0.000000, 0.000000, 0.000000],a=0.000000, t_min = 0.040000)
speedj([0.000000, 0.000000, 0.000000, 0.000000, 0.000000, 0.000000],a=0.000000, t_min = 0.040000)
speedj([0.000000, 0.000000, 0.000000, 0.000000, 0.000000, 0.000000],a=0.000000, t_min = 0.040000)
speedj([0.000000, 0.000000, 0.000000, 0.000000, 0.000000, 0.000000],a=0.000000, t_min = 0.040000)
speedj([0.000000, 0.000000, 0.000000, 0.000000, 0.000000, 0.000000],a=0.000000, t_min = 0.040000)
speedj([0.000000, 0.000000, 0.000000, 0.000000, 0.000000, 0.000000],a=0.000000, t_min = 0.040000)
speedj([0.000000, 0.000000, 0.000000, 0.000000, 0.000000, 0.000000],a=0.000000, t_min = 0.040000)
speedj([0.000000, 0.000000, 0.000000, 0.000000, 0.000000, 0.000000],a=0.000000, t_min = 0.040000)
speedj([0.000000, 0.000000, 0.000000, 0.000000, 0.000000, 0.000000],a=0.000000, t_min = 0.040000)
speedj([0.000000, 0.000000, 0.000000, 0.000000, 0.000000, 0.000000],a=0.000000, t_min = 0.040000)
speedj([0.000000, 0.000000, 0.000000, 0.000000, 0.000000, 0.000000],a=0.000000, t_min = 0.040000)
speedj([0.000000, 0.000000, 0.000000, 0.000000, 0.000000, 0.000000],a=0.000000, t_min = 0.040000)
speedj([0.000000, 0.000000, 0.000000, 0.000000, 0.000000, 0.000000],a=0.000000, t_min = 0.040000)
speedj([0.000000, 0.000000, 0.000000, 0.000000, 0.000000, 0.000000],a=0.000000, t_min = 0.040000)
speedj([0.000000, 0.000000, 0.000000, 0.000000, 0.000000, 0.000000],a=0.000000, t_min = 0.040000)
speedj([0.000000, 0.000000, 0.000000, 0.000000, 0.000000, 0.000000],a=0.000000, t_min = 0.040000)
speedj([0.000000, 0.000000, 0.000000, 0.000000, 0.000000, 0.000000],a=0.000000, t_min = 0.040000)
speedj([0.000000, 0.000000, 0.000000, 0.000000, 0.000000, 0.000000],a=0.000000, t_min = 0.040000)
speedj([0.000000, 0.000000, 0.000000, 0.000000, 0.000000, 0.000000],a=0.000000, t_min = 0.040000)
speedj([0.000000, 0.000000, 0.000000, 0.000000, 0.000000, 0.000000],a=0.000000, t_min = 0.040000)
speedj([0.000000, 0.000000, 0.000000, 0.000000, 0.000000, 0.000000],a=0.000000, t_min = 0.040000)
speedj([0.000000, 0.000000, 0.000000, 0.000000, 0.000000, 0.000000],a=0.000000, t_min = 0.040000)
speedj([0.000000, 0.000000, 0.000000, 0.000000, 0.000000, 0.000000],a=0.000000, t_min = 0.040000)
speedj([0.000000, 0.000000, 0.000000, 0.000000, 0.000000, 0.000000],a=0.000000, t_min = 0.040000)
speedj([0.000000, 0.000000, 0.000000, 0.000000, 0.000000, 0.000000],a=0.000000, t_min = 0.040000)
speedj([0.000000, 0.000000, 0.000000, 0.000000, 0.000000, 0.000000],a=0.000000, t_min = 0.040000)
speedj([0.000000, 0.000000, 0.000000, 0.000000, 0.000000, 0.000000],a=0.000000, t_min = 0.040000)
speedj([0.000000, 0.000000, 0.000000, 0.000000, 0.000000, 0.000000],a=0.000000, t_min = 0.040000)
speedj([0.000000, 0.000000, 0.000000, 0.000000, 0.000000, 0.000000],a=0.000000, t_min = 0.040000)
speedj([0.000000, 0.000000, 0.000000, 0.000000, 0.000000, 0.000000],a=0.000000, t_min = 0.040000)
speedj([0.000000, 0.000000, 0.000000, 0.000000, 0.000000, 0.000000],a=0.000000, t_min = 0.040000)
speedj([0.000000, 0.000000, 0.000000, 0.000000, 0.000000, 0.000000],a=0.000000, t_min = 0.040000)
speedj([0.000000, 0.000000, 0.000000, 0.000000, 0.000000, 0.000000],a=0.000000, t_min = 0.040000)
speedj([0.000000, 0.000000, 0.000000, 0.000000, 0.000000, 0.000000],a=0.000000, t_min = 0.040000)
speedj([0.000000, 0.000000, 0.000000, 0.000000, 0.000000, 0.000000],a=0.000000, t_min = 0.040000)
speedj([0.000000, 0.000000, 0.000000, 0.000000, 0.000000, 0.000000],a=0.000000, t_min = 0.040000)
speedj([0.000000, 0.000000, 0.000000, 0.000000, 0.000000, 0.000000],a=0.000000, t_min = 0.040000)
speedj([0.000000, 0.000000, 0.000000, 0.000000, 0.000000, 0.000000],a=0.000000, t_min = 0.040000)
speedj([0.000000, 0.000000, 0.000000, 0.000000, 0.000000, 0.000000],a=0.000000, t_min = 0.040000)
speedj([0.000000, 0.000000, 0.000000, 0.000000, 0.000000, 0.000000],a=0.000000, t_min = 0.040000)
speedj([0.000000, 0.000000, 0.000000, 0.000000, 0.000000, 0.000000],a=0.000000, t_min = 0.040000)
speedj([0.000000, 0.000000, 0.000000, 0.000000, 0.000000, 0.000000],a=0.000000, t_min = 0.040000)
speedj([0.000000, 0.000000, 0.000000, 0.000000, 0.000000, 0.000000],a=0.000000, t_min = 0.040000)
speedj([0.000000, 0.000000, 0.000000, 0.000000, 0.000000, 0.000000],a=0.000000, t_min = 0.040000)
speedj([0.000000, 0.000000, 0.000000, 0.000000, 0.000000, 0.000000],a=0.000000, t_min = 0.040000)
speedj([0.000000, 0.000000, 0.000000, 0.000000, 0.000000, 0.000000],a=0.000000, t_min = 0.040000)
speedj([0.000000, 0.000000, 0.000000, 0.000000, 0.000000, 0.000000],a=0.000000, t_min = 0.040000)
speedj([0.000000, 0.000000, 0.000000, 0.000000, 0.000000, 0.000000],a=0.000000, t_min = 0.040000)
speedj([0.000000, 0.000000, 0.000000, 0.000000, 0.000000, 0.000000],a=0.000000, t_min = 0.040000)
speedj([0.000000, 0.000000, 0.000000, 0.000000, 0.000000, 0.000000],a=0.000000, t_min = 0.040000)
speedj([0.000000, 0.000000, 0.000000, 0.000000, 0.000000, 0.000000],a=0.000000, t_min = 0.040000)
speedj([0.000000, 0.000000, 0.000000, 0.000000, 0.000000, 0.000000],a=0.000000, t_min = 0.040000)
speedj([0.000000, 0.000000, 0.000000, 0.000000, 0.000000, 0.000000],a=0.000000, t_min = 0.040000)
speedj([0.000000, 0.000000, 0.000000, 0.000000, 0.000000, 0.000000],a=0.000000, t_min = 0.040000)
speedj([0.000000, 0.000000, 0.000000, 0.000000, 0.000000, 0.000000],a=0.000000, t_min = 0.040000)
speedj([0.000000, 0.000000, 0.000000, 0.000000, 0.000000, 0.000000],a=0.000000, t_min = 0.040000)
speedj([0.000000, 0.000000, 0.000000, 0.000000, 0.000000, 0.000000],a=0.000000, t_min = 0.040000)
speedj([0.000000, 0.000000, 0.000000, 0.000000, 0.000000, 0.000000],a=0.000000, t_min = 0.040000)
speedj([0.000000, 0.000000, 0.000000, 0.000000, 0.000000, 0.000000],a=0.000000, t_min = 0.040000)
speedj([0.000000, 0.000000, 0.000000, 0.000000, 0.000000, 0.000000],a=0.000000, t_min = 0.040000)
speedj([0.000000, 0.000000, 0.000000, 0.000000, 0.000000, 0.000000],a=0.000000, t_min = 0.040000)
speedj([0.000000, 0.000000, 0.000000, 0.000000, 0.000000, 0.000000],a=0.000000, t_min = 0.040000)
speedj([0.000000, 0.000000, 0.000000, 0.000000, 0.000000, 0.000000],a=0.000000, t_min = 0.040000)
speedj([0.000000, 0.000000, 0.000000, 0.000000, 0.000000, 0.000000],a=0.000000, t_min = 0.040000)
speedj([0.000000, 0.000000, 0.000000, 0.000000, 0.000000, 0.000000],a=0.000000, t_min = 0.040000)
speedj([0.000000, 0.000000, 0.000000, 0.000000, 0.000000, 0.000000],a=0.000000, t_min = 0.040000)
speedj([0.000000, 0.000000, 0.000000, 0.000000, 0.000000, 0.000000],a=0.000000, t_min = 0.040000)
speedj([0.000000, 0.000000, 0.000000, 0.000000, 0.000000, 0.000000],a=0.000000, t_min = 0.040000)
speedj([0.000000, 0.000000, 0.000000, 0.000000, 0.000000, 0.000000],a=0.000000, t_min = 0.040000)
speedj([0.000000, 0.000000, 0.000000, 0.000000, 0.000000, 0.000000],a=0.000000, t_min = 0.040000)
speedj([0.000000, 0.000000, 0.000000, 0.000000, 0.000000, 0.000000],a=0.000000, t_min = 0.040000)
speedj([0.000000, 0.000000, 0.000000, 0.000000, 0.000000, 0.000000],a=0.000000, t_min = 0.040000)
speedj([0.000000, 0.000000, 0.000000, 0.000000, 0.000000, 0.000000],a=0.000000, t_min = 0.040000)
speedj([0.000000, 0.000000, 0.000000, 0.000000, 0.000000, 0.000000],a=0.000000, t_min = 0.040000)
speedj([0.000000, 0.000000, 0.000000, 0.000000, 0.000000, 0.000000],a=0.000000, t_min = 0.040000)
speedj([0.000000, 0.000000, 0.000000, 0.000000, 0.000000, 0.000000],a=0.000000, t_min = 0.040000)
speedj([0.000000, 0.000000, 0.000000, 0.000000, 0.000000, 0.000000],a=0.000000, t_min = 0.040000)
speedj([0.000000, 0.000000, 0.000000, 0.000000, 0.000000, 0.000000],a=0.000000, t_min = 0.040000)
speedj([0.000000, 0.000000, 0.000000, 0.000000, 0.000000, 0.000000],a=0.000000, t_min = 0.040000)
speedj([0.000000, 0.000000, 0.000000, 0.000000, 0.000000, 0.000000],a=0.000000, t_min = 0.040000)
speedj([0.000000, 0.000000, 0.000000, 0.000000, 0.000000, 0.000000],a=0.000000, t_min = 0.040000)
speedj([0.000000, 0.000000, 0.000000, 0.000000, 0.000000, 0.000000],a=0.000000, t_min = 0.040000)
speedj([0.000000, 0.000000, 0.000000, 0.000000, 0.000000, 0.000000],a=0.000000, t_min = 0.040000)
speedj([0.000000, 0.000000, 0.000000, 0.000000, 0.000000, 0.000000],a=0.000000, t_min = 0.040000)
speedj([0.000000, 0.000000, 0.000000, 0.000000, 0.000000, 0.000000],a=0.000000, t_min = 0.040000)
speedj([0.000000, 0.000000, 0.000000, 0.000000, 0.000000, 0.000000],a=0.000000, t_min = 0.040000)
speedj([0.000000, 0.000000, 0.000000, 0.000000, 0.000000, 0.000000],a=0.000000, t_min = 0.040000)
speedj([0.000000, 0.000000, 0.000000, 0.000000, 0.000000, 0.000000],a=0.000000, t_min = 0.040000)
speedj([0.000000, 0.000000, 0.000000, 0.000000, 0.000000, 0.000000],a=0.000000, t_min = 0.040000)
speedj([0.000000, 0.000000, 0.000000, 0.000000, 0.000000, 0.000000],a=0.000000, t_min = 0.040000)
speedj([0.000000, 0.000000, 0.000000, 0.000000, 0.000000, 0.000000],a=0.000000, t_min = 0.040000)
speedj([0.000000, 0.000000, 0.000000, 0.000000, 0.000000, 0.000000],a=0.000000, t_min = 0.040000)
speedj([0.000000, 0.000000, 0.000000, 0.000000, 0.000000, 0.000000],a=0.000000, t_min = 0.040000)
speedj([0.000000, 0.000000, 0.000000, 0.000000, 0.000000, 0.000000],a=0.000000, t_min = 0.040000)
speedj([0.000000, 0.000000, 0.000000, 0.000000, 0.000000, 0.000000],a=0.000000, t_min = 0.040000)
speedj([0.000000, 0.000000, 0.000000, 0.000000, 0.000000, 0.000000],a=0.000000, t_min = 0.040000)
speedj([0.000000, 0.000000, 0.000000, 0.000000, 0.000000, 0.000000],a=0.000000, t_min = 0.040000)
speedj([0.000000, 0.000000, 0.000000, 0.000000, 0.000000, 0.000000],a=0.000000, t_min = 0.040000)
speedj([0.000000, 0.000000, 0.000000, 0.000000, 0.000000, 0.000000],a=0.000000, t_min = 0.040000)
speedj([0.000000, 0.000000, 0.000000, 0.000000, 0.000000, 0.000000],a=0.000000, t_min = 0.040000)
speedj([0.000000, 0.000000, 0.000000, 0.000000, 0.000000, 0.000000],a=0.000000, t_min = 0.040000)
speedj([0.000000, 0.000000, 0.000000, 0.000000, 0.000000, 0.000000],a=0.000000, t_min = 0.040000)
speedj([0.000000, 0.000000, 0.000000, 0.000000, 0.000000, 0.000000],a=0.000000, t_min = 0.040000)
speedj([0.000000, 0.000000, 0.000000, 0.000000, 0.000000, 0.000000],a=0.000000, t_min = 0.040000)
speedj([0.000000, 0.000000, 0.000000, 0.000000, 0.000000, 0.000000],a=0.000000, t_min = 0.040000)
speedj([0.000000, 0.000000, 0.000000, 0.000000, 0.000000, 0.000000],a=0.000000, t_min = 0.040000)
speedj([0.000000, 0.000000, 0.000000, 0.000000, 0.000000, 0.000000],a=0.000000, t_min = 0.040000)
speedj([0.000000, 0.000000, 0.000000, 0.000000, 0.000000, 0.000000],a=0.000000, t_min = 0.040000)
speedj([0.000000, 0.000000, 0.000000, 0.000000, 0.000000, 0.000000],a=0.000000, t_min = 0.040000)
speedj([0.002216, 0.004788, -0.009245, 0.002063, -0.001058, -0.003073],a=0.598536, t_min = 0.040000)
speedj([0.014648, 0.031658, -0.061127, 0.013637, -0.006996, -0.020318],a=0.723137, t_min = 0.040000)
speedj([0.027996, 0.060504, -0.116824, 0.026063, -0.013370, -0.038831],a=0.723137, t_min = 0.040000)
speedj([0.041325, 0.089312, -0.172447, 0.038472, -0.019737, -0.057319],a=0.723137, t_min = 0.040000)
speedj([0.054679, 0.118171, -0.228170, 0.050904, -0.026114, -0.075840],a=0.723137, t_min = 0.040000)
speedj([0.068009, 0.146980, -0.283796, 0.063313, -0.032480, -0.094329],a=0.723137, t_min = 0.040000)
speedj([0.081333, 0.175777, -0.339397, 0.075718, -0.038844, -0.112810],a=0.723137, t_min = 0.040000)
speedj([0.094651, 0.204559, -0.394972, 0.088116, -0.045204, -0.131282],a=0.723137, t_min = 0.040000)
speedj([0.108012, 0.233435, -0.450725, 0.100555, -0.051585, -0.149814],a=0.723137, t_min = 0.040000)
speedj([0.121382, 0.262331, -0.506521, 0.113001, -0.057971, -0.168359],a=0.723137, t_min = 0.040000)
speedj([0.134645, 0.290994, -0.561863, 0.125348, -0.064305, -0.186754],a=0.723137, t_min = 0.040000)
speedj([0.148017, 0.319893, -0.617663, 0.137797, -0.070692, -0.205301],a=0.723137, t_min = 0.040000)
speedj([0.161360, 0.348731, -0.673344, 0.150219, -0.077064, -0.223808],a=0.723137, t_min = 0.040000)
speedj([0.174680, 0.377516, -0.728925, 0.162619, -0.083425, -0.242282],a=0.723137, t_min = 0.040000)
speedj([0.188025, 0.406356, -0.784610, 0.175042, -0.089798, -0.260791],a=0.723137, t_min = 0.040000)
speedj([0.201367, 0.435193, -0.840289, 0.187464, -0.096171, -0.279298],a=0.723137, t_min = 0.040000)
speedj([0.214710, 0.464030, -0.895968, 0.199885, -0.102544, -0.297805],a=0.723137, t_min = 0.040000)
speedj([0.228022, 0.492799, -0.951517, 0.212278, -0.108901, -0.316268],a=0.723137, t_min = 0.040000)
speedj([0.241359, 0.521624, -1.007173, 0.224695, -0.115271, -0.334767],a=0.723137, t_min = 0.040000)
speedj([0.250951, 0.542353, -1.047198, 0.233624, -0.119852, -0.348071],a=0.000000, t_min = 0.040000)
speedj([0.250951, 0.542353, -1.047198, 0.233624, -0.119852, -0.348071],a=0.000000, t_min = 0.040000)
speedj([0.250951, 0.542353, -1.047198, 0.233624, -0.119852, -0.348071],a=0.000000, t_min = 0.040000)
speedj([0.250951, 0.542353, -1.047198, 0.233624, -0.119852, -0.348071],a=0.000000, t_min = 0.040000)
speedj([0.250951, 0.542353, -1.047198, 0.233624, -0.119852, -0.348071],a=0.000000, t_min = 0.040000)
speedj([0.250951, 0.542353, -1.047198, 0.233624, -0.119852, -0.348071],a=0.000000, t_min = 0.040000)
speedj([0.250951, 0.542353, -1.047198, 0.233624, -0.119852, -0.348071],a=0.000000, t_min = 0.040000)
speedj([0.250951, 0.542353, -1.047198, 0.233624, -0.119852, -0.348071],a=0.000000, t_min = 0.040000)
speedj([0.250951, 0.542353, -1.047198, 0.233624, -0.119852, -0.348071],a=0.000000, t_min = 0.040000)
speedj([0.250951, 0.542353, -1.047198, 0.233624, -0.119852, -0.348071],a=0.000000, t_min = 0.040000)
speedj([0.250951, 0.542353, -1.047198, 0.233624, -0.119852, -0.348071],a=0.000000, t_min = 0.040000)
speedj([0.250951, 0.542353, -1.047198, 0.233624, -0.119852, -0.348071],a=0.000000, t_min = 0.040000)
speedj([0.250951, 0.542353, -1.047198, 0.233624, -0.119852, -0.348071],a=0.000000, t_min = 0.040000)
speedj([0.250951, 0.542353, -1.047198, 0.233624, -0.119852, -0.348071],a=0.000000, t_min = 0.040000)
speedj([0.250951, 0.542353, -1.047198, 0.233624, -0.119852, -0.348071],a=0.000000, t_min = 0.040000)
speedj([0.250951, 0.542353, -1.047198, 0.233624, -0.119852, -0.348071],a=0.000000, t_min = 0.040000)
speedj([0.250951, 0.542353, -1.047198, 0.233624, -0.119852, -0.348071],a=0.000000, t_min = 0.040000)
speedj([0.250951, 0.542353, -1.047198, 0.233624, -0.119852, -0.348071],a=0.000000, t_min = 0.040000)
speedj([0.250951, 0.542353, -1.047198, 0.233624, -0.119852, -0.348071],a=0.000000, t_min = 0.040000)
speedj([0.250951, 0.542353, -1.047198, 0.233624, -0.119852, -0.348071],a=0.000000, t_min = 0.040000)
speedj([0.250951, 0.542353, -1.047198, 0.233624, -0.119852, -0.348071],a=0.000000, t_min = 0.040000)
speedj([0.250951, 0.542353, -1.047198, 0.233624, -0.119852, -0.348071],a=0.000000, t_min = 0.040000)
speedj([0.250951, 0.542353, -1.047198, 0.233624, -0.119852, -0.348071],a=0.000000, t_min = 0.040000)
speedj([0.248392, 0.536824, -1.036522, 0.231243, -0.118630, -0.344523],a=1.396263, t_min = 0.040000)
speedj([0.235022, 0.507928, -0.980729, 0.218796, -0.112244, -0.325978],a=1.396263, t_min = 0.040000)
speedj([0.221697, 0.479129, -0.925123, 0.206390, -0.105881, -0.307495],a=1.396263, t_min = 0.040000)
speedj([0.208401, 0.450394, -0.869640, 0.194012, -0.099530, -0.289053],a=1.396263, t_min = 0.040000)
speedj([0.195023, 0.421483, -0.813817, 0.181558, -0.093141, -0.270499],a=1.396263, t_min = 0.040000)
speedj([0.181692, 0.392672, -0.758188, 0.169148, -0.086774, -0.252009],a=1.396263, t_min = 0.040000)
speedj([0.168406, 0.363958, -0.702746, 0.156779, -0.080429, -0.233581],a=1.396263, t_min = 0.040000)
speedj([0.155017, 0.335021, -0.646872, 0.144314, -0.074035, -0.215009],a=1.396263, t_min = 0.040000)
speedj([0.141732, 0.306310, -0.591435, 0.131946, -0.067689, -0.196583],a=1.396263, t_min = 0.040000)
speedj([0.128345, 0.277378, -0.535572, 0.119483, -0.061297, -0.178016],a=1.396263, t_min = 0.040000)
speedj([0.115014, 0.248568, -0.479946, 0.107073, -0.054930, -0.159526],a=1.396263, t_min = 0.040000)
speedj([0.101715, 0.219825, -0.424447, 0.094692, -0.048578, -0.141079],a=1.396263, t_min = 0.040000)
speedj([0.088351, 0.190943, -0.368681, 0.082250, -0.042196, -0.122543],a=1.396263, t_min = 0.040000)
speedj([0.075057, 0.162212, -0.313205, 0.069874, -0.035846, -0.104105],a=1.396263, t_min = 0.040000)
speedj([0.061671, 0.133284, -0.257350, 0.057413, -0.029454, -0.085538],a=1.396263, t_min = 0.040000)
speedj([0.048329, 0.104447, -0.201671, 0.044991, -0.023081, -0.067032],a=1.396263, t_min = 0.040000)
speedj([0.035001, 0.075644, -0.146056, 0.032584, -0.016716, -0.048546],a=1.396263, t_min = 0.040000)
speedj([0.021659, 0.046811, -0.090384, 0.020165, -0.010344, -0.030042],a=1.396263, t_min = 0.040000)
speedj([0.008348, 0.018042, -0.034835, 0.007772, -0.003987, -0.011578],a=1.396263, t_min = 0.040000)
speedj([0.000294, 0.000636, -0.001227, 0.000274, -0.000140, -0.000408],a=0.285564, t_min = 0.040000)
speedj([0.000000, 0.000000, 0.000000, 0.000000, 0.000000, 0.000000],a=0.000000, t_min = 0.040000)
speedj([-0.006306, -0.013619, 0.026301, -0.005866, 0.003008, 0.008738],a=1.396263, t_min = 0.040000)
speedj([-0.019708, -0.042567, 0.082205, -0.018336, 0.009403, 0.027311],a=1.396263, t_min = 0.040000)
speedj([-0.033138, -0.071574, 0.138222, -0.030829, 0.015811, 0.045922],a=1.396263, t_min = 0.040000)
speedj([-0.046414, -0.100248, 0.193597, -0.043180, 0.022145, 0.064319],a=1.396263, t_min = 0.040000)
speedj([-0.059707, -0.128959, 0.249042, -0.055547, 0.028487, 0.082740],a=1.396263, t_min = 0.040000)
speedj([-0.073125, -0.157939, 0.305008, -0.068030, 0.034889, 0.101333],a=1.396263, t_min = 0.040000)
speedj([-0.086444, -0.186708, 0.360565, -0.080422, 0.041244, 0.119791],a=1.396263, t_min = 0.040000)
speedj([-0.099743, -0.215431, 0.416034, -0.092794, 0.047590, 0.138220],a=1.396263, t_min = 0.040000)
speedj([-0.113124, -0.244333, 0.471848, -0.105243, 0.053973, 0.156763],a=1.396263, t_min = 0.040000)
speedj([-0.126448, -0.273111, 0.527425, -0.117639, 0.060331, 0.175228],a=1.396263, t_min = 0.040000)
speedj([-0.139749, -0.301841, 0.582906, -0.130013, 0.066677, 0.193661],a=1.396263, t_min = 0.040000)
speedj([-0.153156, -0.330797, 0.638825, -0.142486, 0.073074, 0.212238],a=1.396263, t_min = 0.040000)
speedj([-0.166399, -0.359402, 0.694067, -0.154807, 0.079393, 0.230592],a=1.396263, t_min = 0.040000)
speedj([-0.179791, -0.388326, 0.749924, -0.167266, 0.085782, 0.249149],a=1.396263, t_min = 0.040000)
speedj([-0.193141, -0.417160, 0.805607, -0.179686, 0.092152, 0.267648],a=1.396263, t_min = 0.040000)
speedj([-0.206507, -0.446028, 0.861358, -0.192121, 0.098529, 0.286172],a=1.396263, t_min = 0.040000)
speedj([-0.219868, -0.474886, 0.917087, -0.204551, 0.104903, 0.304686],a=1.396263, t_min = 0.040000)
speedj([-0.233149, -0.503571, 0.972483, -0.216906, 0.111240, 0.323091],a=1.396263, t_min = 0.040000)
speedj([-0.246540, -0.532495, 1.028339, -0.229364, 0.117629, 0.341648],a=1.396263, t_min = 0.040000)
speedj([-0.251061, -0.542260, 1.047198, -0.233571, 0.119787, 0.347913],a=0.000000, t_min = 0.040000)
speedj([-0.251061, -0.542260, 1.047198, -0.233571, 0.119787, 0.347913],a=0.000000, t_min = 0.040000)
speedj([-0.251061, -0.542260, 1.047198, -0.233571, 0.119787, 0.347913],a=0.000000, t_min = 0.040000)
speedj([-0.251061, -0.542260, 1.047198, -0.233571, 0.119787, 0.347913],a=0.000000, t_min = 0.040000)
speedj([-0.251061, -0.542260, 1.047198, -0.233571, 0.119787, 0.347913],a=0.000000, t_min = 0.040000)
speedj([-0.251061, -0.542260, 1.047198, -0.233571, 0.119787, 0.347913],a=0.000000, t_min = 0.040000)
speedj([-0.251061, -0.542260, 1.047198, -0.233571, 0.119787, 0.347913],a=0.000000, t_min = 0.040000)
speedj([-0.251061, -0.542260, 1.047198, -0.233571, 0.119787, 0.347913],a=0.000000, t_min = 0.040000)
speedj([-0.251061, -0.542260, 1.047198, -0.233571, 0.119787, 0.347913],a=0.000000, t_min = 0.040000)
speedj([-0.251061, -0.542260, 1.047198, -0.233571, 0.119787, 0.347913],a=0.000000, t_min = 0.040000)
speedj([-0.251061, -0.542260, 1.047198, -0.233571, 0.119787, 0.347913],a=0.000000, t_min = 0.040000)
speedj([-0.251061, -0.542260, 1.047198, -0.233571, 0.119787, 0.347913],a=0.000000, t_min = 0.040000)
speedj([-0.251061, -0.542260, 1.047198, -0.233571, 0.119787, 0.347913],a=0.000000, t_min = 0.040000)
speedj([-0.251061, -0.542260, 1.047198, -0.233571, 0.119787, 0.347913],a=0.000000, t_min = 0.040000)
speedj([-0.251061, -0.542260, 1.047198, -0.233571, 0.119787, 0.347913],a=0.000000, t_min = 0.040000)
speedj([-0.251061, -0.542260, 1.047198, -0.233571, 0.119787, 0.347913],a=0.000000, t_min = 0.040000)
speedj([-0.251061, -0.542260, 1.047198, -0.233571, 0.119787, 0.347913],a=0.000000, t_min = 0.040000)
speedj([-0.251061, -0.542260, 1.047198, -0.233571, 0.119787, 0.347913],a=0.000000, t_min = 0.040000)
speedj([-0.251061, -0.542260, 1.047198, -0.233571, 0.119787, 0.347913],a=0.000000, t_min = 0.040000)
speedj([-0.251061, -0.542260, 1.047198, -0.233571, 0.119787, 0.347913],a=0.000000, t_min = 0.040000)
speedj([-0.251061, -0.542260, 1.047198, -0.233571, 0.119787, 0.347913],a=0.000000, t_min = 0.040000)
speedj([-0.251061, -0.542260, 1.047198, -0.233571, 0.119787, 0.347913],a=0.000000, t_min = 0.040000)
speedj([-0.250923, -0.541962, 1.046623, -0.233443, 0.119721, 0.347722],a=0.158679, t_min = 0.040000)
speedj([-0.243402, -0.525717, 1.015249, -0.226445, 0.116132, 0.337299],a=0.723014, t_min = 0.040000)
speedj([-0.230042, -0.496862, 0.959525, -0.214016, 0.109758, 0.318786],a=0.723014, t_min = 0.040000)
speedj([-0.216670, -0.467979, 0.903749, -0.201576, 0.103378, 0.300254],a=0.723014, t_min = 0.040000)
speedj([-0.203337, -0.439183, 0.848137, -0.189172, 0.097017, 0.281779],a=0.723014, t_min = 0.040000)
speedj([-0.190029, -0.410437, 0.792625, -0.176790, 0.090667, 0.263336],a=0.723014, t_min = 0.040000)
speedj([-0.176723, -0.381700, 0.737127, -0.164411, 0.084319, 0.244898],a=0.723014, t_min = 0.040000)
speedj([-0.163344, -0.352803, 0.681323, -0.151965, 0.077935, 0.226358],a=0.723014, t_min = 0.040000)
speedj([-0.149971, -0.323918, 0.625542, -0.139523, 0.071554, 0.207825],a=0.723014, t_min = 0.040000)
speedj([-0.136649, -0.295145, 0.569976, -0.127130, 0.065198, 0.189365],a=0.723014, t_min = 0.040000)
speedj([-0.123278, -0.266265, 0.514204, -0.114690, 0.058819, 0.170836],a=0.723014, t_min = 0.040000)
speedj([-0.110004, -0.237594, 0.458834, -0.102340, 0.052485, 0.152439],a=0.723014, t_min = 0.040000)
speedj([-0.096637, -0.208722, 0.403080, -0.089904, 0.046108, 0.133916],a=0.723014, t_min = 0.040000)
speedj([-0.083298, -0.179911, 0.347439, -0.077494, 0.039743, 0.115431],a=0.723014, t_min = 0.040000)
speedj([-0.069992, -0.151174, 0.291943, -0.065116, 0.033395, 0.096993],a=0.723014, t_min = 0.040000)
speedj([-0.056601, -0.122252, 0.236088, -0.052658, 0.027006, 0.078436],a=0.723014, t_min = 0.040000)
speedj([-0.043275, -0.093468, 0.180504, -0.040260, 0.020647, 0.059969],a=0.723014, t_min = 0.040000)
speedj([-0.029932, -0.064650, 0.124849, -0.027847, 0.014281, 0.041479],a=0.723014, t_min = 0.040000)
speedj([-0.016536, -0.035715, 0.068973, -0.015384, 0.007890, 0.022915],a=0.723014, t_min = 0.040000)
speedj([-0.003266, -0.007054, 0.013623, -0.003038, 0.001558, 0.004526],a=0.723014, t_min = 0.040000)
speedj([0.000000, 0.000000, 0.000000, 0.000000, 0.000000, 0.000000],a=0.000000, t_min = 0.040000)
speedj([0.002283, 0.004931, -0.009523, 0.002125, -0.001090, -0.003166],a=0.308208, t_min = 0.040000)
speedj([0.014093, 0.030444, -0.058795, 0.013118, -0.006730, -0.019546],a=0.723008, t_min = 0.040000)
speedj([0.027430, 0.059257, -0.114436, 0.025531, -0.013100, -0.038044],a=0.723008, t_min = 0.040000)
speedj([0.040728, 0.087984, -0.169914, 0.037908, -0.019450, -0.056488],a=0.723008, t_min = 0.040000)
speedj([0.054108, 0.116888, -0.225734, 0.050362, -0.025841, -0.075046],a=0.723008, t_min = 0.040000)
speedj([0.067470, 0.145757, -0.281483, 0.062800, -0.032223, -0.093580],a=0.723008, t_min = 0.040000)
speedj([0.080744, 0.174431, -0.336858, 0.075154, -0.038561, -0.111989],a=0.723008, t_min = 0.040000)
speedj([0.094127, 0.203343, -0.392693, 0.087611, -0.044953, -0.130551],a=0.723008, t_min = 0.040000)
speedj([0.107449, 0.232122, -0.448271, 0.100011, -0.051316, -0.149028],a=0.723008, t_min = 0.040000)
speedj([0.120843, 0.261057, -0.504150, 0.112478, -0.057711, -0.167606],a=0.723008, t_min = 0.040000)
speedj([0.134141, 0.289785, -0.559628, 0.124856, -0.064063, -0.186050],a=0.723008, t_min = 0.040000)
speedj([0.147469, 0.318579, -0.615234, 0.137261, -0.070427, -0.204536],a=0.723008, t_min = 0.040000)
speedj([0.160832, 0.347445, -0.670982, 0.149698, -0.076809, -0.223069],a=0.723008, t_min = 0.040000)
speedj([0.174127, 0.376166, -0.726447, 0.162073, -0.083159, -0.241509],a=0.723008, t_min = 0.040000)
speedj([0.187497, 0.405048, -0.782223, 0.174516, -0.089544, -0.260052],a=0.723008, t_min = 0.040000)
speedj([0.200836, 0.433865, -0.837873, 0.186933, -0.095914, -0.278552],a=0.723008, t_min = 0.040000)
speedj([0.214177, 0.462685, -0.893531, 0.199350, -0.102286, -0.297056],a=0.723008, t_min = 0.040000)
speedj([0.227530, 0.491533, -0.949241, 0.211779, -0.108662, -0.315577],a=0.723008, t_min = 0.040000)
speedj([0.240851, 0.520310, -1.004815, 0.224177, -0.115024, -0.334052],a=0.723008, t_min = 0.040000)
speedj([0.251010, 0.542256, -1.047198, 0.233634, -0.119876, -0.348143],a=0.000000, t_min = 0.040000)
speedj([0.251010, 0.542256, -1.047198, 0.233634, -0.119876, -0.348143],a=0.000000, t_min = 0.040000)
speedj([0.251010, 0.542256, -1.047198, 0.233634, -0.119876, -0.348143],a=0.000000, t_min = 0.040000)
speedj([0.251010, 0.542256, -1.047198, 0.233634, -0.119876, -0.348143],a=0.000000, t_min = 0.040000)
speedj([0.251010, 0.542256, -1.047198, 0.233634, -0.119876, -0.348143],a=0.000000, t_min = 0.040000)
speedj([0.251010, 0.542256, -1.047198, 0.233634, -0.119876, -0.348143],a=0.000000, t_min = 0.040000)
speedj([0.251010, 0.542256, -1.047198, 0.233634, -0.119876, -0.348143],a=0.000000, t_min = 0.040000)
speedj([0.251010, 0.542256, -1.047198, 0.233634, -0.119876, -0.348143],a=0.000000, t_min = 0.040000)
speedj([0.251010, 0.542256, -1.047198, 0.233634, -0.119876, -0.348143],a=0.000000, t_min = 0.040000)
speedj([0.251010, 0.542256, -1.047198, 0.233634, -0.119876, -0.348143],a=0.000000, t_min = 0.040000)
speedj([0.251010, 0.542256, -1.047198, 0.233634, -0.119876, -0.348143],a=0.000000, t_min = 0.040000)
speedj([0.251010, 0.542256, -1.047198, 0.233634, -0.119876, -0.348143],a=0.000000, t_min = 0.040000)
speedj([0.251010, 0.542256, -1.047198, 0.233634, -0.119876, -0.348143],a=0.000000, t_min = 0.040000)
speedj([0.251010, 0.542256, -1.047198, 0.233634, -0.119876, -0.348143],a=0.000000, t_min = 0.040000)
speedj([0.251010, 0.542256, -1.047198, 0.233634, -0.119876, -0.348143],a=0.000000, t_min = 0.040000)
speedj([0.251010, 0.542256, -1.047198, 0.233634, -0.119876, -0.348143],a=0.000000, t_min = 0.040000)
speedj([0.251010, 0.542256, -1.047198, 0.233634, -0.119876, -0.348143],a=0.000000, t_min = 0.040000)
speedj([0.251010, 0.542256, -1.047198, 0.233634, -0.119876, -0.348143],a=0.000000, t_min = 0.040000)
speedj([0.251010, 0.542256, -1.047198, 0.233634, -0.119876, -0.348143],a=0.000000, t_min = 0.040000)
speedj([0.251010, 0.542256, -1.047198, 0.233634, -0.119876, -0.348143],a=0.000000, t_min = 0.040000)
speedj([0.251010, 0.542256, -1.047198, 0.233634, -0.119876, -0.348143],a=0.000000, t_min = 0.040000)
speedj([0.251010, 0.542256, -1.047198, 0.233634, -0.119876, -0.348143],a=0.000000, t_min = 0.040000)
speedj([0.251010, 0.542256, -1.047198, 0.233634, -0.119876, -0.348143],a=0.000000, t_min = 0.040000)
speedj([0.248203, 0.536191, -1.035485, 0.231021, -0.118535, -0.344249],a=1.181950, t_min = 0.040000)
speedj([0.235618, 0.509005, -0.982985, 0.219307, -0.112526, -0.326795],a=1.396263, t_min = 0.040000)
speedj([0.222254, 0.480134, -0.927227, 0.206868, -0.106143, -0.308258],a=1.396263, t_min = 0.040000)
speedj([0.208930, 0.451350, -0.871641, 0.194466, -0.099779, -0.289779],a=1.396263, t_min = 0.040000)
speedj([0.195607, 0.422569, -0.816059, 0.182066, -0.093417, -0.271300],a=1.396263, t_min = 0.040000)
speedj([0.182233, 0.393677, -0.760263, 0.169617, -0.087030, -0.252751],a=1.396263, t_min = 0.040000)
speedj([0.168906, 0.364886, -0.704663, 0.157213, -0.080666, -0.234267],a=1.396263, t_min = 0.040000)
speedj([0.155567, 0.336071, -0.649015, 0.144798, -0.074295, -0.215767],a=1.396263, t_min = 0.040000)
speedj([0.142256, 0.307316, -0.593485, 0.132409, -0.067938, -0.197305],a=1.396263, t_min = 0.040000)
speedj([0.128901, 0.278464, -0.537766, 0.119978, -0.061560, -0.178781],a=1.396263, t_min = 0.040000)
speedj([0.115544, 0.249609, -0.482041, 0.107545, -0.055181, -0.160255],a=1.396263, t_min = 0.040000)
speedj([0.102169, 0.220715, -0.426241, 0.095096, -0.048793, -0.141705],a=1.396263, t_min = 0.040000)
speedj([0.088826, 0.191890, -0.370577, 0.082677, -0.042422, -0.123198],a=1.396263, t_min = 0.040000)
speedj([0.075538, 0.163184, -0.315138, 0.070309, -0.036075, -0.104768],a=1.396263, t_min = 0.040000)
speedj([0.062232, 0.134440, -0.259630, 0.057924, -0.029720, -0.086314],a=1.396263, t_min = 0.040000)
speedj([0.048845, 0.105520, -0.203778, 0.045464, -0.023328, -0.067747],a=1.396263, t_min = 0.040000)
speedj([0.035545, 0.076788, -0.148293, 0.033085, -0.016976, -0.049300],a=1.396263, t_min = 0.040000)
speedj([0.022160, 0.047873, -0.092451, 0.020626, -0.010583, -0.030735],a=1.396263, t_min = 0.040000)
speedj([0.008832, 0.019080, -0.036847, 0.008220, -0.004218, -0.012249],a=1.396263, t_min = 0.040000)
speedj([0.000000, 0.000000, -0.000000, -0.000000, -0.000000, -0.000000],a=0.839306, t_min = 0.040000)
speedj([0.000000, 0.000000, 0.000000, 0.000000, 0.000000, 0.000000],a=0.000000, t_min = 0.040000)
speedj([-0.008442, -0.018234, 0.035212, -0.007854, 0.004028, 0.011699],a=1.396263, t_min = 0.040000)
speedj([-0.021845, -0.047179, 0.091111, -0.020321, 0.010422, 0.030270],a=1.396263, t_min = 0.040000)
speedj([-0.035174, -0.075967, 0.146705, -0.032720, 0.016782, 0.048741],a=1.396263, t_min = 0.040000)
speedj([-0.048493, -0.104733, 0.202257, -0.045111, 0.023136, 0.067197],a=1.396263, t_min = 0.040000)
speedj([-0.061872, -0.133629, 0.258060, -0.057557, 0.029519, 0.085737],a=1.396263, t_min = 0.040000)
speedj([-0.075173, -0.162354, 0.313534, -0.069930, 0.035865, 0.104167],a=1.396263, t_min = 0.040000)
speedj([-0.088504, -0.191148, 0.369139, -0.082332, 0.042226, 0.122642],a=1.396263, t_min = 0.040000)
speedj([-0.101868, -0.220010, 0.424878, -0.094763, 0.048602, 0.141160],a=1.396263, t_min = 0.040000)
speedj([-0.115202, -0.248808, 0.480491, -0.107167, 0.054963, 0.159636],a=1.396263, t_min = 0.040000)
speedj([-0.128580, -0.277701, 0.536288, -0.119612, 0.061345, 0.178174],a=1.396263, t_min = 0.040000)
speedj([-0.141868, -0.306399, 0.591710, -0.131973, 0.067685, 0.196587],a=1.396263, t_min = 0.040000)
speedj([-0.155222, -0.335242, 0.647409, -0.144396, 0.074057, 0.215093],a=1.396263, t_min = 0.040000)
speedj([-0.168607, -0.364147, 0.703231, -0.156847, 0.080442, 0.233639],a=1.396263, t_min = 0.040000)
speedj([-0.181857, -0.392767, 0.758500, -0.169174, 0.086764, 0.252001],a=1.396263, t_min = 0.040000)
speedj([-0.195290, -0.421779, 0.814527, -0.181670, 0.093173, 0.270615],a=1.396263, t_min = 0.040000)
speedj([-0.208557, -0.450432, 0.869860, -0.194011, 0.099502, 0.288999],a=1.396263, t_min = 0.040000)
speedj([-0.221929, -0.479312, 0.925635, -0.206451, 0.105882, 0.307529],a=1.396263, t_min = 0.040000)
speedj([-0.235268, -0.508120, 0.981266, -0.218858, 0.112246, 0.326012],a=1.396263, t_min = 0.040000)
speedj([-0.247690, -0.534948, 1.033077, -0.230414, 0.118173, 0.343226],a=1.008632, t_min = 0.040000)
speedj([-0.251075, -0.542260, 1.047198, -0.233564, 0.119788, 0.347917],a=0.000000, t_min = 0.040000)
speedj([-0.251075, -0.542260, 1.047198, -0.233564, 0.119788, 0.347917],a=0.000000, t_min = 0.040000)
speedj([-0.251075, -0.542260, 1.047198, -0.233564, 0.119788, 0.347917],a=0.000000, t_min = 0.040000)
speedj([-0.251075, -0.542260, 1.047198, -0.233564, 0.119788, 0.347917],a=0.000000, t_min = 0.040000)
speedj([-0.251075, -0.542260, 1.047198, -0.233564, 0.119788, 0.347917],a=0.000000, t_min = 0.040000)
speedj([-0.251075, -0.542260, 1.047198, -0.233564, 0.119788, 0.347917],a=0.000000, t_min = 0.040000)
speedj([-0.251075, -0.542260, 1.047198, -0.233564, 0.119788, 0.347917],a=0.000000, t_min = 0.040000)
speedj([-0.251075, -0.542260, 1.047198, -0.233564, 0.119788, 0.347917],a=0.000000, t_min = 0.040000)
speedj([-0.251075, -0.542260, 1.047198, -0.233564, 0.119788, 0.347917],a=0.000000, t_min = 0.040000)
speedj([-0.251075, -0.542260, 1.047198, -0.233564, 0.119788, 0.347917],a=0.000000, t_min = 0.040000)
speedj([-0.251075, -0.542260, 1.047198, -0.233564, 0.119788, 0.347917],a=0.000000, t_min = 0.040000)
speedj([-0.251075, -0.542260, 1.047198, -0.233564, 0.119788, 0.347917],a=0.000000, t_min = 0.040000)
speedj([-0.251075, -0.542260, 1.047198, -0.233564, 0.119788, 0.347917],a=0.000000, t_min = 0.040000)
speedj([-0.251075, -0.542260, 1.047198, -0.233564, 0.119788, 0.347917],a=0.000000, t_min = 0.040000)
speedj([-0.251075, -0.542260, 1.047198, -0.233564, 0.119788, 0.347917],a=0.000000, t_min = 0.040000)
speedj([-0.251075, -0.542260, 1.047198, -0.233564, 0.119788, 0.347917],a=0.000000, t_min = 0.040000)
speedj([-0.251075, -0.542260, 1.047198, -0.233564, 0.119788, 0.347917],a=0.000000, t_min = 0.040000)
speedj([-0.251075, -0.542260, 1.047198, -0.233564, 0.119788, 0.347917],a=0.000000, t_min = 0.040000)
speedj([-0.251075, -0.542260, 1.047198, -0.233564, 0.119788, 0.347917],a=0.000000, t_min = 0.040000)
speedj([-0.251075, -0.542260, 1.047198, -0.233564, 0.119788, 0.347917],a=0.000000, t_min = 0.040000)
speedj([-0.251075, -0.542260, 1.047198, -0.233564, 0.119788, 0.347917],a=0.000000, t_min = 0.040000)
speedj([-0.251075, -0.542260, 1.047198, -0.233564, 0.119788, 0.347917],a=0.000000, t_min = 0.040000)
speedj([-0.251075, -0.542260, 1.047198, -0.233564, 0.119788, 0.347917],a=0.000000, t_min = 0.040000)
speedj([-0.241287, -0.521120, 1.006372, -0.224458, 0.115118, 0.334353],a=0.723014, t_min = 0.040000)
speedj([-0.227977, -0.492374, 0.950859, -0.212077, 0.108768, 0.315910],a=0.723014, t_min = 0.040000)
speedj([-0.214609, -0.463501, 0.895100, -0.199640, 0.102390, 0.297384],a=0.723014, t_min = 0.040000)
speedj([-0.201310, -0.434780, 0.839634, -0.187269, 0.096045, 0.278957],a=0.723014, t_min = 0.040000)
speedj([-0.187968, -0.405963, 0.783984, -0.174857, 0.089679, 0.260468],a=0.723014, t_min = 0.040000)
speedj([-0.174558, -0.377002, 0.728054, -0.162383, 0.083281, 0.241886],a=0.723014, t_min = 0.040000)
speedj([-0.161283, -0.348332, 0.672689, -0.150035, 0.076948, 0.223492],a=0.723014, t_min = 0.040000)
speedj([-0.147897, -0.319421, 0.616856, -0.137581, 0.070561, 0.204942],a=0.723014, t_min = 0.040000)
speedj([-0.134605, -0.290712, 0.561415, -0.125216, 0.064219, 0.186523],a=0.723014, t_min = 0.040000)
speedj([-0.121215, -0.261796, 0.505572, -0.112761, 0.057832, 0.167969],a=0.723014, t_min = 0.040000)
speedj([-0.107907, -0.233053, 0.450066, -0.100382, 0.051482, 0.149528],a=0.723014, t_min = 0.040000)
speedj([-0.094576, -0.204261, 0.394463, -0.087980, 0.045122, 0.131055],a=0.723014, t_min = 0.040000)
speedj([-0.081180, -0.175329, 0.338589, -0.075518, 0.038731, 0.112491],a=0.723014, t_min = 0.040000)
speedj([-0.067863, -0.146566, 0.283045, -0.063129, 0.032378, 0.094038],a=0.723014, t_min = 0.040000)
speedj([-0.054502, -0.117711, 0.227319, -0.050701, 0.026003, 0.075523],a=0.723014, t_min = 0.040000)
speedj([-0.041162, -0.088900, 0.171680, -0.038291, 0.019639, 0.057039],a=0.723014, t_min = 0.040000)
speedj([-0.027819, -0.060082, 0.116029, -0.025879, 0.013272, 0.038549],a=0.723014, t_min = 0.040000)
speedj([-0.014427, -0.031160, 0.060175, -0.013421, 0.006883, 0.019992],a=0.723014, t_min = 0.040000)
speedj([-0.002071, -0.004472, 0.008636, -0.001926, 0.000988, 0.002869],a=0.723014, t_min = 0.040000)
speedj([0.000000, 0.000000, 0.000000, 0.000000, 0.000000, 0.000000],a=0.000000, t_min = 0.040000)
speedj([0.004672, 0.010093, -0.019491, 0.004348, -0.002231, -0.006480],a=0.420542, t_min = 0.040000)
speedj([0.241899, 0.522561, -1.009158, 0.225138, -0.115494, -0.335498],a=12.945483, t_min = 0.040000)
speedj([0.481267, 1.039656, -2.007758, 0.447922, -0.229781, -0.667487],a=12.945483, t_min = 0.040000)
speedj([0.718945, 1.553100, -2.999309, 0.669133, -0.343260, -0.997131],a=12.945483, t_min = 0.040000)
speedj([0.767052, 1.657022, -3.200000, 0.713906, -0.366228, -1.063852],a=0.000000, t_min = 0.040000)
speedj([0.767052, 1.657022, -3.200000, 0.713906, -0.366228, -1.063852],a=0.000000, t_min = 0.040000)
speedj([0.767052, 1.657022, -3.200000, 0.713906, -0.366228, -1.063852],a=0.000000, t_min = 0.040000)
speedj([0.767052, 1.657022, -3.200000, 0.713906, -0.366228, -1.063852],a=0.000000, t_min = 0.040000)
speedj([0.767052, 1.657022, -3.200000, 0.713906, -0.366228, -1.063852],a=0.000000, t_min = 0.040000)
speedj([0.767052, 1.657022, -3.200000, 0.713906, -0.366228, -1.063852],a=0.000000, t_min = 0.040000)
speedj([0.767052, 1.657022, -3.200000, 0.713906, -0.366228, -1.063852],a=0.000000, t_min = 0.040000)
speedj([0.767052, 1.657022, -3.200000, 0.713906, -0.366228, -1.063852],a=0.000000, t_min = 0.040000)
speedj([0.767052, 1.657022, -3.200000, 0.713906, -0.366228, -1.063852],a=0.000000, t_min = 0.040000)
speedj([0.767052, 1.657022, -3.200000, 0.713906, -0.366228, -1.063852],a=0.000000, t_min = 0.040000)
speedj([0.689154, 1.488743, -2.875024, 0.641405, -0.329036, -0.955812],a=15.137882, t_min = 0.040000)
speedj([0.456095, 0.985279, -1.902745, 0.424494, -0.217762, -0.632575],a=25.000000, t_min = 0.040000)
speedj([0.218257, 0.471489, -0.910529, 0.203135, -0.104207, -0.302708],a=25.000000, t_min = 0.040000)
speedj([0.011238, 0.024277, -0.046883, 0.010460, -0.005366, -0.015586],a=18.509974, t_min = 0.040000)
speedj([0.000000, 0.000000, 0.000000, 0.000000, 0.000000, 0.000000],a=0.000000, t_min = 0.040000)
speedj([0.000000, 0.000000, 0.000000, 0.000000, 0.000000, 0.000000],a=0.000000, t_min = 0.040000)
speedj([0.000000, 0.000000, 0.000000, 0.000000, 0.000000, 0.000000],a=0.000000, t_min = 0.040000)
speedj([0.000000, 0.000000, 0.000000, 0.000000, 0.000000, 0.000000],a=0.000000, t_min = 0.040000)
speedj([0.000000, 0.000000, 0.000000, 0.000000, 0.000000, 0.000000],a=0.000000, t_min = 0.040000)
speedj([0.000000, 0.000000, 0.000000, 0.000000, 0.000000, 0.000000],a=0.000000, t_min = 0.040000)
speedj([0.000000, 0.000000, 0.000000, 0.000000, 0.000000, 0.000000],a=0.000000, t_min = 0.040000)
speedj([0.000000, 0.000000, 0.000000, 0.000000, 0.000000, 0.000000],a=0.000000, t_min = 0.040000)
speedj([0.000000, 0.000000, 0.000000, 0.000000, 0.000000, 0.000000],a=0.000000, t_min = 0.040000)
speedj([0.000000, 0.000000, 0.000000, 0.000000, 0.000000, 0.000000],a=0.000000, t_min = 0.040000)
speedj([0.000000, 0.000000, 0.000000, 0.000000, 0.000000, 0.000000],a=0.000000, t_min = 0.040000)
speedj([0.000000, 0.000000, 0.000000, 0.000000, 0.000000, 0.000000],a=0.000000, t_min = 0.040000)
speedj([0.000000, 0.000000, 0.000000, 0.000000, 0.000000, 0.000000],a=0.000000, t_min = 0.040000)
speedj([0.000000, 0.000000, 0.000000, 0.000000, 0.000000, 0.000000],a=0.000000, t_min = 0.040000)
speedj([0.000000, 0.000000, 0.000000, 0.000000, 0.000000, 0.000000],a=0.000000, t_min = 0.040000)
speedj([0.000000, 0.000000, 0.000000, 0.000000, 0.000000, 0.000000],a=0.000000, t_min = 0.040000)
speedj([0.000000, 0.000000, 0.000000, 0.000000, 0.000000, 0.000000],a=0.000000, t_min = 0.040000)
speedj([0.000000, 0.000000, 0.000000, 0.000000, 0.000000, 0.000000],a=0.000000, t_min = 0.040000)
speedj([0.000000, 0.000000, 0.000000, 0.000000, 0.000000, 0.000000],a=0.000000, t_min = 0.040000)
speedj([0.000000, 0.000000, 0.000000, 0.000000, 0.000000, 0.000000],a=0.000000, t_min = 0.040000)
speedj([0.000000, 0.000000, 0.000000, 0.000000, 0.000000, 0.000000],a=0.000000, t_min = 0.040000)
speedj([0.000000, 0.000000, 0.000000, 0.000000, 0.000000, 0.000000],a=0.000000, t_min = 0.040000)
speedj([0.000000, 0.000000, 0.000000, 0.000000, 0.000000, 0.000000],a=0.000000, t_min = 0.040000)
speedj([0.000000, 0.000000, 0.000000, 0.000000, 0.000000, 0.000000],a=0.000000, t_min = 0.040000)
speedj([0.000000, 0.000000, 0.000000, 0.000000, 0.000000, 0.000000],a=0.000000, t_min = 0.040000)
speedj([0.000000, 0.000000, 0.000000, 0.000000, 0.000000, 0.000000],a=0.000000, t_min = 0.040000)
speedj([0.000000, 0.000000, 0.000000, 0.000000, 0.000000, 0.000000],a=0.000000, t_min = 0.040000)
speedj([0.000000, 0.000000, 0.000000, 0.000000, 0.000000, 0.000000],a=0.000000, t_min = 0.040000)
speedj([0.000000, 0.000000, 0.000000, 0.000000, 0.000000, 0.000000],a=0.000000, t_min = 0.040000)
speedj([0.000000, 0.000000, 0.000000, 0.000000, 0.000000, 0.000000],a=0.000000, t_min = 0.040000)
speedj([0.000000, 0.000000, 0.000000, 0.000000, 0.000000, 0.000000],a=0.000000, t_min = 0.040000)
speedj([0.000000, 0.000000, 0.000000, 0.000000, 0.000000, 0.000000],a=0.000000, t_min = 0.040000)
speedj([0.000000, 0.000000, 0.000000, 0.000000, 0.000000, 0.000000],a=0.000000, t_min = 0.040000)
speedj([0.000000, 0.000000, 0.000000, 0.000000, 0.000000, 0.000000],a=0.000000, t_min = 0.040000)
speedj([0.000000, 0.000000, 0.000000, 0.000000, 0.000000, 0.000000],a=0.000000, t_min = 0.040000)
speedj([0.000000, 0.000000, 0.000000, 0.000000, 0.000000, 0.000000],a=0.000000, t_min = 0.040000)
speedj([0.000000, 0.000000, 0.000000, 0.000000, 0.000000, 0.000000],a=0.000000, t_min = 0.040000)
speedj([0.000000, 0.000000, 0.000000, 0.000000, 0.000000, 0.000000],a=0.000000, t_min = 0.040000)
speedj([0.000000, 0.000000, 0.000000, 0.000000, 0.000000, 0.000000],a=0.000000, t_min = 0.040000)
speedj([0.000000, 0.000000, 0.000000, 0.000000, 0.000000, 0.000000],a=0.000000, t_min = 0.040000)
speedj([0.000000, 0.000000, 0.000000, 0.000000, 0.000000, 0.000000],a=0.000000, t_min = 0.040000)
speedj([0.000000, 0.000000, 0.000000, 0.000000, 0.000000, 0.000000],a=0.000000, t_min = 0.040000)
speedj([0.000000, 0.000000, 0.000000, 0.000000, 0.000000, 0.000000],a=0.000000, t_min = 0.040000)
speedj([0.000000, 0.000000, 0.000000, 0.000000, 0.000000, 0.000000],a=0.000000, t_min = 0.040000)
speedj([0.000000, 0.000000, 0.000000, 0.000000, 0.000000, 0.000000],a=0.000000, t_min = 0.040000)
speedj([-0.101002, -0.218283, 0.421475, -0.094027, 0.048238, 0.140019],a=17.561453, t_min = 0.040000)
speedj([-0.338968, -0.732568, 1.414489, -0.315557, 0.161888, 0.469909],a=25.000000, t_min = 0.040000)
speedj([-0.578577, -1.250405, 2.414359, -0.538618, 0.276323, 0.802078],a=25.000000, t_min = 0.040000)
speedj([-0.766848, -1.657290, 3.200000, -0.713887, 0.366240, 1.063077],a=0.000000, t_min = 0.040000)
speedj([-0.766848, -1.657290, 3.200000, -0.713887, 0.366240, 1.063077],a=0.000000, t_min = 0.040000)
speedj([-0.766848, -1.657290, 3.200000, -0.713887, 0.366240, 1.063077],a=0.000000, t_min = 0.040000)
speedj([-0.766848, -1.657290, 3.200000, -0.713887, 0.366240, 1.063077],a=0.000000, t_min = 0.040000)
speedj([-0.766848, -1.657290, 3.200000, -0.713887, 0.366240, 1.063077],a=0.000000, t_min = 0.040000)
speedj([-0.766848, -1.657290, 3.200000, -0.713887, 0.366240, 1.063077],a=0.000000, t_min = 0.040000)
speedj([-0.766848, -1.657290, 3.200000, -0.713887, 0.366240, 1.063077],a=0.000000, t_min = 0.040000)
speedj([-0.766848, -1.657290, 3.200000, -0.713887, 0.366240, 1.063077],a=0.000000, t_min = 0.040000)
speedj([-0.766848, -1.657290, 3.200000, -0.713887, 0.366240, 1.063077],a=0.000000, t_min = 0.040000)
speedj([-0.766848, -1.657290, 3.200000, -0.713887, 0.366240, 1.063077],a=0.000000, t_min = 0.040000)
speedj([-0.766848, -1.657290, 3.200000, -0.713887, 0.366240, 1.063077],a=0.000000, t_min = 0.040000)
speedj([-0.596728, -1.289631, 2.490101, -0.555515, 0.284992, 0.827240],a=12.947579, t_min = 0.040000)
speedj([-0.358431, -0.774631, 1.495706, -0.333677, 0.171183, 0.496890],a=12.947579, t_min = 0.040000)
speedj([-0.119714, -0.258722, 0.499556, -0.111446, 0.057174, 0.165958],a=12.947579, t_min = 0.040000)
speedj([-0.001044, -0.002257, 0.004357, -0.000972, 0.000499, 0.001448],a=0.866297, t_min = 0.040000)
speedj([0.000000, 0.000000, 0.000000, 0.000000, 0.000000, 0.000000],a=0.000000, t_min = 0.040000)
speedj([0.000000, 0.000000, 0.000000, 0.000000, 0.000000, 0.000000],a=0.000000, t_min = 0.040000)
speedj([0.000000, 0.000000, 0.000000, 0.000000, 0.000000, 0.000000],a=0.000000, t_min = 0.040000)
speedj([0.000000, 0.000000, 0.000000, 0.000000, 0.000000, 0.000000],a=0.000000, t_min = 0.040000)
speedj([0.000000, 0.000000, 0.000000, 0.000000, 0.000000, 0.000000],a=0.000000, t_min = 0.040000)
speedj([0.000000, 0.000000, 0.000000, 0.000000, 0.000000, 0.000000],a=0.000000, t_min = 0.040000)
speedj([0.000000, 0.000000, 0.000000, 0.000000, 0.000000, 0.000000],a=0.000000, t_min = 0.040000)
speedj([0.000000, 0.000000, 0.000000, 0.000000, 0.000000, 0.000000],a=0.000000, t_min = 0.040000)
speedj([0.000000, 0.000000, 0.000000, 0.000000, 0.000000, 0.000000],a=0.000000, t_min = 0.040000)
speedj([0.000000, 0.000000, 0.000000, 0.000000, 0.000000, 0.000000],a=0.000000, t_min = 0.040000)
speedj([0.000000, 0.000000, 0.000000, 0.000000, 0.000000, 0.000000],a=0.000000, t_min = 0.040000)
speedj([0.000000, 0.000000, 0.000000, 0.000000, 0.000000, 0.000000],a=0.000000, t_min = 0.040000)
speedj([0.000000, 0.000000, 0.000000, 0.000000, 0.000000, 0.000000],a=0.000000, t_min = 0.040000)
speedj([0.000000, 0.000000, 0.000000, 0.000000, 0.000000, 0.000000],a=0.000000, t_min = 0.040000)
speedj([0.000000, 0.000000, 0.000000, 0.000000, 0.000000, 0.000000],a=0.000000, t_min = 0.040000)
speedj([0.000000, 0.000000, 0.000000, 0.000000, 0.000000, 0.000000],a=0.000000, t_min = 0.040000)
speedj([0.000000, 0.000000, 0.000000, 0.000000, 0.000000, 0.000000],a=0.000000, t_min = 0.040000)
speedj([0.000000, 0.000000, 0.000000, 0.000000, 0.000000, 0.000000],a=0.000000, t_min = 0.040000)
speedj([0.000000, 0.000000, 0.000000, 0.000000, 0.000000, 0.000000],a=0.000000, t_min = 0.040000)
speedj([0.000000, 0.000000, 0.000000, 0.000000, 0.000000, 0.000000],a=0.000000, t_min = 0.040000)
speedj([0.000000, 0.000000, 0.000000, 0.000000, 0.000000, 0.000000],a=0.000000, t_min = 0.040000)
speedj([0.000000, 0.000000, 0.000000, 0.000000, 0.000000, 0.000000],a=0.000000, t_min = 0.040000)
speedj([0.000000, 0.000000, 0.000000, 0.000000, 0.000000, 0.000000],a=0.000000, t_min = 0.040000)
speedj([0.000000, 0.000000, 0.000000, 0.000000, 0.000000, 0.000000],a=0.000000, t_min = 0.040000)
speedj([0.000000, 0.000000, 0.000000, 0.000000, 0.000000, 0.000000],a=0.000000, t_min = 0.040000)
speedj([0.000000, 0.000000, 0.000000, 0.000000, 0.000000, 0.000000],a=0.000000, t_min = 0.040000)
speedj([0.000000, 0.000000, 0.000000, 0.000000, 0.000000, 0.000000],a=0.000000, t_min = 0.040000)
speedj([0.000000, 0.000000, 0.000000, 0.000000, 0.000000, 0.000000],a=0.000000, t_min = 0.040000)
speedj([0.000000, 0.000000, 0.000000, 0.000000, 0.000000, 0.000000],a=0.000000, t_min = 0.040000)
speedj([0.000000, 0.000000, 0.000000, 0.000000, 0.000000, 0.000000],a=0.000000, t_min = 0.040000)
speedj([0.000000, 0.000000, 0.000000, 0.000000, 0.000000, 0.000000],a=0.000000, t_min = 0.040000)
speedj([0.000000, 0.000000, 0.000000, 0.000000, 0.000000, 0.000000],a=0.000000, t_min = 0.040000)
speedj([0.000000, 0.000000, 0.000000, 0.000000, 0.000000, 0.000000],a=0.000000, t_min = 0.040000)
speedj([0.000000, 0.000000, 0.000000, 0.000000, 0.000000, 0.000000],a=0.000000, t_min = 0.040000)
speedj([0.000000, 0.000000, 0.000000, 0.000000, 0.000000, 0.000000],a=0.000000, t_min = 0.040000)
speedj([0.000000, 0.000000, 0.000000, 0.000000, 0.000000, 0.000000],a=0.000000, t_min = 0.040000)
speedj([0.000000, 0.000000, 0.000000, 0.000000, 0.000000, 0.000000],a=0.000000, t_min = 0.040000)
speedj([0.000000, 0.000000, 0.000000, 0.000000, 0.000000, 0.000000],a=0.000000, t_min = 0.040000)
speedj([0.000000, 0.000000, 0.000000, 0.000000, 0.000000, 0.000000],a=0.000000, t_min = 0.040000)
speedj([0.000000, 0.000000, 0.000000, 0.000000, 0.000000, 0.000000],a=0.000000, t_min = 0.040000)
speedj([0.000000, 0.000000, 0.000000, 0.000000, 0.000000, 0.000000],a=0.000000, t_min = 0.040000)
speedj([0.000000, 0.000000, 0.000000, 0.000000, 0.000000, 0.000000],a=0.000000, t_min = 0.040000)
speedj([0.000000, 0.000000, 0.000000, 0.000000, 0.000000, 0.000000],a=0.000000, t_min = 0.040000)
speedj([0.000000, 0.000000, 0.000000, 0.000000, 0.000000, 0.000000],a=0.000000, t_min = 0.040000)
speedj([0.000000, 0.000000, 0.000000, 0.000000, 0.000000, 0.000000],a=0.000000, t_min = 0.040000)
speedj([0.198223, 0.428394, -0.827173, 0.184586, -0.094741, -0.274940],a=12.947539, t_min = 0.040000)
speedj([0.437326, 0.945140, -1.824941, 0.407240, -0.209023, -0.606583],a=12.947539, t_min = 0.040000)
speedj([0.676222, 1.461437, -2.821843, 0.629702, -0.323205, -0.937938],a=12.947539, t_min = 0.040000)
speedj([0.766843, 1.657285, -3.200000, 0.714089, -0.366518, -1.063631],a=0.000000, t_min = 0.040000)
speedj([0.766843, 1.657285, -3.200000, 0.714089, -0.366518, -1.063631],a=0.000000, t_min = 0.040000)
speedj([0.766843, 1.657285, -3.200000, 0.714089, -0.366518, -1.063631],a=0.000000, t_min = 0.040000)
speedj([0.766843, 1.657285, -3.200000, 0.714089, -0.366518, -1.063631],a=0.000000, t_min = 0.040000)
speedj([0.766843, 1.657285, -3.200000, 0.714089, -0.366518, -1.063631],a=0.000000, t_min = 0.040000)
speedj([0.766843, 1.657285, -3.200000, 0.714089, -0.366518, -1.063631],a=0.000000, t_min = 0.040000)
speedj([0.766843, 1.657285, -3.200000, 0.714089, -0.366518, -1.063631],a=0.000000, t_min = 0.040000)
speedj([0.766843, 1.657285, -3.200000, 0.714089, -0.366518, -1.063631],a=0.000000, t_min = 0.040000)
speedj([0.766843, 1.657285, -3.200000, 0.714089, -0.366518, -1.063631],a=0.000000, t_min = 0.040000)
speedj([0.766843, 1.657285, -3.200000, 0.714089, -0.366518, -1.063631],a=0.000000, t_min = 0.040000)
speedj([0.728195, 1.573760, -3.038724, 0.678100, -0.348046, -1.010025],a=7.539009, t_min = 0.040000)
speedj([0.499925, 1.080428, -2.086164, 0.465533, -0.238942, -0.693409],a=25.000000, t_min = 0.040000)
speedj([0.261450, 0.565040, -1.091018, 0.243464, -0.124962, -0.362638],a=25.000000, t_min = 0.040000)
speedj([0.022714, 0.049088, -0.094782, 0.021151, -0.010856, -0.031504],a=25.000000, t_min = 0.040000)
speedj([0.000000, 0.000000, 0.000000, 0.000000, 0.000000, 0.000000],a=0.000000, t_min = 0.040000)
speedj([0.000000, 0.000000, 0.000000, 0.000000, 0.000000, 0.000000],a=0.000000, t_min = 0.040000)
speedj([0.000000, 0.000000, 0.000000, 0.000000, 0.000000, 0.000000],a=0.000000, t_min = 0.040000)
speedj([0.000000, 0.000000, 0.000000, 0.000000, 0.000000, 0.000000],a=0.000000, t_min = 0.040000)
speedj([0.000000, 0.000000, 0.000000, 0.000000, 0.000000, 0.000000],a=0.000000, t_min = 0.040000)
speedj([0.000000, 0.000000, 0.000000, 0.000000, 0.000000, 0.000000],a=0.000000, t_min = 0.040000)
speedj([0.000000, 0.000000, 0.000000, 0.000000, 0.000000, 0.000000],a=0.000000, t_min = 0.040000)
speedj([0.000000, 0.000000, 0.000000, 0.000000, 0.000000, 0.000000],a=0.000000, t_min = 0.040000)
speedj([0.000000, 0.000000, 0.000000, 0.000000, 0.000000, 0.000000],a=0.000000, t_min = 0.040000)
speedj([0.000000, 0.000000, 0.000000, 0.000000, 0.000000, 0.000000],a=0.000000, t_min = 0.040000)
speedj([0.000000, 0.000000, 0.000000, 0.000000, 0.000000, 0.000000],a=0.000000, t_min = 0.040000)
speedj([0.000000, 0.000000, 0.000000, 0.000000, 0.000000, 0.000000],a=0.000000, t_min = 0.040000)
speedj([0.000000, 0.000000, 0.000000, 0.000000, 0.000000, 0.000000],a=0.000000, t_min = 0.040000)
speedj([0.000000, 0.000000, 0.000000, 0.000000, 0.000000, 0.000000],a=0.000000, t_min = 0.040000)
speedj([0.000000, 0.000000, 0.000000, 0.000000, 0.000000, 0.000000],a=0.000000, t_min = 0.040000)
speedj([0.000000, 0.000000, 0.000000, 0.000000, 0.000000, 0.000000],a=0.000000, t_min = 0.040000)
speedj([0.000000, 0.000000, 0.000000, 0.000000, 0.000000, 0.000000],a=0.000000, t_min = 0.040000)
speedj([0.000000, 0.000000, 0.000000, 0.000000, 0.000000, 0.000000],a=0.000000, t_min = 0.040000)
speedj([0.000000, 0.000000, 0.000000, 0.000000, 0.000000, 0.000000],a=0.000000, t_min = 0.040000)
speedj([0.000000, 0.000000, 0.000000, 0.000000, 0.000000, 0.000000],a=0.000000, t_min = 0.040000)
speedj([0.000000, 0.000000, 0.000000, 0.000000, 0.000000, 0.000000],a=0.000000, t_min = 0.040000)
speedj([0.000000, 0.000000, 0.000000, 0.000000, 0.000000, 0.000000],a=0.000000, t_min = 0.040000)
speedj([0.000000, 0.000000, 0.000000, 0.000000, 0.000000, 0.000000],a=0.000000, t_min = 0.040000)
speedj([0.000000, 0.000000, 0.000000, 0.000000, 0.000000, 0.000000],a=0.000000, t_min = 0.040000)
speedj([0.000000, 0.000000, 0.000000, 0.000000, 0.000000, 0.000000],a=0.000000, t_min = 0.040000)
speedj([0.000000, 0.000000, 0.000000, 0.000000, 0.000000, 0.000000],a=0.000000, t_min = 0.040000)
speedj([0.000000, 0.000000, 0.000000, 0.000000, 0.000000, 0.000000],a=0.000000, t_min = 0.040000)
speedj([0.000000, 0.000000, 0.000000, 0.000000, 0.000000, 0.000000],a=0.000000, t_min = 0.040000)
speedj([0.000000, 0.000000, 0.000000, 0.000000, 0.000000, 0.000000],a=0.000000, t_min = 0.040000)
speedj([0.000000, 0.000000, 0.000000, 0.000000, 0.000000, 0.000000],a=0.000000, t_min = 0.040000)
speedj([0.000000, 0.000000, 0.000000, 0.000000, 0.000000, 0.000000],a=0.000000, t_min = 0.040000)
speedj([0.000000, 0.000000, 0.000000, 0.000000, 0.000000, 0.000000],a=0.000000, t_min = 0.040000)
speedj([0.000000, 0.000000, 0.000000, 0.000000, 0.000000, 0.000000],a=0.000000, t_min = 0.040000)
speedj([0.000000, 0.000000, 0.000000, 0.000000, 0.000000, 0.000000],a=0.000000, t_min = 0.040000)
speedj([0.000000, 0.000000, 0.000000, 0.000000, 0.000000, 0.000000],a=0.000000, t_min = 0.040000)
speedj([0.000000, 0.000000, 0.000000, 0.000000, 0.000000, 0.000000],a=0.000000, t_min = 0.040000)
speedj([0.000000, 0.000000, 0.000000, 0.000000, 0.000000, 0.000000],a=0.000000, t_min = 0.040000)
speedj([0.000000, 0.000000, 0.000000, 0.000000, 0.000000, 0.000000],a=0.000000, t_min = 0.040000)
speedj([0.000000, 0.000000, 0.000000, 0.000000, 0.000000, 0.000000],a=0.000000, t_min = 0.040000)
speedj([0.000000, 0.000000, 0.000000, 0.000000, 0.000000, 0.000000],a=0.000000, t_min = 0.040000)
speedj([0.000000, 0.000000, 0.000000, 0.000000, 0.000000, 0.000000],a=0.000000, t_min = 0.040000)
speedj([0.000000, 0.000000, 0.000000, 0.000000, 0.000000, 0.000000],a=0.000000, t_min = 0.040000)
speedj([0.000000, 0.000000, 0.000000, 0.000000, 0.000000, 0.000000],a=0.000000, t_min = 0.040000)
speedj([0.000000, 0.000000, 0.000000, 0.000000, 0.000000, 0.000000],a=0.000000, t_min = 0.040000)
speedj([0.000000, 0.000000, 0.000000, 0.000000, 0.000000, 0.000000],a=0.000000, t_min = 0.040000)
speedj([-0.057959, -0.125256, 0.241853, -0.053955, 0.027680, 0.080347],a=10.077840, t_min = 0.040000)
speedj([-0.296291, -0.640315, 1.236366, -0.275822, 0.141503, 0.410738],a=25.000000, t_min = 0.040000)
speedj([-0.534997, -1.156181, 2.232439, -0.498037, 0.255504, 0.741646],a=25.000000, t_min = 0.040000)
speedj([-0.766870, -1.657282, 3.200000, -0.713891, 0.366242, 1.063083],a=0.000000, t_min = 0.040000)
speedj([-0.766870, -1.657282, 3.200000, -0.713891, 0.366242, 1.063083],a=0.000000, t_min = 0.040000)
speedj([-0.766870, -1.657282, 3.200000, -0.713891, 0.366242, 1.063083],a=0.000000, t_min = 0.040000)
speedj([-0.766870, -1.657282, 3.200000, -0.713891, 0.366242, 1.063083],a=0.000000, t_min = 0.040000)
speedj([-0.766870, -1.657282, 3.200000, -0.713891, 0.366242, 1.063083],a=0.000000, t_min = 0.040000)
speedj([-0.766870, -1.657282, 3.200000, -0.713891, 0.366242, 1.063083],a=0.000000, t_min = 0.040000)
speedj([-0.766870, -1.657282, 3.200000, -0.713891, 0.366242, 1.063083],a=0.000000, t_min = 0.040000)
speedj([-0.766870, -1.657282, 3.200000, -0.713891, 0.366242, 1.063083],a=0.000000, t_min = 0.040000)
speedj([-0.766870, -1.657282, 3.200000, -0.713891, 0.366242, 1.063083],a=0.000000, t_min = 0.040000)
speedj([-0.766870, -1.657282, 3.200000, -0.713891, 0.366242, 1.063083],a=0.000000, t_min = 0.040000)
speedj([-0.766870, -1.657282, 3.200000, -0.713891, 0.366242, 1.063083],a=0.000000, t_min = 0.040000)
speedj([-0.640194, -1.383523, 2.671407, -0.595966, 0.305745, 0.887477],a=12.792780, t_min = 0.040000)
speedj([-0.401666, -0.868042, 1.676078, -0.373917, 0.191828, 0.556816],a=12.947514, t_min = 0.040000)
speedj([-0.163771, -0.353924, 0.683383, -0.152457, 0.078213, 0.227029],a=12.947514, t_min = 0.040000)
speedj([-0.005675, -0.012265, 0.023682, -0.005283, 0.002710, 0.007868],a=4.716182, t_min = 0.040000)
speedj([0.000000, 0.000000, 0.000000, 0.000000, 0.000000, 0.000000],a=0.000000, t_min = 0.040000)
speedj([0.000000, 0.000000, 0.000000, 0.000000, 0.000000, 0.000000],a=0.000000, t_min = 0.040000)
speedj([0.000000, 0.000000, 0.000000, 0.000000, 0.000000, 0.000000],a=0.000000, t_min = 0.040000)
speedj([0.000000, 0.000000, 0.000000, 0.000000, 0.000000, 0.000000],a=0.000000, t_min = 0.040000)
speedj([0.000000, 0.000000, 0.000000, 0.000000, 0.000000, 0.000000],a=0.000000, t_min = 0.040000)
speedj([0.000000, 0.000000, 0.000000, 0.000000, 0.000000, 0.000000],a=0.000000, t_min = 0.040000)
